;FLAVOR:UltiGCode
;TIME:2246
;MATERIAL:1579
;MATERIAL2:0
;NOZZLE_DIAMETER:0.4
;MINX:100.109
;MINY:100.109
;MINZ:0.27
;MAXX:122.891
;MAXY:122.891
;MAXZ:15.77
;Generated with Cura_SteamEngine 5.0.0
M82 ;absolute extrusion mode
G0 F3000 Y50 ;avoid prime blob
G92 E0
G92 E0
G10
;LAYER_COUNT:156
;LAYER:0
M107
G0 F4320 X101.697 Y101.455 Z0.27
G0 X100.111 Y105.59
;TYPE:SKIRT
G11
G1 F1800 X100.121 Y104.944 E0.06978
G1 X100.17 Y104.353 E0.13382
G1 X100.283 Y103.824 E0.19224
G1 X100.548 Y103.026 E0.28306
G1 X100.82 Y102.499 E0.34711
G1 X101.16 Y102.013 E0.41116
G1 X101.697 Y101.455 E0.4948
G1 X102.418 Y100.881 E0.59433
G1 X102.934 Y100.589 E0.65836
G1 X103.485 Y100.369 E0.72244
G1 X104.06 Y100.226 E0.78643
G1 X104.936 Y100.128 E0.88163
G1 X105.347 Y100.109 E0.92607
G1 X117.373 Y100.11 E2.22487
G1 X118.052 Y100.12 E2.29821
G1 X118.643 Y100.169 E2.36226
G1 X119.17 Y100.282 E2.42047
G1 X119.969 Y100.547 E2.51138
G1 X120.497 Y100.818 E2.57548
G1 X121.115 Y101.268 E2.65804
G1 X121.689 Y101.82 E2.74405
G1 X122.049 Y102.291 E2.80808
G1 X122.343 Y102.807 E2.87221
G1 X122.552 Y103.32 E2.93204
G1 X122.792 Y104.159 E3.02629
G1 X122.869 Y104.896 E3.10632
G1 X122.891 Y106.015 E3.22719
G1 X122.887 Y117.377 E4.45429
G1 X122.878 Y117.992 E4.52071
G1 X122.84 Y118.504 E4.57616
G1 X122.693 Y119.313 E4.66497
G1 X122.499 Y119.873 E4.72897
G1 X122.112 Y120.591 E4.81706
G1 X121.618 Y121.262 E4.90705
G1 X121.197 Y121.68 E4.97112
G1 X120.724 Y122.037 E5.03513
G1 X120.269 Y122.298 E5.09178
G1 X119.499 Y122.634 E5.18251
G1 X118.801 Y122.808 E5.2602
G1 X118.142 Y122.87 E5.33169
G1 X117.008 Y122.891 E5.45418
G1 X105.62 Y122.889 E6.68408
G1 X104.898 Y122.877 E6.76207
G1 X104.307 Y122.828 E6.82612
G1 X103.728 Y122.699 E6.89018
G1 X103.162 Y122.497 E6.95509
G1 X102.624 Y122.248 E7.01911
G1 X102.124 Y121.929 E7.08317
G1 X101.672 Y121.546 E7.14715
G1 X101.221 Y121.048 E7.21971
G1 X100.867 Y120.573 E7.28369
G1 X100.579 Y120.054 E7.34779
G1 X100.364 Y119.502 E7.41177
G1 X100.218 Y118.914 E7.47721
G1 X100.118 Y118.041 E7.57211
G1 X100.109 Y117.344 E7.64739
G1 X100.111 Y105.59 E8.91682
G0 F4320 X100.51 Y105.596
G1 F1800 X100.52 Y104.95 E8.9866
G1 X100.569 Y104.387 E9.04763
G1 X100.735 Y103.693 E9.1247
G1 X100.926 Y103.161 E9.18574
G1 X101.19 Y102.661 E9.24681
G1 X101.522 Y102.203 E9.3079
G1 X101.96 Y101.757 E9.37541
G1 X102.659 Y101.2 E9.47194
G1 X103.154 Y100.927 E9.53299
G1 X103.683 Y100.727 E9.59407
G1 X104.462 Y100.574 E9.67981
G1 X104.974 Y100.526 E9.73535
G1 X105.347 Y100.509 E9.77568
G1 X117.367 Y100.51 E11.07384
G1 X118.046 Y100.52 E11.14718
G1 X118.609 Y100.569 E11.20821
G1 X119.303 Y100.734 E11.28525
G1 X119.835 Y100.924 E11.34626
G1 X120.335 Y101.188 E11.40733
G1 X120.853 Y101.569 E11.47677
G1 X121.406 Y102.104 E11.55987
G1 X121.745 Y102.556 E11.62089
G1 X122.016 Y103.052 E11.68193
G1 X122.262 Y103.713 E11.75811
G1 X122.404 Y104.26 E11.81914
G1 X122.469 Y104.904 E11.88905
G1 X122.491 Y106.014 E12.00895
G1 X122.487 Y117.372 E13.23561
G1 X122.478 Y117.987 E13.30204
G1 X122.414 Y118.679 E13.3771
G1 X122.3 Y119.233 E13.43818
G1 X122.11 Y119.765 E13.49919
G1 X121.779 Y120.37 E13.57367
G1 X121.3 Y121.017 E13.66061
G1 X120.895 Y121.412 E13.72171
G1 X120.438 Y121.745 E13.78278
G1 X119.869 Y122.049 E13.85245
G1 X119.346 Y122.264 E13.91352
G1 X118.734 Y122.413 E13.98155
G1 X118.134 Y122.47 E14.04664
G1 X117.008 Y122.491 E14.16827
G1 X105.627 Y122.489 E15.39742
G1 X104.905 Y122.477 E15.47541
G1 X104.341 Y122.428 E15.53655
G1 X103.54 Y122.213 E15.62612
G1 X102.793 Y121.884 E15.71427
G1 X102.32 Y121.576 E15.77523
G1 X101.894 Y121.203 E15.83638
G1 X101.525 Y120.788 E15.89636
G1 X101.188 Y120.334 E15.95742
G1 X100.919 Y119.836 E16.01855
G1 X100.654 Y119.036 E16.10957
G1 X100.518 Y118.036 E16.21856
G1 X100.509 Y117.344 E16.2933
G1 X100.51 Y105.596 E17.56209
G0 F4320 X100.91 Y105.602
G1 F1800 X100.92 Y104.956 E17.63186
G1 X100.969 Y104.422 E17.68978
G1 X101.121 Y103.801 E17.75883
G1 X101.303 Y103.297 E17.8167
G1 X101.559 Y102.826 E17.8746
G1 X101.882 Y102.397 E17.93259
G1 X102.471 Y101.842 E18.01999
G1 X102.9 Y101.521 E18.07786
G1 X103.373 Y101.267 E18.13584
G1 X103.877 Y101.087 E18.19364
G1 X104.499 Y100.973 E18.26194
G1 X105.011 Y100.925 E18.31748
G1 X105.347 Y100.909 E18.35381
G1 X117.361 Y100.91 E19.65132
G1 X118.04 Y100.92 E19.72466
G1 X118.574 Y100.968 E19.78256
G1 X119.195 Y101.12 E19.85161
G1 X119.699 Y101.302 E19.90948
G1 X120.171 Y101.557 E19.96742
G1 X120.59 Y101.871 E20.02397
G1 X121.121 Y102.386 E20.10386
G1 X121.438 Y102.819 E20.16182
G1 X121.686 Y103.295 E20.21978
G1 X121.883 Y103.84 E20.28237
G1 X122.015 Y104.36 E20.34031
G1 X122.069 Y104.912 E20.40021
G1 X122.091 Y106.014 E20.51925
G1 X122.087 Y117.366 E21.74527
G1 X122.078 Y117.981 E21.8117
G1 X122.017 Y118.627 E21.88178
G1 X121.907 Y119.152 E21.93971
G1 X121.721 Y119.654 E21.99752
G1 X121.446 Y120.148 E22.05859
G1 X120.983 Y120.772 E22.1425
G1 X120.595 Y121.141 E22.20033
G1 X120.155 Y121.449 E22.25834
G1 X119.691 Y121.691 E22.31486
G1 X119.194 Y121.892 E22.37275
G1 X118.666 Y122.019 E22.4314
G1 X118.127 Y122.07 E22.48988
G1 X117.008 Y122.091 E22.61075
G1 X105.633 Y122.09 E23.83925
G1 X104.911 Y122.078 E23.91724
G1 X104.377 Y122.029 E23.97515
G1 X103.683 Y121.84 E24.05283
G1 X102.963 Y121.521 E24.13788
G1 X102.518 Y121.223 E24.19572
G1 X102.002 Y120.73 E24.2728
G1 X101.511 Y120.096 E24.3594
G1 X101.261 Y119.621 E24.41738
G1 X101.045 Y118.951 E24.4934
G1 X100.918 Y118.03 E24.59381
G1 X100.909 Y117.344 E24.66791
G1 X100.91 Y105.602 E25.93604
G0 F4320 X101.31 Y105.608
G1 F1800 X101.32 Y104.962 E26.00582
G1 X101.368 Y104.459 E26.06039
G1 X101.506 Y103.909 E26.12163
G1 X101.68 Y103.435 E26.17616
G1 X101.927 Y102.994 E26.23075
G1 X102.241 Y102.597 E26.28542
G1 X102.733 Y102.144 E26.35765
G1 X103.14 Y101.843 E26.41232
G1 X103.588 Y101.61 E26.46685
G1 X104.068 Y101.45 E26.5215
G1 X105.048 Y101.323 E26.62822
G1 X105.347 Y101.309 E26.66055
G1 X117.355 Y101.31 E27.95742
G1 X118.034 Y101.32 E28.03076
G1 X118.537 Y101.368 E28.08533
G1 X119.087 Y101.505 E28.14654
G1 X119.562 Y101.679 E28.20117
G1 X120.003 Y101.925 E28.25571
G1 X120.482 Y102.307 E28.32188
G1 X120.836 Y102.668 E28.37649
G1 X121.128 Y103.08 E28.43102
G1 X121.414 Y103.702 E28.50496
G1 X121.626 Y104.458 E28.58976
G1 X121.669 Y104.921 E28.63998
G1 X121.691 Y106.014 E28.75805
G1 X121.687 Y117.36 E29.98341
G1 X121.678 Y117.975 E30.04984
G1 X121.62 Y118.574 E30.11484
G1 X121.515 Y119.069 E30.16948
G1 X121.333 Y119.54 E30.22402
G1 X120.98 Y120.127 E30.29799
G1 X120.667 Y120.525 E30.35268
G1 X120.296 Y120.868 E30.40725
G1 X119.736 Y121.222 E30.4788
G1 X119.044 Y121.52 E30.56017
G1 X118.119 Y121.67 E30.66137
G1 X117.008 Y121.691 E30.78138
G1 X105.64 Y121.69 E32.00913
G1 X104.918 Y121.678 E32.08711
G1 X104.415 Y121.629 E32.1417
G1 X103.827 Y121.466 E32.20759
G1 X103.135 Y121.159 E32.28935
G1 X102.719 Y120.872 E32.34394
G1 X102.306 Y120.47 E32.40618
G1 X101.835 Y119.859 E32.4895
G1 X101.606 Y119.408 E32.54413
G1 X101.436 Y118.866 E32.60548
G1 X101.318 Y118.024 E32.6973
G1 X101.309 Y117.344 E32.77075
G1 X101.31 Y105.608 E34.03824
G10
G0 F4320 X109.347 Y109.989
;TYPE:SUPPORT
G11
G1 F1800 X109.347 Y113.01 E34.3645
G10
G0 F4320 X108.913 Y112.014
G11
G1 F1800 X114.084 Y112.014 E34.92297
G10
G0 F4320 X113.011 Y109.347
G11
G1 F1800 X109.988 Y109.347 E35.24946
G10
G0 F4320 X112.014 Y108.915
G11
G1 F1800 X112.014 Y114.086 E35.80792
G10
;MESH:BOX v3.STL
G0 F4320 X108.061 Y111.909
;TYPE:WALL-OUTER
G11
G1 F1800 X108.057 Y111.13 E35.89206
G1 X108.226 Y110.372 E35.97593
G1 X108.555 Y109.677 E36.05898
G1 X109.034 Y109.069 E36.14257
G1 X109.639 Y108.579 E36.22665
G1 X110.33 Y108.24 E36.30978
G1 X111.089 Y108.061 E36.394
G1 X111.87 Y108.057 E36.47835
G1 X112.628 Y108.226 E36.56222
G1 X113.323 Y108.555 E36.64527
G1 X113.931 Y109.034 E36.72886
G1 X114.421 Y109.639 E36.81294
G1 X114.76 Y110.33 E36.89607
G1 X114.938 Y111.091 E36.98047
G1 X114.944 Y111.868 E37.06439
G1 X114.775 Y112.627 E37.14837
G1 X114.445 Y113.323 E37.23156
G1 X113.966 Y113.931 E37.31516
G1 X113.934 Y113.963 E37.32004
G1 X113.361 Y114.421 E37.39927
G1 X112.67 Y114.76 E37.48239
G1 X111.911 Y114.939 E37.56661
G1 X111.13 Y114.943 E37.65096
G1 X110.372 Y114.774 E37.73483
G1 X109.677 Y114.445 E37.81788
G1 X109.066 Y113.963 E37.90193
G1 X108.579 Y113.361 E37.98556
G1 X108.24 Y112.669 E38.06878
G1 X108.061 Y111.909 E38.1531
G0 F4320 X108.06 Y111.709
G10
G0 X104.71 Y117.975
G11
G1 F1800 X104.847 Y118.229 E38.18427
G1 X105.088 Y118.29 E38.21112
G1 X117.977 Y118.29 E39.60313
G1 X118.21 Y118.179 E39.63101
G1 X118.287 Y117.893 E39.66299
G1 X118.29 Y105.048 E41.05025
G1 X118.198 Y104.806 E41.07822
G1 X117.887 Y104.711 E41.11334
G1 X105.024 Y104.71 E42.50254
G1 X104.804 Y104.804 E42.52838
G1 X104.711 Y105.112 E42.56312
G1 X104.71 Y117.975 E43.95233
G0 F4320 X104.805 Y118.151
G0 X105.109 Y117.89
;TYPE:WALL-INNER
G1 F1800 X117.887 Y117.89 E45.33235
G1 X117.89 Y107.253 E46.48115
G1 X117.887 Y105.114 E46.71216
G1 X114.716 Y105.11 E47.05463
G1 X105.113 Y105.112 E48.09175
G1 X105.11 Y108.798 E48.48984
G1 X105.109 Y117.89 E49.47178
G10
G0 F4320 X107.657 Y111.13
G11
G1 F1800 X107.836 Y110.282 E49.56538
G1 X108.195 Y109.503 E49.65802
G1 X108.721 Y108.819 E49.7512
G1 X109.389 Y108.267 E49.84479
G1 X110.156 Y107.88 E49.93758
G1 X111 Y107.671 E50.03148
G1 X111.87 Y107.657 E50.12545
G1 X112.718 Y107.836 E50.21906
G1 X113.497 Y108.195 E50.31169
G1 X114.181 Y108.721 E50.40488
G1 X114.733 Y109.389 E50.49847
G1 X115.12 Y110.156 E50.59125
G1 X115.328 Y111.002 E50.68534
G1 X115.344 Y111.868 E50.77889
G1 X115.165 Y112.717 E50.87259
G1 X114.805 Y113.497 E50.96537
G1 X114.279 Y114.181 E51.05856
G1 X114.184 Y114.275 E51.073
G1 X113.611 Y114.733 E51.15222
G1 X112.844 Y115.12 E51.245
G1 X112 Y115.329 E51.33891
G1 X111.13 Y115.343 E51.43288
G1 X110.282 Y115.164 E51.52648
G1 X109.503 Y114.805 E51.61912
G1 X108.816 Y114.275 E51.71283
G1 X108.267 Y113.611 E51.80588
G1 X107.88 Y112.843 E51.89876
G1 X107.671 Y111.998 E51.99277
G1 X107.657 Y111.13 E52.08652
G10
G0 F4320 X107.28 Y111.907
;TYPE:SKIN
G11
G1 F1800 X107.299 Y110.932 E52.18868
G1 X107.522 Y110.031 E52.28592
G1 X107.945 Y109.187 E52.38482
G1 X108.549 Y108.456 E52.48416
G1 X109.302 Y107.874 E52.58386
G1 X109.341 Y107.85 E52.58866
G1 X110.162 Y107.477 E52.68312
G1 X111.096 Y107.28 E52.78312
G1 X112.068 Y107.299 E52.88497
G1 X112.973 Y107.524 E52.98266
G1 X113.814 Y107.946 E53.08124
G1 X114.544 Y108.549 E53.18043
G1 X115.129 Y109.306 E53.28065
G1 X115.525 Y110.167 E53.37993
G1 X115.72 Y111.093 E53.47907
G1 X115.706 Y112.046 E53.57891
G1 X115.479 Y112.967 E53.67829
G1 X115.055 Y113.813 E53.77742
G1 X114.451 Y114.543 E53.87668
G1 X113.698 Y115.126 E53.97644
G1 X112.839 Y115.523 E54.07558
G1 X111.904 Y115.72 E54.17568
G1 X110.932 Y115.701 E54.27752
G1 X110.027 Y115.476 E54.37522
G1 X109.185 Y115.051 E54.47403
G1 X108.451 Y114.445 E54.57374
G1 X107.872 Y113.696 E54.67292
G1 X107.477 Y112.838 E54.77187
G1 X107.28 Y111.907 E54.87156
G10
G0 F4320 X105.49 Y117.509
G11
G1 F1800 X117.507 Y117.509 E56.13046
G1 X117.509 Y107.256 E57.20457
G1 X117.509 Y105.491 E57.38947
G1 X105.491 Y105.49 E58.64847
G1 X105.49 Y117.509 E59.90758
G10
G0 F4320 X117.308 Y105.994
G11
G1 F1800 X117.004 Y105.69 E59.95262
G0 F4320 X116.438 Y105.69
G1 F1800 X117.308 Y106.56 E60.08151
G0 F4320 X117.308 Y107.125
G1 F1800 X115.872 Y105.69 E60.29419
G0 F4320 X115.307 Y105.69
G1 F1800 X117.308 Y107.691 E60.59064
G0 F4320 X117.308 Y108.257
G1 F1800 X114.741 Y105.69 E60.97095
G0 F4320 X114.175 Y105.69
G1 F1800 X117.308 Y108.823 E61.43511
G0 F4320 X117.308 Y109.388
G1 F1800 X113.61 Y105.69 E61.98298
G0 F4320 X113.044 Y105.69
G1 F1800 X117.308 Y109.954 E62.61471
G0 F4320 X117.308 Y110.52
G1 F1800 X112.478 Y105.69 E63.33029
G0 F4320 X111.913 Y105.69
G1 F1800 X114.388 Y108.166 E63.69704
G1 X114.458 Y108.236
G10
G0 F4320 X112.986 Y107.329
G11
G1 F1800 X111.347 Y105.69 E63.93986
G0 F4320 X110.781 Y105.69
G1 F1800 X112.216 Y107.125 E64.15246
G0 F4320 X111.618 Y107.092
G1 F1800 X110.216 Y105.69 E64.36017
G0 F4320 X109.65 Y105.69
G1 F1800 X111.054 Y107.094 E64.56818
G0 F4320 X110.58 Y107.186
G1 F1800 X109.084 Y105.69 E64.78982
G0 F4320 X108.518 Y105.69
G1 F1800 X110.116 Y107.287 E65.02649
G0 F4320 X109.723 Y107.461
G1 F1800 X107.953 Y105.69 E65.2888
G0 F4320 X107.387 Y105.69
G1 F1800 X109.331 Y107.634 E65.57681
G0 F4320 X108.994 Y107.863
G1 F1800 X106.821 Y105.69 E65.89874
G0 F4320 X106.256 Y105.69
G1 F1800 X108.671 Y108.106 E66.25661
G0 F4320 X108.37 Y108.37
G1 F1800 X105.689 Y105.689 E66.6538
G0 F4320 X105.689 Y106.255
G1 F1800 X108.11 Y108.675 E67.01241
G0 F4320 X107.85 Y108.981
G1 F1800 X105.689 Y106.821 E67.33249
G0 F4320 X105.689 Y107.386
G1 F1800 X107.647 Y109.344 E67.62258
G0 F4320 X107.454 Y109.716
G1 F1800 X105.689 Y107.952 E67.88399
G0 F4320 X105.689 Y108.518
G1 F1800 X107.298 Y110.126 E68.1223
G0 F4320 X107.181 Y110.575
G1 F1800 X105.689 Y109.083 E68.34334
G0 F4320 X105.689 Y109.649
G1 F1800 X107.104 Y111.063 E68.5529
G0 F4320 X107.085 Y111.611
G1 F1800 X105.689 Y110.215 E68.75973
G0 F4320 X105.689 Y110.781
G1 F1800 X107.152 Y112.244 E68.97647
G0 F4320 X107.338 Y112.995
G1 F1800 X105.689 Y111.346 E69.22078
G0 F4320 X105.689 Y111.912
G1 F1800 X108.11 Y114.332 E69.57938
G1 X108.18 Y114.402
G10
G0 F4320 X114.883 Y108.661
G11
G1 F1800 X117.308 Y111.085 E69.93858
G0 F4320 X117.307 Y111.65
G1 F1800 X115.66 Y110.003 E70.18259
G0 F4320 X115.848 Y110.756
G1 F1800 X117.307 Y112.216 E70.39882
G0 F4320 X117.307 Y112.782
G1 F1800 X115.915 Y111.389 E70.60512
G0 F4320 X115.899 Y111.939
G1 F1800 X117.307 Y113.347 E70.81372
G0 F4320 X117.307 Y113.913
G1 F1800 X115.818 Y112.424 E71.03432
G0 F4320 X115.701 Y112.872
G1 F1800 X117.307 Y114.479 E71.27233
G0 F4320 X117.307 Y115.044
G1 F1800 X115.545 Y113.282 E71.53337
G0 F4320 X115.351 Y113.654
G1 F1800 X117.307 Y115.61 E71.82316
G0 F4320 X117.307 Y116.176
G1 F1800 X115.149 Y114.018 E72.14287
G0 F4320 X114.888 Y114.322
G1 F1800 X117.307 Y116.741 E72.50126
G0 F4320 X117.307 Y117.307
G1 F1800 X114.628 Y114.628 E72.89816
G0 F4320 X114.327 Y114.892
G1 F1800 X116.742 Y117.308 E73.25602
G0 F4320 X116.176 Y117.308
G1 F1800 X114.003 Y115.135 E73.57796
G0 F4320 X113.667 Y115.364
G1 F1800 X115.611 Y117.308 E73.86597
G0 F4320 X115.045 Y117.308
G1 F1800 X113.274 Y115.537 E74.12835
G0 F4320 X112.883 Y115.711
G1 F1800 X114.479 Y117.308 E74.36487
G0 F4320 X113.914 Y117.308
G1 F1800 X112.418 Y115.812 E74.58651
G0 F4320 X111.944 Y115.904
G1 F1800 X113.348 Y117.308 E74.79452
G0 F4320 X112.782 Y117.308
G1 F1800 X111.381 Y115.906 E75.00215
G0 F4320 X110.783 Y115.874
G1 F1800 X112.217 Y117.308 E75.2146
G0 F4320 X111.651 Y117.308
G1 F1800 X110.013 Y115.669 E75.45735
G1 X109.943 Y115.599
G10
G0 F4320 X108.598 Y114.82
G11
G1 F1800 X111.085 Y117.308 E75.82588
G0 F4320 X110.52 Y117.308
G1 F1800 X105.689 Y112.478 E76.54154
G0 F4320 X105.689 Y113.043
G1 F1800 X109.954 Y117.308 E77.17341
G0 F4320 X109.388 Y117.308
G1 F1800 X105.689 Y113.609 E77.72143
G0 F4320 X105.689 Y114.175
G1 F1800 X108.823 Y117.308 E78.18566
G0 F4320 X108.257 Y117.308
G1 F1800 X105.689 Y114.74 E78.56612
G0 F4320 X105.689 Y115.306
G1 F1800 X107.691 Y117.308 E78.86272
G0 F4320 X107.125 Y117.308
G1 F1800 X105.689 Y115.872 E79.07547
G0 F4320 X105.689 Y116.437
G1 F1800 X106.56 Y117.308 E79.20451
G0 F4320 X105.994 Y117.308
G1 F1800 X105.689 Y117.003 E79.2497
G10
;MESH:NONMESH
G0 F600 X105.689 Y117.003 Z0.37
G0 F4320 X109.347 Y112.919
;TIME_ELAPSED:36.166856
;LAYER:1
M106 S127.5
;TYPE:SUPPORT
G11
G1 F1800 X109.347 Y110.074 E79.3635
G1 X109.209 Y110.278 E79.37335
G1 X108.959 Y110.967 E79.40267
