;FLAVOR:UltiGCode
;TIME:2051
;MATERIAL:1676
;MATERIAL2:0
;NOZZLE_DIAMETER:0.4
;MINX:100.109
;MINY:100.109
;MINZ:0.27
;MAXX:122.891
;MAXY:122.891
;MAXZ:15.77
;Generated with Cura_SteamEngine 5.0.0
M82 ;absolute extrusion mode
G0 F3000 Y50 ;avoid prime blob
G92 E0
G92 E0
G10
;LAYER_COUNT:156
;LAYER:0
M107
G0 F4500 X101.339 Y101.805 Z0.27
G0 X100.111 Y105.599
;TYPE:SKIRT
G11
G1 F1800 X100.121 Y104.943 E0.07086
G1 X100.169 Y104.352 E0.13489
G1 X100.293 Y103.79 E0.19705
G1 X100.564 Y102.993 E0.28797
G1 X100.84 Y102.468 E0.35202
G1 X101.339 Y101.805 E0.44164
G1 X101.913 Y101.235 E0.52901
G1 X102.393 Y100.886 E0.5931
G1 X102.915 Y100.605 E0.65713
G1 X103.679 Y100.329 E0.74486
G1 X104.254 Y100.186 E0.80885
G1 X104.886 Y100.121 E0.87747
G1 X105.346 Y100.109 E0.92716
G1 X117.39 Y100.113 E2.22791
G1 X117.994 Y100.122 E2.29315
G1 X118.747 Y100.193 E2.37484
G1 X119.328 Y100.312 E2.43889
G1 X119.888 Y100.508 E2.50297
G1 X120.627 Y100.912 E2.59393
G1 X121.296 Y101.414 E2.68426
G1 X121.71 Y101.838 E2.74826
G1 X122.063 Y102.315 E2.81235
G1 X122.569 Y103.301 E2.93204
G1 X122.785 Y104.068 E3.0181
G1 X122.874 Y104.881 E3.10643
G1 X122.891 Y105.858 E3.21196
G1 X122.889 Y117.347 E4.45277
G1 X122.877 Y118.097 E4.53378
G1 X122.828 Y118.688 E4.59783
G1 X122.7 Y119.267 E4.66187
G1 X122.499 Y119.831 E4.72653
G1 X122.251 Y120.369 E4.79051
G1 X121.933 Y120.87 E4.8546
G1 X121.55 Y121.323 E4.91867
G1 X121.085 Y121.749 E4.98678
G1 X120.613 Y122.108 E5.05082
G1 X120.097 Y122.401 E5.11491
G1 X119.546 Y122.621 E5.17898
G1 X118.885 Y122.786 E5.25256
G1 X118.045 Y122.881 E5.34386
G1 X117.442 Y122.891 E5.40899
G1 X105.627 Y122.89 E6.68501
G1 X104.949 Y122.88 E6.75824
G1 X104.358 Y122.831 E6.82229
G1 X103.835 Y122.719 E6.88006
G1 X103.035 Y122.455 E6.97104
G1 X102.507 Y122.185 E7.03509
G1 X101.833 Y121.687 E7.12559
G1 X101.263 Y121.121 E7.21235
G1 X100.91 Y120.644 E7.27644
G1 X100.625 Y120.124 E7.34048
G1 X100.356 Y119.405 E7.42339
G1 X100.207 Y118.832 E7.48733
G1 X100.131 Y118.103 E7.56649
G1 X100.109 Y116.981 E7.68769
G1 X100.111 Y105.599 E8.91694
G0 F4500 X100.51 Y105.605
G1 F1800 X100.52 Y104.949 E8.9878
G1 X100.569 Y104.386 E9.04883
G1 X100.746 Y103.662 E9.12933
G1 X100.941 Y103.131 E9.19042
G1 X101.208 Y102.633 E9.25145
G1 X101.634 Y102.075 E9.32726
G1 X102.19 Y101.525 E9.41173
G1 X102.65 Y101.197 E9.47274
G1 X103.152 Y100.937 E9.5338
G1 X103.801 Y100.71 E9.60806
G1 X104.35 Y100.576 E9.66909
G1 X104.898 Y100.521 E9.72857
G1 X105.346 Y100.509 E9.77697
G1 X117.384 Y100.513 E11.07708
G1 X117.988 Y100.522 E11.14232
G1 X118.694 Y100.589 E11.21891
G1 X119.247 Y100.704 E11.27991
G1 X119.779 Y100.897 E11.34103
G1 X120.402 Y101.243 E11.41799
G1 X121.048 Y101.729 E11.5053
G1 X121.439 Y102.138 E11.56641
G1 X121.869 Y102.772 E11.64914
G1 X122.204 Y103.469 E11.73266
G1 X122.392 Y104.141 E11.80803
G1 X122.474 Y104.888 E11.88919
G1 X122.491 Y105.858 E11.99396
G1 X122.489 Y117.341 E13.23413
G1 X122.477 Y118.091 E13.31514
G1 X122.429 Y118.654 E13.37616
G1 X122.215 Y119.452 E13.46539
G1 X121.887 Y120.201 E13.5537
G1 X121.579 Y120.675 E13.61475
G1 X121.019 Y121.276 E13.70347
G1 X120.371 Y121.789 E13.79273
G1 X119.876 Y122.063 E13.85383
G1 X119.348 Y122.264 E13.91485
G1 X118.802 Y122.395 E13.97549
G1 X118.038 Y122.481 E14.05852
G1 X117.442 Y122.491 E14.1229
G1 X105.633 Y122.49 E15.39827
G1 X104.955 Y122.48 E15.4715
G1 X104.392 Y122.431 E15.53254
G1 X103.702 Y122.267 E15.60913
G1 X103.169 Y122.077 E15.67024
G1 X102.668 Y121.815 E15.7313
G1 X102.1 Y121.389 E15.80798
G1 X101.55 Y120.841 E15.89184
G1 X101.219 Y120.384 E15.95278
G1 X100.955 Y119.884 E16.01384
G1 X100.735 Y119.279 E16.08337
G1 X100.595 Y118.731 E16.14445
G1 X100.531 Y118.095 E16.21349
G1 X100.509 Y116.981 E16.33382
G1 X100.51 Y105.605 E17.56243
G0 F4500 X100.91 Y105.611
G1 F1800 X100.92 Y104.955 E17.63329
G1 X100.969 Y104.421 E17.6912
G1 X101.13 Y103.772 E17.76342
G1 X101.317 Y103.27 E17.82128
G1 X101.576 Y102.8 E17.87923
G1 X101.93 Y102.344 E17.94158
G1 X102.466 Y101.816 E18.02284
G1 X102.906 Y101.51 E18.08072
G1 X103.636 Y101.183 E18.16711
G1 X104.445 Y100.966 E18.25757
G1 X105.234 Y100.911 E18.34299
G1 X117.378 Y100.913 E19.65454
G1 X117.982 Y100.922 E19.71978
G1 X118.64 Y100.986 E19.79118
G1 X119.165 Y101.097 E19.84913
G1 X119.667 Y101.285 E19.90702
G1 X120.178 Y101.574 E19.97043
G1 X120.8 Y102.044 E20.05462
G1 X121.166 Y102.436 E20.11254
G1 X121.518 Y102.964 E20.18108
G1 X121.839 Y103.635 E20.26141
G1 X121.998 Y104.215 E20.32636
G1 X122.074 Y104.895 E20.40026
G1 X122.091 Y105.858 E20.50428
G1 X122.09 Y117.335 E21.7438
G1 X122.078 Y118.085 E21.82481
G1 X122.029 Y118.619 E21.88272
G1 X121.842 Y119.31 E21.96003
G1 X121.524 Y120.031 E22.04514
G1 X121.226 Y120.477 E22.10307
G1 X120.756 Y120.975 E22.17702
G1 X120.13 Y121.468 E22.26308
G1 X119.657 Y121.723 E22.32112
G1 X118.94 Y121.956 E22.40254
G1 X118.031 Y122.081 E22.50163
G1 X117.442 Y122.091 E22.56525
G1 X105.639 Y122.09 E23.83998
G1 X104.961 Y122.08 E23.91321
G1 X104.427 Y122.032 E23.97111
G1 X103.809 Y121.881 E24.03982
G1 X103.304 Y121.7 E24.09776
G1 X102.832 Y121.445 E24.1557
G1 X102.368 Y121.091 E24.21873
G1 X101.839 Y120.563 E24.29945
G1 X101.53 Y120.125 E24.35734
G1 X101.201 Y119.41 E24.44234
G1 X100.984 Y118.632 E24.52958
G1 X100.931 Y118.087 E24.58871
G1 X100.909 Y116.981 E24.70818
G1 X100.91 Y105.611 E25.93614
G0 F4500 X101.31 Y105.617
G1 F1800 X101.32 Y104.961 E26.007
G1 X101.446 Y104.122 E26.09863
G1 X101.693 Y103.41 E26.18002
G1 X102.225 Y102.614 E26.28342
G1 X102.74 Y102.109 E26.36132
G1 X103.159 Y101.826 E26.41593
G1 X103.758 Y101.564 E26.48654
G1 X104.537 Y101.356 E26.57362
G1 X105.246 Y101.311 E26.65034
G1 X117.372 Y101.313 E27.95995
G1 X117.976 Y101.322 E28.02519
G1 X118.586 Y101.382 E28.09139
G1 X119.08 Y101.489 E28.14598
G1 X119.953 Y101.905 E28.25042
G1 X120.55 Y102.358 E28.33135
G1 X120.89 Y102.732 E28.38594
G1 X121.267 Y103.339 E28.46311
G1 X121.474 Y103.8 E28.51769
G1 X121.621 Y104.374 E28.58168
G1 X121.69 Y105.801 E28.73598
G1 X121.69 Y117.328 E29.9809
G1 X121.678 Y118.078 E30.06191
G1 X121.63 Y118.581 E30.11648
G1 X121.468 Y119.167 E30.18214
G1 X121.161 Y119.86 E30.264
G1 X120.875 Y120.277 E30.31861
G1 X120.493 Y120.674 E30.37811
G1 X119.89 Y121.147 E30.46088
G1 X119.441 Y121.381 E30.51556
G1 X118.857 Y121.565 E30.58169
G1 X118.025 Y121.682 E30.67243
G1 X117.442 Y121.691 E30.7354
G1 X105.645 Y121.69 E32.00948
G1 X104.967 Y121.68 E32.08271
G1 X104.157 Y121.563 E32.1711
G1 X103.441 Y121.323 E32.25265
G1 X102.635 Y120.794 E32.35678
G1 X102.13 Y120.286 E32.43414
G1 X101.843 Y119.87 E32.48872
G1 X101.58 Y119.284 E32.55809
G1 X101.373 Y118.535 E32.64201
G1 X101.31 Y117.046 E32.80297
G1 X101.31 Y105.617 E34.0373
G10
G0 F4500 X108.912 Y112
;TYPE:SUPPORT
G11
G1 F1800 X114.085 Y112 E34.59598
G10
G0 F4500 X112 Y114.087
G11
G1 F1800 X112 Y108.914 E35.15467
G10
;MESH:BOX v3.STL
G0 F4500 X108.057 Y111.13
;TYPE:WALL-OUTER
G11
G1 F1800 X108.226 Y110.372 E35.23854
G1 X108.555 Y109.677 E35.32159
G1 X109.034 Y109.069 E35.40518
G1 X109.639 Y108.579 E35.48926
G1 X110.33 Y108.24 E35.57239
G1 X111.089 Y108.061 E35.65661
G1 X111.87 Y108.057 E35.74096
G1 X112.628 Y108.226 E35.82483
G1 X113.323 Y108.555 E35.90788
G1 X113.931 Y109.034 E35.99147
G1 X114.421 Y109.639 E36.07555
G1 X114.76 Y110.33 E36.15868
G1 X114.939 Y111.091 E36.24311
G1 X114.944 Y111.867 E36.32692
G1 X114.941 Y111.902 E36.33071
G1 X114.775 Y112.627 E36.41104
G1 X114.445 Y113.323 E36.49423
G1 X113.966 Y113.931 E36.57782
G1 X113.361 Y114.421 E36.66191
G1 X112.67 Y114.76 E36.74503
G1 X111.911 Y114.939 E36.82925
G1 X111.13 Y114.943 E36.9136
G1 X110.372 Y114.774 E36.99748
G1 X109.677 Y114.445 E37.08052
G1 X109.066 Y113.963 E37.16457
G1 X108.579 Y113.361 E37.2482
G1 X108.24 Y112.669 E37.33142
G1 X108.061 Y111.909 E37.41574
G1 X108.057 Y111.13 E37.49988
G0 F4500 X108.1 Y110.935
G10
G0 X104.71 Y105.112
G11
G1 F1800 X104.71 Y117.979 E38.88951
G1 X104.803 Y118.194 E38.91481
G1 X105.113 Y118.29 E38.94986
G1 X117.974 Y118.291 E40.33885
G1 X118.229 Y118.152 E40.37021
G1 X118.29 Y117.912 E40.39696
G1 X118.29 Y105.048 E41.78627
G1 X118.179 Y104.791 E41.81651
G1 X117.893 Y104.714 E41.84849
G1 X105.024 Y104.71 E43.23835
G1 X104.804 Y104.804 E43.26418
G1 X104.71 Y105.112 E43.29896
G0 F4500 X104.71 Y105.312
G0 X105.112 Y105.112
;TYPE:WALL-INNER
G1 F1800 X105.11 Y115.747 E44.44754
G1 X105.113 Y117.886 E44.67855
G1 X107.549 Y117.889 E44.94164
G1 X117.89 Y117.891 E46.05847
G1 X117.89 Y105.114 E47.43839
G1 X110.809 Y105.11 E48.20313
G1 X109.975 Y105.112 E48.29321
G1 X107.253 Y105.111 E48.58718
G1 X105.112 Y105.112 E48.81841
G10
G0 F4500 X107.657 Y111.13
G11
G1 F1800 X107.836 Y110.282 E48.91201
G1 X108.195 Y109.503 E49.00465
G1 X108.721 Y108.819 E49.09784
G1 X109.389 Y108.267 E49.19143
G1 X110.156 Y107.88 E49.28421
G1 X111 Y107.671 E49.37812
G1 X111.87 Y107.657 E49.47209
G1 X112.718 Y107.836 E49.56569
G1 X113.497 Y108.195 E49.65833
G1 X114.181 Y108.721 E49.75151
G1 X114.733 Y109.389 E49.8451
G1 X115.12 Y110.156 E49.93789
G1 X115.329 Y111.002 E50.032
G1 X115.344 Y111.867 E50.12544
G1 X115.335 Y111.971 E50.13671
G1 X115.165 Y112.717 E50.21934
G1 X114.805 Y113.497 E50.31212
G1 X114.279 Y114.181 E50.40531
G1 X113.611 Y114.733 E50.4989
G1 X112.844 Y115.12 E50.59168
G1 X112 Y115.329 E50.68559
G1 X111.13 Y115.343 E50.77956
G1 X110.282 Y115.164 E50.87316
G1 X109.503 Y114.805 E50.9658
G1 X108.816 Y114.275 E51.05951
G1 X108.267 Y113.611 E51.15256
G1 X107.88 Y112.843 E51.24544
G1 X107.671 Y111.998 E51.33945
G1 X107.657 Y111.13 E51.4332
G10
G0 F4500 X107.28 Y111.907
;TYPE:SKIN
G11
G1 F1800 X107.299 Y110.932 E51.53536
G1 X107.522 Y110.031 E51.6326
G1 X107.945 Y109.187 E51.7315
G1 X108.549 Y108.456 E51.83084
G1 X109.302 Y107.874 E51.93054
G1 X110.162 Y107.477 E52.02977
G1 X111.096 Y107.28 E52.12977
G1 X112.068 Y107.299 E52.23161
G1 X112.973 Y107.524 E52.32931
G1 X113.814 Y107.946 E52.42788
G1 X114.543 Y108.549 E52.52699
G1 X114.55 Y108.555 E52.52796
G1 X115.126 Y109.302 E52.62678
G1 X115.526 Y110.167 E52.72661
G1 X115.721 Y111.093 E52.82575
G1 X115.706 Y112.045 E52.92549
G1 X115.477 Y112.972 E53.02552
G1 X115.055 Y113.813 E53.1241
G1 X114.451 Y114.544 E53.22344
G1 X113.698 Y115.126 E53.32314
G1 X112.839 Y115.523 E53.42227
G1 X111.904 Y115.72 E53.52237
G1 X110.932 Y115.701 E53.62422
G1 X110.027 Y115.476 E53.72191
G1 X109.185 Y115.051 E53.82072
G1 X108.451 Y114.445 E53.92043
G1 X107.872 Y113.696 E54.01961
G1 X107.476 Y112.835 E54.11889
G1 X107.28 Y111.907 E54.21825
G10
G0 F4500 X105.49 Y117.509
G11
G1 F1800 X117.51 Y117.511 E55.47747
G1 X117.51 Y107.258 E56.55157
G1 X117.51 Y105.494 E56.73637
G1 X105.492 Y105.492 E57.99537
G1 X105.49 Y117.509 E59.25428
G10
G0 F4500 X117.007 Y105.694
G11
G1 F1800 X117.309 Y105.996 E59.29902
G0 F4500 X117.309 Y106.561
G1 F1800 X116.442 Y105.694 E59.42747
G0 F4500 X115.876 Y105.694
G1 F1800 X117.309 Y107.127 E59.63977
G0 F4500 X117.309 Y107.693
G1 F1800 X115.31 Y105.694 E59.93593
G0 F4500 X114.745 Y105.694
G1 F1800 X117.309 Y108.258 E60.31579
G0 F4500 X117.309 Y108.824
G1 F1800 X114.179 Y105.694 E60.77951
G0 F4500 X113.613 Y105.694
G1 F1800 X117.309 Y109.39 E61.32708
G0 F4500 X117.309 Y109.955
G1 F1800 X113.047 Y105.693 E61.95851
G0 F4500 X112.481 Y105.693
G1 F1800 X117.309 Y110.521 E62.6738
G0 F4500 X117.309 Y111.087
G1 F1800 X114.879 Y108.656 E63.03388
G1 X114.809 Y108.586
G10
G0 F4500 X115.66 Y110.003
G11
G1 F1800 X117.31 Y111.653 E63.27833
G0 F4500 X117.31 Y112.219
G1 F1800 X115.848 Y110.756 E63.49501
G0 F4500 X115.915 Y111.389
G1 F1800 X117.31 Y112.784 E63.70168
G0 F4500 X117.31 Y113.35
G1 F1800 X115.899 Y111.939 E63.91072
G0 F4500 X115.818 Y112.424
G1 F1800 X117.31 Y113.916 E64.13177
G0 F4500 X117.31 Y114.482
G1 F1800 X115.7 Y112.871 E64.37037
G0 F4500 X115.545 Y113.282
G1 F1800 X117.31 Y115.047 E64.63186
G0 F4500 X117.31 Y115.613
G1 F1800 X115.351 Y113.654 E64.92209
G0 F4500 X115.149 Y114.018
G1 F1800 X117.31 Y116.179 E65.24225
G0 F4500 X117.31 Y116.744
G1 F1800 X114.889 Y114.323 E65.60093
G0 F4500 X114.629 Y114.629
G1 F1800 X117.31 Y117.31 E65.99813
G0 F4500 X116.744 Y117.309
G1 F1800 X114.327 Y114.892 E66.35621
G0 F4500 X114.003 Y115.135
G1 F1800 X116.178 Y117.309 E66.67837
G0 F4500 X115.612 Y117.309
G1 F1800 X113.667 Y115.364 E66.96653
G0 F4500 X113.274 Y115.537
G1 F1800 X115.046 Y117.309 E67.22906
G0 F4500 X114.481 Y117.309
G1 F1800 X112.883 Y115.711 E67.4658
G0 F4500 X112.418 Y115.812
G1 F1800 X113.915 Y117.309 E67.68759
G0 F4500 X113.349 Y117.309
G1 F1800 X111.944 Y115.904 E67.89574
G0 F4500 X111.381 Y115.906
G1 F1800 X112.783 Y117.309 E68.10353
G0 F4500 X112.217 Y117.309
G1 F1800 X110.783 Y115.874 E68.31605
G0 F4500 X110.013 Y115.669
G1 F1800 X111.652 Y117.309 E68.55895
G0 F4500 X111.086 Y117.309
G1 F1800 X108.598 Y114.82 E68.92763
G1 X108.528 Y114.75
G10
G0 F4500 X114.393 Y108.171
G11
G1 F1800 X111.915 Y105.693 E69.29475
G0 F4500 X111.35 Y105.693
G1 F1800 X112.986 Y107.329 E69.53713
G0 F4500 X112.216 Y107.125
G1 F1800 X110.784 Y105.693 E69.74929
G0 F4500 X110.218 Y105.693
G1 F1800 X111.618 Y107.092 E69.95663
G0 F4500 X111.054 Y107.094
G1 F1800 X109.653 Y105.693 E70.16419
G0 F4500 X109.086 Y105.692
G1 F1800 X110.58 Y107.186 E70.38553
G0 F4500 X110.116 Y107.287
G1 F1800 X108.521 Y105.692 E70.62183
G0 F4500 X107.955 Y105.692
G1 F1800 X109.723 Y107.461 E70.88384
G0 F4500 X109.331 Y107.634
G1 F1800 X107.389 Y105.692 E71.17156
G0 F4500 X106.824 Y105.692
G1 F1800 X108.994 Y107.863 E71.49312
G0 F4500 X108.671 Y108.106
G1 F1800 X106.258 Y105.692 E71.85069
G0 F4500 X105.691 Y105.691
G1 F1800 X108.37 Y108.37 E72.24759
G0 F4500 X108.11 Y108.675
G1 F1800 X105.691 Y106.256 E72.60597
G0 F4500 X105.691 Y106.822
G1 F1800 X107.85 Y108.981 E72.92584
G0 F4500 X107.647 Y109.344
G1 F1800 X105.691 Y107.388 E73.21562
G0 F4500 X105.691 Y107.953
G1 F1800 X107.454 Y109.716 E73.47682
G0 F4500 X107.298 Y110.126
G1 F1800 X105.691 Y108.519 E73.7149
G0 F4500 X105.691 Y109.085
G1 F1800 X107.181 Y110.575 E73.93565
G0 F4500 X107.104 Y111.063
G1 F1800 X105.691 Y109.651 E74.14491
G0 F4500 X105.691 Y110.216
G1 F1800 X107.085 Y111.611 E74.35151
G0 F4500 X107.152 Y112.244
G1 F1800 X105.691 Y110.782 E74.56804
G0 F4500 X105.691 Y111.348
G1 F1800 X107.34 Y112.997 E74.81234
G1 X107.41 Y113.067
G10
G0 F4500 X108.11 Y114.332
G11
G1 F1800 X105.69 Y111.913 E75.1708
G0 F4500 X105.69 Y112.478
G1 F1800 X110.52 Y117.309 E75.88645
G0 F4500 X109.955 Y117.309
G1 F1800 X105.69 Y113.044 E76.51832
G0 F4500 X105.69 Y113.61
G1 F1800 X109.388 Y117.308 E77.06619
G0 F4500 X108.823 Y117.308
G1 F1800 X105.69 Y114.175 E77.53036
G0 F4500 X105.69 Y114.741
G1 F1800 X108.257 Y117.308 E77.91067
G0 F4500 X107.691 Y117.308
G1 F1800 X105.69 Y115.307 E78.20712
G0 F4500 X105.69 Y115.872
G1 F1800 X107.125 Y117.308 E78.41979
G0 F4500 X106.56 Y117.308
G1 F1800 X105.69 Y116.438 E78.54869
G0 F4500 X105.69 Y117.004
G1 F1800 X105.994 Y117.308 E78.59373
G10
;MESH:NONMESH
G0 F600 X105.994 Y117.308 Z0.37
G0 F4500 X112 Y108.956
;TIME_ELAPSED:35.137186
;LAYER:1
M106 S255
G0 F6750 X108.905 Y111.604
;TYPE:SUPPORT
G11
G1 F2100 X108.947 Y111.031 E78.61671
G1 X109.13 Y110.445 E78.64126
G1 X109.475 Y109.875 E78.66791
G1 X109.855 Y109.494 E78.68944
G1 X110.362 Y109.165 E78.71361
G1 X110.921 Y108.967 E78.73734
G1 X111.354 Y108.908 E78.75482
G1 X111.979 Y108.949 E78.77987
G1 X112 Y108.956 E78.78075
G1 X112.528 Y109.117 E78.80283
G1 X113.099 Y109.454 E78.82936
G1 X113.495 Y109.843 E78.85156
G1 X113.817 Y110.331 E78.87495
G1 X114.05 Y111.009 E78.90362
G1 X114.084 Y111.732 E78.93258
G1 X113.946 Y112.365 E78.95849
G1 X113.706 Y112.867 E78.98075
G1 X113.383 Y113.291 E79.00207
G1 X112.881 Y113.701 E79.02799
