;FLAVOR:UltiGCode
;TIME:853
;MATERIAL:1561
;MATERIAL2:0
;NOZZLE_DIAMETER:0.4
;MINX:97.215
;MINY:87.715
;MINZ:0.27
;MAXX:125.785
;MAXY:135.285
;MAXZ:11.97
;Generated with Cura_SteamEngine 5.0.0
M82 ;absolute extrusion mode
G0 F3000 Y50 ;avoid prime blob
G92 E0
G92 E0
G10
;LAYER_COUNT:79
;LAYER:0
M107
G0 F4500 X99.095 Y90.437 Z0.27
G0 X97.215 Y95.515
;TYPE:SKIRT
G11
G1 F1800 X97.255 Y94.726 E0.08532
G1 X97.374 Y93.946 E0.17054
G1 X97.572 Y93.181 E0.25588
G1 X97.846 Y92.441 E0.3411
G1 X98.194 Y91.732 E0.4264
G1 X98.612 Y91.061 E0.51178
G1 X99.095 Y90.437 E0.597
G1 X99.638 Y89.864 E0.68226
G1 X100.237 Y89.349 E0.76757
G1 X100.885 Y88.898 E0.85284
G1 X101.576 Y88.514 E0.93822
G1 X102.301 Y88.202 E1.02346
G1 X103.054 Y87.965 E1.10872
G1 X103.828 Y87.806 E1.19405
G1 X104.613 Y87.725 E1.27928
G1 X105.015 Y87.715 E1.32271
G1 X113.338 Y87.715 E2.2216
G1 X114.127 Y87.755 E2.30692
G1 X114.907 Y87.874 E2.39213
G1 X115.672 Y88.072 E2.47747
G1 X116.412 Y88.346 E2.5627
G1 X117.121 Y88.694 E2.648
G1 X117.792 Y89.112 E2.73338
G1 X118.416 Y89.595 E2.8186
G1 X118.989 Y90.138 E2.90385
G1 X119.504 Y90.737 E2.98917
G1 X119.955 Y91.385 E3.07443
G1 X120.339 Y92.076 E3.15981
G1 X120.651 Y92.801 E3.24505
G1 X120.888 Y93.554 E3.33031
G1 X121.047 Y94.328 E3.41565
G1 X121.128 Y95.113 E3.50088
G1 X121.138 Y95.515 E3.54431
G1 X121.138 Y99.385 E3.96227
G1 X121.768 Y99.694 E4.03805
G1 X122.439 Y100.112 E4.12343
G1 X123.063 Y100.595 E4.20865
G1 X123.636 Y101.138 E4.29391
G1 X124.151 Y101.737 E4.37922
G1 X124.602 Y102.385 E4.46449
G1 X124.986 Y103.076 E4.54987
G1 X125.298 Y103.801 E4.63511
G1 X125.535 Y104.554 E4.72037
G1 X125.694 Y105.328 E4.8057
G1 X125.775 Y106.113 E4.89093
G1 X125.785 Y106.515 E4.93436
G1 X125.785 Y116.485 E6.01112
G1 X125.775 Y117.113 E6.07896
G1 X125.785 Y117.515 E6.12239
G1 X125.785 Y127.485 E7.19915
G1 X125.745 Y128.274 E7.28447
G1 X125.626 Y129.054 E7.36968
G1 X125.428 Y129.819 E7.45502
G1 X125.154 Y130.559 E7.54025
G1 X124.806 Y131.268 E7.62555
G1 X124.388 Y131.939 E7.71093
G1 X123.905 Y132.563 E7.79615
G1 X123.362 Y133.136 E7.8814
G1 X122.763 Y133.651 E7.96672
G1 X122.115 Y134.102 E8.05198
G1 X121.424 Y134.486 E8.13736
G1 X120.699 Y134.798 E8.2226
G1 X119.946 Y135.035 E8.30786
G1 X119.172 Y135.194 E8.3932
G1 X118.387 Y135.275 E8.47843
G1 X117.985 Y135.285 E8.52186
G1 X105.015 Y135.285 E9.92262
G1 X104.226 Y135.245 E10.00794
G1 X103.446 Y135.126 E10.09315
G1 X102.681 Y134.928 E10.1785
G1 X101.941 Y134.654 E10.26372
G1 X101.232 Y134.306 E10.34902
G1 X100.561 Y133.888 E10.4344
G1 X99.937 Y133.405 E10.51962
G1 X99.364 Y132.862 E10.60488
G1 X98.849 Y132.263 E10.69019
G1 X98.398 Y131.615 E10.77546
G1 X98.014 Y130.924 E10.86083
G1 X97.702 Y130.199 E10.94608
G1 X97.465 Y129.446 E11.03133
G1 X97.306 Y128.672 E11.11667
G1 X97.225 Y127.887 E11.2019
G1 X97.215 Y127.485 E11.24533
G1 X97.215 Y117.515 E12.32209
G1 X97.255 Y116.726 E12.40741
G1 X97.374 Y115.946 E12.49263
G1 X97.572 Y115.181 E12.57797
G1 X97.846 Y114.441 E12.66319
G1 X98.194 Y113.732 E12.74849
G1 X98.612 Y113.061 E12.83387
G1 X99.095 Y112.437 E12.91909
G1 X99.638 Y111.864 E13.00435
G1 X100.061 Y111.501 E13.06455
G1 X99.364 Y110.862 E13.16667
G1 X98.849 Y110.263 E13.25199
G1 X98.398 Y109.615 E13.33725
G1 X98.014 Y108.924 E13.42263
G1 X97.702 Y108.199 E13.50787
G1 X97.465 Y107.446 E13.59313
G1 X97.306 Y106.672 E13.67847
G1 X97.225 Y105.887 E13.7637
G1 X97.215 Y105.485 E13.80713
G1 X97.215 Y95.515 E14.88389
G0 F4500 X97.615 Y95.515
G1 F1800 X97.655 Y94.747 E14.96694
G1 X97.774 Y93.987 E15.05002
G1 X97.972 Y93.244 E15.13307
G1 X98.246 Y92.525 E15.21617
G1 X98.593 Y91.839 E15.29919
G1 X99.009 Y91.192 E15.38227
G1 X99.49 Y90.592 E15.46532
G1 X100.031 Y90.045 E15.54841
G1 X100.626 Y89.557 E15.63152
G1 X101.268 Y89.134 E15.71455
G1 X101.951 Y88.779 E15.79768
G1 X102.666 Y88.498 E15.88065
G1 X103.408 Y88.292 E15.96382
G1 X104.166 Y88.164 E16.04684
G1 X105.015 Y88.115 E16.13869
G1 X113.338 Y88.115 E17.03757
G1 X114.106 Y88.155 E17.12063
G1 X114.866 Y88.274 E17.20371
G1 X115.609 Y88.472 E17.28675
G1 X116.328 Y88.746 E17.36985
G1 X117.014 Y89.093 E17.45288
G1 X117.661 Y89.509 E17.53595
G1 X118.261 Y89.99 E17.619
G1 X118.808 Y90.531 E17.70209
G1 X119.296 Y91.126 E17.7852
G1 X119.719 Y91.768 E17.86823
G1 X120.074 Y92.451 E17.95137
G1 X120.355 Y93.166 E18.03434
G1 X120.561 Y93.908 E18.1175
G1 X120.689 Y94.666 E18.20053
G1 X120.738 Y95.515 E18.29237
G1 X120.738 Y99.656 E18.7396
G1 X121.661 Y100.093 E18.84989
G1 X122.308 Y100.509 E18.93296
G1 X122.908 Y100.99 E19.01602
G1 X123.455 Y101.531 E19.09911
G1 X123.943 Y102.126 E19.18221
G1 X124.366 Y102.768 E19.26525
G1 X124.721 Y103.451 E19.34838
G1 X125.002 Y104.166 E19.43135
G1 X125.208 Y104.908 E19.51452
G1 X125.336 Y105.666 E19.59754
G1 X125.385 Y106.515 E19.68938
G1 X125.385 Y116.485 E20.76614
G1 X125.357 Y117.026 E20.82465
G1 X125.385 Y117.515 E20.87755
G1 X125.385 Y127.485 E21.95431
G1 X125.345 Y128.253 E22.03737
G1 X125.226 Y129.013 E22.12045
G1 X125.028 Y129.756 E22.20349
G1 X124.754 Y130.475 E22.28659
G1 X124.407 Y131.161 E22.36962
G1 X123.991 Y131.808 E22.45269
G1 X123.51 Y132.408 E22.53574
G1 X122.969 Y132.955 E22.61883
G1 X122.374 Y133.443 E22.70194
G1 X121.732 Y133.866 E22.78497
G1 X121.049 Y134.221 E22.86811
G1 X120.334 Y134.502 E22.95108
G1 X119.592 Y134.708 E23.03424
G1 X118.834 Y134.836 E23.11727
G1 X117.985 Y134.885 E23.20911
G1 X105.015 Y134.885 E24.60987
G1 X104.247 Y134.845 E24.69293
G1 X103.487 Y134.726 E24.77601
G1 X102.744 Y134.528 E24.85905
G1 X102.025 Y134.254 E24.94215
G1 X101.339 Y133.907 E25.02518
G1 X100.692 Y133.491 E25.10825
G1 X100.092 Y133.01 E25.1913
G1 X99.545 Y132.469 E25.27439
G1 X99.057 Y131.874 E25.3575
G1 X98.634 Y131.232 E25.44053
G1 X98.279 Y130.549 E25.52367
G1 X97.998 Y129.834 E25.60664
G1 X97.792 Y129.092 E25.6898
G1 X97.664 Y128.334 E25.77283
G1 X97.615 Y127.485 E25.86467
G1 X97.615 Y117.515 E26.94143
G1 X97.655 Y116.747 E27.02449
G1 X97.774 Y115.987 E27.10757
G1 X97.972 Y115.244 E27.19061
G1 X98.246 Y114.525 E27.27371
G1 X98.593 Y113.839 E27.35674
G1 X99.009 Y113.192 E27.43981
G1 X99.49 Y112.592 E27.52286
G1 X100.031 Y112.045 E27.60595
G1 X100.626 Y111.557 E27.68906
G1 X100.692 Y111.491 E27.69914
G1 X100.092 Y111.01 E27.78219
G1 X99.545 Y110.469 E27.86528
G1 X99.057 Y109.874 E27.94839
G1 X98.634 Y109.232 E28.03142
G1 X98.279 Y108.549 E28.11456
G1 X97.998 Y107.834 E28.19753
G1 X97.792 Y107.092 E28.28069
G1 X97.664 Y106.334 E28.36372
G1 X97.615 Y105.485 E28.45556
G1 X97.615 Y95.515 E29.53232
G0 F4500 X98.015 Y95.515
G1 F1800 X98.055 Y94.768 E29.61311
G1 X98.174 Y94.03 E29.69385
G1 X98.372 Y93.308 E29.7747
G1 X98.645 Y92.612 E29.85545
G1 X98.992 Y91.949 E29.93626
G1 X99.407 Y91.326 E30.01711
G1 X99.886 Y90.752 E30.09785
G1 X100.423 Y90.231 E30.17866
G1 X101.013 Y89.772 E30.25939
G1 X101.649 Y89.377 E30.34025
G1 X102.323 Y89.053 E30.42101
G1 X103.028 Y88.803 E30.5018
G1 X103.756 Y88.629 E30.58264
G1 X104.498 Y88.534 E30.66343
G1 X105.015 Y88.515 E30.7193
G1 X113.338 Y88.515 E31.61818
G1 X114.085 Y88.555 E31.69898
G1 X114.823 Y88.674 E31.77971
G1 X115.545 Y88.872 E31.86056
G1 X116.241 Y89.145 E31.94131
G1 X116.904 Y89.492 E32.02213
G1 X117.527 Y89.907 E32.10297
G1 X118.101 Y90.386 E32.18371
G1 X118.622 Y90.923 E32.26452
G1 X119.081 Y91.513 E32.34525
G1 X119.476 Y92.149 E32.42611
G1 X119.8 Y92.823 E32.50687
G1 X120.05 Y93.528 E32.58766
G1 X120.224 Y94.256 E32.6685
G1 X120.319 Y94.998 E32.74929
G1 X120.338 Y95.515 E32.80516
G1 X120.338 Y99.929 E33.28187
G1 X120.888 Y100.145 E33.34569
G1 X121.551 Y100.492 E33.42651
G1 X122.174 Y100.907 E33.50735
G1 X122.748 Y101.386 E33.5881
G1 X123.269 Y101.923 E33.6689
G1 X123.728 Y102.513 E33.74963
G1 X124.123 Y103.149 E33.83049
G1 X124.447 Y103.823 E33.91126
G1 X124.697 Y104.528 E33.99204
G1 X124.871 Y105.256 E34.07288
G1 X124.966 Y105.998 E34.15367
G1 X124.985 Y106.515 E34.20954
G1 X124.985 Y116.485 E35.2863
G1 X124.985 Y127.485 E36.4743
G1 X124.945 Y128.232 E36.5551
G1 X124.826 Y128.97 E36.63583
G1 X124.628 Y129.692 E36.71668
G1 X124.355 Y130.388 E36.79743
G1 X124.008 Y131.051 E36.87825
G1 X123.593 Y131.674 E36.95909
G1 X123.114 Y132.248 E37.03983
G1 X122.577 Y132.769 E37.12064
G1 X121.987 Y133.228 E37.20137
G1 X121.351 Y133.623 E37.28223
G1 X120.677 Y133.947 E37.36299
G1 X119.972 Y134.197 E37.44378
G1 X119.244 Y134.371 E37.52462
G1 X118.502 Y134.466 E37.60541
G1 X117.985 Y134.485 E37.66128
G1 X105.015 Y134.485 E39.06204
G1 X104.268 Y134.445 E39.14283
G1 X103.53 Y134.326 E39.22357
G1 X102.808 Y134.128 E39.30442
G1 X102.112 Y133.855 E39.38517
G1 X101.449 Y133.508 E39.46598
G1 X100.826 Y133.093 E39.54683
G1 X100.252 Y132.614 E39.62757
G1 X99.731 Y132.077 E39.70838
G1 X99.272 Y131.487 E39.78911
G1 X98.877 Y130.851 E39.86997
G1 X98.553 Y130.177 E39.95073
G1 X98.303 Y129.472 E40.03152
G1 X98.129 Y128.744 E40.11236
G1 X98.034 Y128.002 E40.19315
G1 X98.015 Y127.485 E40.24902
G1 X98.015 Y117.515 E41.32578
G1 X98.055 Y116.768 E41.40657
G1 X98.174 Y116.03 E41.4873
G1 X98.372 Y115.308 E41.56816
G1 X98.645 Y114.612 E41.6489
G1 X98.992 Y113.949 E41.72972
G1 X99.407 Y113.326 E41.81057
G1 X99.886 Y112.752 E41.89131
G1 X100.423 Y112.231 E41.97211
G1 X101.013 Y111.772 E42.05285
G1 X101.444 Y111.504 E42.10766
G1 X100.826 Y111.093 E42.18782
G1 X100.252 Y110.614 E42.26856
G1 X99.731 Y110.077 E42.34936
G1 X99.272 Y109.487 E42.4301
G1 X98.877 Y108.851 E42.51095
G1 X98.553 Y108.177 E42.59172
G1 X98.303 Y107.472 E42.6725
G1 X98.129 Y106.744 E42.75334
G1 X98.034 Y106.002 E42.83413
G1 X98.015 Y105.485 E42.89001
G1 X98.015 Y95.515 E43.96677
G0 F4500 X98.415 Y95.515
G1 F1800 X98.455 Y94.79 E44.04519
G1 X98.574 Y94.073 E44.12368
G1 X98.772 Y93.374 E44.20214
G1 X99.045 Y92.701 E44.28058
G1 X99.39 Y92.062 E44.35901
G1 X99.804 Y91.465 E44.43747
G1 X100.28 Y90.917 E44.51586
G1 X100.814 Y90.424 E44.59436
G1 X101.399 Y89.994 E44.67277
G1 X102.028 Y89.63 E44.75125
G1 X102.693 Y89.337 E44.82974
G1 X103.386 Y89.119 E44.9082
G1 X104.098 Y88.979 E44.98656
G1 X105.015 Y88.915 E45.08584
G1 X113.338 Y88.915 E45.98473
G1 X114.063 Y88.955 E46.06314
G1 X114.78 Y89.074 E46.14164
G1 X115.479 Y89.272 E46.2201
G1 X116.152 Y89.545 E46.29854
G1 X116.791 Y89.89 E46.37697
G1 X117.388 Y90.304 E46.45543
G1 X117.936 Y90.78 E46.53382
G1 X118.429 Y91.314 E46.61231
G1 X118.859 Y91.899 E46.69073
G1 X119.223 Y92.528 E46.76921
G1 X119.516 Y93.193 E46.84769
G1 X119.734 Y93.886 E46.92615
G1 X119.874 Y94.598 E47.00452
G1 X119.938 Y95.515 E47.1038
G1 X119.938 Y100.219 E47.61183
G1 X120.799 Y100.545 E47.71126
G1 X121.438 Y100.89 E47.78969
G1 X122.035 Y101.304 E47.86815
G1 X122.583 Y101.78 E47.94655
G1 X123.076 Y102.314 E48.02504
G1 X123.506 Y102.899 E48.10345
G1 X123.87 Y103.528 E48.18194
G1 X124.163 Y104.193 E48.26042
G1 X124.381 Y104.886 E48.33888
G1 X124.521 Y105.598 E48.41725
G1 X124.585 Y106.515 E48.51652
G1 X124.585 Y116.485 E49.59328
G1 X124.553 Y117.06 E49.65548
G1 X124.585 Y117.515 E49.70474
G1 X124.585 Y127.485 E50.7815
G1 X124.545 Y128.21 E50.85992
G1 X124.426 Y128.927 E50.93842
G1 X124.228 Y129.626 E51.01688
G1 X123.955 Y130.299 E51.09531
G1 X123.61 Y130.938 E51.17374
G1 X123.196 Y131.535 E51.2522
G1 X122.72 Y132.083 E51.3306
G1 X122.186 Y132.576 E51.40909
G1 X121.601 Y133.006 E51.4875
G1 X120.972 Y133.37 E51.56599
G1 X120.307 Y133.663 E51.64447
G1 X119.614 Y133.881 E51.72293
G1 X118.902 Y134.021 E51.8013
G1 X117.985 Y134.085 E51.90058
G1 X105.015 Y134.085 E53.30134
G1 X104.29 Y134.045 E53.37975
G1 X103.573 Y133.926 E53.45825
G1 X102.874 Y133.728 E53.53671
G1 X102.201 Y133.455 E53.61515
G1 X101.562 Y133.11 E53.69358
G1 X100.965 Y132.696 E53.77204
G1 X100.417 Y132.22 E53.85043
G1 X99.924 Y131.686 E53.92892
G1 X99.494 Y131.101 E54.00734
G1 X99.13 Y130.472 E54.08582
G1 X98.837 Y129.807 E54.1643
G1 X98.619 Y129.114 E54.24276
G1 X98.479 Y128.402 E54.32113
G1 X98.415 Y127.485 E54.42041
G1 X98.415 Y117.515 E55.49717
G1 X98.455 Y116.79 E55.57559
G1 X98.574 Y116.073 E55.65408
G1 X98.772 Y115.374 E55.73255
G1 X99.045 Y114.701 E55.81098
G1 X99.39 Y114.062 E55.88941
G1 X99.804 Y113.465 E55.96787
G1 X100.28 Y112.917 E56.04627
G1 X100.814 Y112.424 E56.12476
G1 X101.399 Y111.994 E56.20317
G1 X102.028 Y111.63 E56.28166
G1 X102.268 Y111.482 E56.31211
G1 X101.562 Y111.11 E56.39829
G1 X100.965 Y110.696 E56.47676
G1 X100.417 Y110.22 E56.55515
G1 X99.924 Y109.686 E56.63364
G1 X99.494 Y109.101 E56.71205
G1 X99.13 Y108.472 E56.79054
G1 X98.837 Y107.807 E56.86902
G1 X98.619 Y107.114 E56.94748
G1 X98.479 Y106.402 E57.02585
G1 X98.415 Y105.485 E57.12513
G1 X98.415 Y95.515 E58.20189
G0 F4500 X98.815 Y95.515
G1 F1800 X98.855 Y94.812 E58.27793
G1 X98.974 Y94.118 E58.35398
G1 X99.172 Y93.443 E58.42995
G1 X99.444 Y92.794 E58.50595
G1 X99.789 Y92.18 E58.58201
G1 X100.2 Y91.609 E58.658
G1 X100.674 Y91.088 E58.73407
G1 X101.204 Y90.624 E58.81014
G1 X101.783 Y90.224 E58.88615
G1 X102.404 Y89.892 E58.9622
G1 X103.058 Y89.632 E59.03821
G1 X103.738 Y89.448 E59.11429
G1 X104.434 Y89.342 E59.19032
G1 X105.015 Y89.315 E59.25314
G1 X113.338 Y89.315 E60.15202
G1 X114.041 Y89.355 E60.22807
G1 X114.735 Y89.474 E60.30411
G1 X115.41 Y89.672 E60.38009
G1 X116.059 Y89.944 E60.45608
G1 X116.673 Y90.289 E60.53215
G1 X117.244 Y90.7 E60.60813
G1 X117.765 Y91.174 E60.6842
G1 X118.229 Y91.704 E60.76028
G1 X118.629 Y92.283 E60.83628
G1 X118.961 Y92.904 E60.91233
G1 X119.221 Y93.558 E60.98834
G1 X119.405 Y94.238 E61.06442
G1 X119.511 Y94.934 E61.14046
G1 X119.538 Y95.515 E61.20327
G1 X119.538 Y100.52 E61.74381
G1 X120.057 Y100.672 E61.80222
G1 X120.706 Y100.944 E61.87822
G1 X121.32 Y101.289 E61.95428
G1 X121.891 Y101.7 E62.03026
G1 X122.412 Y102.174 E62.10633
G1 X122.876 Y102.704 E62.18241
G1 X123.276 Y103.283 E62.25841
G1 X123.608 Y103.904 E62.33446
G1 X123.868 Y104.558 E62.41047
G1 X124.052 Y105.238 E62.48655
G1 X124.158 Y105.934 E62.56259
G1 X124.185 Y106.515 E62.6254
G1 X124.185 Y116.485 E63.70216
G1 X124.185 Y127.485 E64.89016
G1 X124.145 Y128.188 E64.96621
G1 X124.026 Y128.882 E65.04226
G1 X123.828 Y129.557 E65.11823
G1 X123.556 Y130.206 E65.19423
G1 X123.211 Y130.82 E65.27029
G1 X122.8 Y131.391 E65.34627
G1 X122.326 Y131.912 E65.42234
G1 X121.796 Y132.376 E65.49842
G1 X121.217 Y132.776 E65.57442
G1 X120.596 Y133.108 E65.65047
G1 X119.942 Y133.368 E65.72648
G1 X119.262 Y133.552 E65.80256
G1 X118.566 Y133.658 E65.8786
G1 X117.985 Y133.685 E65.94141
G1 X105.015 Y133.685 E67.34217
G1 X104.312 Y133.645 E67.41822
G1 X103.618 Y133.526 E67.49427
G1 X102.943 Y133.328 E67.57024
G1 X102.294 Y133.056 E67.64624
G1 X101.68 Y132.711 E67.7223
G1 X101.109 Y132.3 E67.79828
G1 X100.588 Y131.826 E67.87435
G1 X100.124 Y131.296 E67.95043
G1 X99.724 Y130.717 E68.02643
G1 X99.392 Y130.096 E68.10248
G1 X99.132 Y129.442 E68.17849
G1 X98.948 Y128.762 E68.25457
G1 X98.842 Y128.066 E68.33061
G1 X98.815 Y127.485 E68.39342
G1 X98.815 Y117.515 E69.47018
G1 X98.855 Y116.812 E69.54623
G1 X98.974 Y116.118 E69.62228
G1 X99.172 Y115.443 E69.69825
G1 X99.444 Y114.794 E69.77425
G1 X99.789 Y114.18 E69.85031
G1 X100.2 Y113.609 E69.92629
G1 X100.674 Y113.088 E70.00236
G1 X101.204 Y112.624 E70.07844
G1 X101.783 Y112.224 E70.15444
G1 X102.404 Y111.892 E70.23049
G1 X102.668 Y111.787 E70.26118
G1 X102.668 Y111.213 E70.32317
G1 X101.68 Y110.711 E70.44286
G1 X101.109 Y110.3 E70.51884
G1 X100.588 Y109.826 E70.59491
G1 X100.124 Y109.296 E70.67099
G1 X99.724 Y108.717 E70.74699
G1 X99.392 Y108.096 E70.82304
G1 X99.132 Y107.442 E70.89905
G1 X98.948 Y106.762 E70.97513
G1 X98.842 Y106.066 E71.05116
G1 X98.815 Y105.485 E71.11398
G1 X98.815 Y95.515 E72.19074
G0 F4500 X99.215 Y95.515
G1 F1800 X99.255 Y94.835 E72.26431
G1 X99.374 Y94.165 E72.3378
G1 X99.571 Y93.513 E72.41136
