;FLAVOR:UltiGCode
;TIME:5008
;MATERIAL:5316
;MATERIAL2:0
;NOZZLE_DIAMETER:0.4
;MINX:23.834
;MINY:67.311
;MINZ:0.27
;MAXX:199.165
;MAXY:155.691
;MAXZ:10.97
;Generated with Cura_SteamEngine 5.0.0
M82 ;absolute extrusion mode
G0 F3000 Y50 ;avoid prime blob
G92 E0
G92 E0
G10
;LAYER_COUNT:108
;LAYER:0
M107
G0 F4500 X31.368 Y68.509 Z0.27
G0 X25.125 Y74.619
;TYPE:SKIRT
G11
G1 F1800 X25.471 Y73.916 E0.08462
G1 X26.273 Y72.689 E0.24293
G1 X26.726 Y72.067 E0.32604
G1 X27.749 Y70.981 E0.48717
G1 X28.271 Y70.475 E0.56568
G1 X29.387 Y69.635 E0.71654
G1 X30.084 Y69.163 E0.80745
G1 X31.368 Y68.509 E0.96307
G1 X32.097 Y68.183 E1.04932
G1 X33.472 Y67.762 E1.20463
G1 X34.23 Y67.57 E1.28907
G1 X35.663 Y67.393 E1.44501
G1 X36.47 Y67.333 E1.53241
G1 X37.429 Y67.313 E1.63601
G1 X39.466 Y67.311 E1.856
G1 X40.14 Y67.32 E1.9288
G1 X41.123 Y67.489 E2.03652
G1 X41.845 Y67.775 E2.12039
G1 X42.793 Y68.389 E2.24238
G1 X45.125 Y69.907 E2.54289
G1 X47.455 Y71.333 E2.83792
G1 X49.858 Y72.709 E3.13698
G1 X52.234 Y73.984 E3.4282
G1 X54.714 Y75.224 E3.72765
G1 X56.643 Y76.129 E3.95777
G1 X101.485 Y96.562 E9.27979
G1 X103.976 Y97.654 E9.57353
G1 X106.546 Y98.696 E9.87304
G1 X109.106 Y99.65 E10.16809
G1 X111.697 Y100.533 E10.46372
G1 X114.32 Y101.346 E10.7603
G1 X116.923 Y102.071 E11.05212
G1 X118.285 Y102.422 E11.20403
G1 X118.763 Y102.587 E11.25864
G1 X119.28 Y102.871 E11.32235
G1 X121.817 Y104.589 E11.65325
G1 X124.113 Y106.049 E11.94711
G1 X126.453 Y107.444 E12.24133
G1 X128.857 Y108.786 E12.53868
G1 X131.275 Y110.05 E12.83335
G1 X134.752 Y111.717 E13.24979
G1 X187.702 Y135.839 E19.53385
G1 X190.263 Y136.962 E19.83586
G1 X192.792 Y137.986 E20.13053
G1 X195.368 Y138.946 E20.42743
G1 X196.394 Y139.302 E20.54472
G1 X197.247 Y139.658 E20.64454
G1 X197.861 Y140.094 E20.72587
G1 X198.542 Y140.838 E20.8348
G1 X198.855 Y141.447 E20.90875
G1 X199.105 Y142.207 E20.99516
G1 X199.165 Y143.122 E21.09419
G1 X199.082 Y144.175 E21.20827
G1 X199.002 Y144.897 E21.28672
G1 X198.673 Y146.283 E21.44057
G1 X198.45 Y147.055 E21.52735
G1 X197.88 Y148.38 E21.68313
G1 X197.531 Y149.093 E21.76887
G1 X196.711 Y150.341 E21.93014
G1 X196.291 Y150.921 E22.00748
G1 X195.298 Y151.981 E22.16435
G1 X194.726 Y152.532 E22.25012
G1 X193.547 Y153.417 E22.40934
G1 X192.919 Y153.841 E22.49117
G1 X191.633 Y154.496 E22.64704
G1 X190.905 Y154.821 E22.73314
G1 X189.52 Y155.244 E22.88954
G1 X188.777 Y155.432 E22.97231
G1 X187.492 Y155.597 E23.11223
G1 X186.511 Y155.672 E23.21849
G1 X185.595 Y155.691 E23.31744
G1 X183.528 Y155.69 E23.54068
G1 X182.855 Y155.68 E23.61337
G1 X182.352 Y155.632 E23.66794
G1 X181.719 Y155.453 E23.73898
G1 X180.847 Y155.039 E23.84324
G1 X180.41 Y154.755 E23.89952
G1 X178.961 Y153.785 E24.08784
G1 X176.614 Y152.309 E24.38728
G1 X174.285 Y150.934 E24.67937
G1 X171.851 Y149.587 E24.97982
G1 X169.454 Y148.349 E25.27118
G1 X166.351 Y146.869 E25.64247
G1 X121.482 Y126.428 E30.9675
G1 X118.97 Y125.327 E31.26371
G1 X116.435 Y124.299 E31.55914
G1 X113.894 Y123.352 E31.85201
G1 X111.292 Y122.465 E32.1489
G1 X108.669 Y121.653 E32.44545
G1 X105.999 Y120.909 E32.7448
G1 X104.714 Y120.578 E32.88811
G1 X104.236 Y120.414 E32.94269
G1 X103.719 Y120.129 E33.00644
G1 X101.182 Y118.412 E33.33729
G1 X98.871 Y116.944 E33.63298
G1 X96.509 Y115.539 E33.92979
G1 X94.114 Y114.203 E34.22598
G1 X91.684 Y112.936 E34.52195
G1 X88.275 Y111.302 E34.93023
G1 X35.259 Y87.148 E41.2222
G1 X32.698 Y86.025 E41.52421
G1 X30.16 Y84.997 E41.81995
G1 X26.846 Y83.777 E42.20134
G1 X26.059 Y83.474 E42.29242
G1 X25.306 Y83.052 E42.38564
G1 X24.92 Y82.725 E42.44028
G1 X24.476 Y82.175 E42.51662
G1 X24.102 Y81.516 E42.59845
G1 X23.87 Y80.697 E42.69039
G1 X23.834 Y79.879 E42.77882
G1 X23.93 Y78.739 E42.90237
G1 X24.007 Y78.071 E42.97499
G1 X24.341 Y76.682 E43.12928
G1 X24.557 Y75.938 E43.21295
G1 X25.125 Y74.619 E43.36805
G10
;MESH:phone stand lite V3.STL
G0 F4500 X117.385 Y107.54
;TYPE:WALL-OUTER
G11
G1 F1800 X117.29 Y107.369 E43.38918
G1 X117.29 Y105.71 E43.56835
G1 X113.392 Y105.71 E43.98933
G1 X112.64 Y105.381 E44.07798
G1 X41.7 Y73.06 E52.49722
G1 X41.103 Y72.665 E52.57454
G1 X40.657 Y72.1 E52.65228
G1 X40.418 Y71.426 E52.72951
G1 X40.298 Y70.84 E52.79411
G1 X40.064 Y70.711 E52.82297
G1 X36.712 Y70.714 E53.18498
G1 X35.062 Y70.857 E53.36385
G1 X33.477 Y71.278 E53.54097
G1 X31.988 Y71.969 E53.71825
G1 X30.643 Y72.902 E53.89504
G1 X29.468 Y74.063 E54.07344
G1 X28.517 Y75.403 E54.2509
G1 X27.811 Y76.892 E54.42887
G1 X27.374 Y78.471 E54.60581
G1 X27.211 Y80.098 E54.78241
G1 X27.325 Y80.322 E54.80956
G1 X27.606 Y80.404 E54.84117
G1 X28.467 Y80.422 E54.93418
G1 X29.062 Y80.591 E55.00098
G1 X30.355 Y81.178 E55.15434
G1 X105.593 Y115.454 E64.08353
G1 X105.7 Y115.572 E64.10073
G1 X105.71 Y115.637 E64.10784
G1 X105.71 Y117.29 E64.28636
G1 X109.594 Y117.29 E64.70583
G1 X110.354 Y117.623 E64.79545
G1 X181.344 Y149.963 E73.22045
G1 X181.67 Y150.152 E73.26115
G1 X182.151 Y150.61 E73.33288
G1 X182.49 Y151.228 E73.40901
G1 X182.604 Y151.887 E73.48124
G1 X182.71 Y152.182 E73.51509
G1 X183.074 Y152.29 E73.5561
G1 X186.254 Y152.291 E73.89954
G1 X187.939 Y152.147 E74.08218
G1 X189.525 Y151.726 E74.2594
G1 X191.014 Y151.035 E74.43668
G1 X192.371 Y150.092 E74.61515
G1 X193.534 Y148.942 E74.79179
G1 X194.489 Y147.593 E74.9703
G1 X195.194 Y146.109 E75.14774
G1 X195.631 Y144.529 E75.32478
G1 X195.786 Y142.932 E75.49807
G1 X195.785 Y142.878 E75.5039
G1 X195.652 Y142.659 E75.53157
G1 X195.412 Y142.601 E75.55824
G1 X194.532 Y142.583 E75.6533
G1 X193.936 Y142.414 E75.72021
G1 X192.655 Y141.833 E75.87212
G1 X117.385 Y107.54 E84.80522
G0 F4500 X117.29 Y107.369
G0 X117.29 Y107.364
G10
G0 X105.759 Y115.09
;TYPE:WALL-INNER
G11
G1 F1800 X106.02 Y115.32 E84.84279
G1 X106.11 Y115.637 E84.87838
G1 X106.11 Y116.89 E85.0137
G1 X109.623 Y116.891 E85.3931
G1 X110.52 Y117.259 E85.49782
G1 X181.495 Y149.592 E93.92104
G1 X181.946 Y149.862 E93.97781
G1 X182.419 Y150.311 E94.04824
G1 X182.843 Y151.039 E94.13923
G1 X182.999 Y151.825 E94.22577
G1 X183.074 Y151.89 E94.23649
G1 X186.237 Y151.891 E94.57809
G1 X187.87 Y151.751 E94.75511
G1 X189.389 Y151.348 E94.92483
G1 X190.814 Y150.687 E95.09448
G1 X192.114 Y149.783 E95.26549
G1 X193.228 Y148.682 E95.43465
G1 X194.143 Y147.39 E95.60563
G1 X194.818 Y145.969 E95.77554
G1 X195.236 Y144.456 E95.94506
G1 X195.377 Y143.001 E96.10294
G1 X194.524 Y142.983 E96.19508
G1 X193.823 Y142.798 E96.27338
G1 X192.489 Y142.197 E96.4314
G1 X117.241 Y107.916 E105.3618
G1 X116.979 Y107.686 E105.39945
G1 X116.89 Y107.369 E105.43501
G1 X116.89 Y106.11 E105.57098
G1 X113.383 Y106.11 E105.94974
G1 X112.474 Y105.745 E106.05553
G1 X41.534 Y73.424 E114.47477
G1 X40.881 Y72.998 E114.55898
G1 X40.339 Y72.343 E114.65079
G1 X40.039 Y71.554 E114.74196
G1 X39.973 Y71.112 E114.79022
G1 X36.73 Y71.114 E115.14047
G1 X35.131 Y71.253 E115.31381
G1 X33.613 Y71.656 E115.48343
G1 X32.188 Y72.317 E115.65309
G1 X30.899 Y73.211 E115.8225
G1 X29.774 Y74.323 E115.99334
G1 X28.863 Y75.606 E116.16328
G1 X28.187 Y77.032 E116.33372
G1 X27.769 Y78.545 E116.50324
G1 X27.622 Y80.004 E116.66161
G1 X28.475 Y80.022 E116.75376
G1 X29.176 Y80.207 E116.83206
G1 X30.521 Y80.814 E116.99143
G1 X105.759 Y115.09 E125.92062
G10
G0 F4500 X106.49 Y115.633
;TYPE:SKIN
G11
G1 F1800 X106.49 Y116.51 E126.01249
G1 X109.624 Y116.51 E126.34081
G1 X109.901 Y116.564 E126.37037
G1 X181.651 Y149.245 E134.62989
G1 X182.173 Y149.558 E134.69366
G1 X182.698 Y150.095 E134.77233
G1 X182.871 Y150.285 E134.79925
G1 X183.177 Y150.855 E134.86702
G1 X183.326 Y151.51 E134.93739
G1 X186.219 Y151.511 E135.24046
G1 X187.807 Y151.375 E135.40743
G1 X189.257 Y150.991 E135.56457
G1 X190.621 Y150.356 E135.72219
G1 X191.861 Y149.496 E135.88028
G1 X192.944 Y148.429 E136.03955
G1 X193.813 Y147.193 E136.19783
G1 X194.462 Y145.832 E136.35579
G1 X194.86 Y144.389 E136.5126
G1 X194.889 Y144.085 E136.54459
G1 X194.96 Y143.364 E136.62049
G1 X194.235 Y143.312 E136.69664
G1 X193.611 Y143.125 E136.76488
G1 X192.331 Y142.543 E136.91218
G1 X117.073 Y108.256 E145.57588
G1 X116.66 Y107.892 E145.63355
G1 X116.51 Y107.373 E145.69015
G1 X116.51 Y106.491 E145.78255
G1 X114.141 Y106.491 E146.03072
G1 X113.16 Y106.453 E146.13357
G1 X112.289 Y106.073 E146.23312
G1 X41.374 Y73.77 E154.39662
G1 X40.475 Y73.135 E154.51193
G1 X39.91 Y72.344 E154.61376
G1 X39.661 Y71.493 E154.70665
G1 X36.748 Y71.494 E155.01181
G1 X35.195 Y71.629 E155.17512
G1 X33.745 Y72.013 E155.33226
G1 X32.381 Y72.648 E155.48988
G1 X31.141 Y73.508 E155.64796
G1 X30.069 Y74.568 E155.8059
G1 X29.192 Y75.802 E155.96449
G1 X28.543 Y77.169 E156.12302
G1 X28.145 Y78.612 E156.27983
G1 X28.041 Y79.641 E156.38818
G1 X28.768 Y79.693 E156.46454
G1 X29.388 Y79.88 E156.53238
G1 X30.676 Y80.464 E156.68053
G1 X36.444 Y83.093 E157.34459
G1 X105.897 Y114.736 E165.34005
G1 X106.314 Y115.083 E165.39688
G1 X106.49 Y115.633 E165.45738
G10
G0 F4500 X194.434 Y143.522
G11
G1 F1800 X194.715 Y143.804 E165.49908
G0 F4500 X194.664 Y144.318
G1 F1800 X193.711 Y143.365 E165.64027
G1 X193.641 Y143.295
G10
G0 F4500 X192.715 Y142.935
G11
G1 F1800 X194.547 Y144.767 E165.91169
G0 F4500 X194.425 Y145.21
G1 F1800 X191.676 Y142.461 E166.31896
G1 X191.606 Y142.391
G10
G0 F4500 X190.637 Y141.988
G11
G1 F1800 X194.303 Y145.654 E166.86209
G0 F4500 X194.135 Y146.052
G1 F1800 X189.598 Y141.515 E167.53426
G1 X189.528 Y141.445
G10
G0 F4500 X188.559 Y141.041
G11
G1 F1800 X193.953 Y146.435 E168.3334
G0 F4500 X193.769 Y146.817
G1 F1800 X187.52 Y140.568 E169.25921
G1 X187.45 Y140.498
G10
G0 F4500 X186.481 Y140.095
G11
G1 F1800 X193.572 Y147.186 E170.30976
G0 F4500 X193.339 Y147.518
G1 F1800 X185.442 Y139.621 E171.47972
G1 X185.372 Y139.551
G10
G0 F4500 X184.403 Y139.148
G11
G1 F1800 X193.105 Y147.851 E172.76903
G0 F4500 X192.872 Y148.183
G1 F1800 X183.364 Y138.675 E174.17766
G1 X183.294 Y138.605
G10
G0 F4500 X182.325 Y138.201
G11
G1 F1800 X192.604 Y148.481 E175.7006
G0 F4500 X192.319 Y148.761
G1 F1800 X181.286 Y137.728 E177.33518
G1 X181.216 Y137.658
G10
G0 F4500 X180.247 Y137.255
G11
G1 F1800 X192.034 Y149.042 E179.08146
G0 F4500 X191.749 Y149.323
G1 F1800 X179.208 Y136.782 E180.93944
G1 X179.138 Y136.712
G10
G0 F4500 X178.169 Y136.308
G11
G1 F1800 X191.418 Y149.558 E182.9024
G0 F4500 X191.085 Y149.789
G1 F1800 X177.13 Y135.835 E184.9698
G1 X177.06 Y135.765
G10
G0 F4500 X176.091 Y135.362
G11
G1 F1800 X190.75 Y150.021 E187.14157
G0 F4500 X190.401 Y150.237
G1 F1800 X175.052 Y134.889 E189.4155
G1 X174.982 Y134.819
G10
G0 F4500 X174.014 Y134.416
G11
G1 F1800 X190.014 Y150.416 E191.78595
G0 F4500 X189.628 Y150.596
G1 F1800 X172.974 Y133.942 E194.25329
G1 X172.904 Y133.872
G10
G0 F4500 X171.935 Y133.469
G11
G1 F1800 X189.242 Y150.775 E196.8173
G0 F4500 X188.803 Y150.902
G1 F1800 X170.897 Y132.996 E199.47013
G1 X170.827 Y132.926
G10
G0 F4500 X169.858 Y132.523
G11
G1 F1800 X188.356 Y151.021 E202.21066
G0 F4500 X187.909 Y151.139
G1 F1800 X168.818 Y132.049 E205.03897
G1 X168.748 Y131.979
G10
G0 F4500 X167.78 Y131.576
G11
G1 F1800 X187.41 Y151.207 E207.94729
G0 F4500 X186.89 Y151.252
G1 F1800 X166.741 Y131.103 E210.93243
G1 X166.671 Y131.033
G10
G0 F4500 X165.701 Y130.629
G11
G1 F1800 X186.369 Y151.296 E213.99438
G0 F4500 X185.817 Y151.31
G1 F1800 X164.663 Y130.156 E217.12841
G1 X164.593 Y130.086
G10
G0 F4500 X163.624 Y129.683
G11
G1 F1800 X185.251 Y151.31 E220.33251
G0 F4500 X184.684 Y151.309
G1 F1800 X162.585 Y129.209 E223.60662
G1 X162.515 Y129.139
G10
G0 F4500 X161.546 Y128.736
G11
G1 F1800 X182.079 Y149.269 E226.64865
G1 X182.149 Y149.339
G10
G0 F4500 X180.95 Y148.706
G11
G1 F1800 X160.507 Y128.263 E229.67734
G1 X160.437 Y128.193
G10
G0 F4500 X159.468 Y127.789
G11
G1 F1800 X179.912 Y148.233 E232.70618
G1 X179.982 Y148.303
G10
G0 F4500 X178.873 Y147.76
G11
G1 F1800 X158.429 Y127.316 E235.73502
G1 X158.359 Y127.246
G10
G0 F4500 X157.39 Y126.843
G11
G1 F1800 X177.834 Y147.287 E238.76386
G1 X177.904 Y147.357
G10
G0 F4500 X176.795 Y146.813
G11
G1 F1800 X156.351 Y126.369 E241.7927
G1 X156.281 Y126.299
G10
G0 F4500 X155.312 Y125.896
G11
G1 F1800 X175.756 Y146.34 E244.82154
G1 X175.826 Y146.41
G10
G0 F4500 X174.717 Y145.867
G11
G1 F1800 X154.273 Y125.423 E247.85038
G1 X154.203 Y125.353
G10
G0 F4500 X153.234 Y124.95
G11
G1 F1800 X173.678 Y145.394 E250.87922
G1 X173.748 Y145.464
G10
G0 F4500 X172.64 Y144.921
G11
G1 F1800 X152.195 Y124.476 E253.90821
G1 X152.125 Y124.406
G10
G0 F4500 X151.156 Y124.003
G11
G1 F1800 X171.601 Y144.448 E256.9372
G1 X171.671 Y144.518
G10
G0 F4500 X170.562 Y143.975
G11
G1 F1800 X150.117 Y123.53 E259.96619
G1 X150.047 Y123.46
G10
G0 F4500 X149.078 Y123.057
G11
G1 F1800 X169.523 Y143.502 E262.99517
G1 X169.593 Y143.572
G10
G0 F4500 X168.485 Y143.029
G11
G1 F1800 X148.039 Y122.584 E266.02424
G1 X147.969 Y122.514
G10
G0 F4500 X147 Y122.11
G11
G1 F1800 X167.445 Y142.555 E269.05322
G1 X167.515 Y142.625
G10
G0 F4500 X166.406 Y142.082
G11
G1 F1800 X145.961 Y121.637 E272.08221
G1 X145.891 Y121.567
G10
G0 F4500 X144.922 Y121.164
G11
G1 F1800 X165.368 Y141.609 E275.11128
G1 X165.438 Y141.679
G10
G0 F4500 X164.329 Y141.136
G11
G1 F1800 X143.883 Y120.69 E278.14041
G1 X143.813 Y120.62
G10
G0 F4500 X142.844 Y120.217
G11
G1 F1800 X163.29 Y140.663 E281.16955
G1 X163.36 Y140.733
G10
G0 F4500 X162.252 Y140.19
G11
G1 F1800 X141.806 Y119.744 E284.19868
G1 X141.736 Y119.674
G10
G0 F4500 X140.766 Y119.27
G11
G1 F1800 X161.213 Y139.717 E287.22797
G1 X161.283 Y139.787
G10
G0 F4500 X160.174 Y139.244
G11
G1 F1800 X139.727 Y118.797 E290.25725
G1 X139.657 Y118.727
G10
G0 F4500 X138.689 Y118.324
G11
G1 F1800 X159.135 Y138.77 E293.28639
G1 X159.205 Y138.84
G10
G0 F4500 X158.096 Y138.297
G11
G1 F1800 X137.649 Y117.85 E296.31568
G1 X137.579 Y117.78
G10
G0 F4500 X136.61 Y117.377
G11
G1 F1800 X157.057 Y137.824 E299.34496
G1 X157.127 Y137.894
G10
G0 F4500 X156.018 Y137.351
G11
G1 F1800 X135.572 Y116.904 E302.37417
G1 X135.502 Y116.834
G10
G0 F4500 X134.532 Y116.43
G11
G1 F1800 X154.98 Y136.878 E305.4036
G1 X155.05 Y136.948
G10
G0 F4500 X153.941 Y136.405
G11
G1 F1800 X133.493 Y115.957 E308.43304
G1 X133.423 Y115.887
G10
G0 F4500 X132.455 Y115.484
G11
G1 F1800 X152.902 Y135.932 E311.46239
G1 X152.972 Y136.002
G10
G0 F4500 X151.863 Y135.459
G11
G1 F1800 X131.415 Y115.01 E314.4919
G1 X131.345 Y114.94
G10
G0 F4500 X130.377 Y114.537
G11
G1 F1800 X150.824 Y134.985 E317.52126
G1 X150.894 Y135.055
G10
G0 F4500 X149.785 Y134.512
G11
G1 F1800 X129.338 Y114.064 E320.55062
G1 X129.268 Y113.994
G10
G0 F4500 X128.298 Y113.591
G11
G1 F1800 X148.746 Y134.039 E323.58005
G1 X148.816 Y134.109
G10
G0 F4500 X147.708 Y133.566
G11
G1 F1800 X127.26 Y113.117 E326.60956
G1 X127.19 Y113.047
G10
G0 F4500 X126.221 Y112.644
G11
G1 F1800 X146.669 Y133.093 E329.63907
G1 X146.739 Y133.163
G10
G0 F4500 X145.63 Y132.619
G11
G1 F1800 X125.181 Y112.171 E332.66857
G1 X125.111 Y112.101
G10
G0 F4500 X124.143 Y111.698
G11
G1 F1800 X144.592 Y132.146 E335.69808
G1 X144.662 Y132.216
G10
G0 F4500 X143.553 Y131.673
G11
G1 F1800 X123.104 Y111.225 E338.72759
G1 X123.034 Y111.155
G10
G0 F4500 X122.065 Y110.751
G11
G1 F1800 X142.513 Y131.2 E341.75709
G1 X142.583 Y131.27
G10
G0 F4500 X141.475 Y130.727
G11
G1 F1800 X121.026 Y110.278 E344.78667
G1 X120.956 Y110.208
G10
G0 F4500 X119.987 Y109.805
G11
G1 F1800 X140.436 Y130.254 E347.81626
G1 X140.506 Y130.324
G10
G0 F4500 X139.397 Y129.78
G11
G1 F1800 X118.948 Y109.331 E350.84584
G1 X118.878 Y109.261
G10
G0 F4500 X117.909 Y108.858
G11
G1 F1800 X138.358 Y129.307 E353.87542
G1 X138.428 Y129.377
G10
G0 F4500 X183.1 Y150.29
G11
G1 F1800 X184.119 Y151.309 E354.02639
G0 F4500 X183.553 Y151.309
