;FLAVOR:UltiGCode
;TIME:5259
;MATERIAL:3224
;MATERIAL2:0
;NOZZLE_DIAMETER:0.4
;MINX:86.012
;MINY:118.485
;MINZ:0.27
;MAXX:118.005
;MAXY:145.477
;MAXZ:16.52
;Generated with Cura_SteamEngine 5.0.0
M82 ;absolute extrusion mode
G0 F3000 Y50 ;avoid prime blob
G92 E0
G92 E0
G10
;LAYER_COUNT:326
;LAYER:0
M107
G0 F4500 X88.022 Y119.248 Z0.27
G0 X86.012 Y123.633
;TYPE:SKIRT
G11
G1 F1800 X86.021 Y123.016 E0.06664
G1 X86.08 Y122.391 E0.13444
G1 X86.268 Y121.537 E0.22888
G1 X86.48 Y121.012 E0.29003
G1 X86.763 Y120.523 E0.35105
G1 X87.179 Y119.997 E0.42348
G1 X87.574 Y119.593 E0.4845
G1 X88.022 Y119.248 E0.54557
G1 X88.673 Y118.9 E0.62529
G1 X89.402 Y118.635 E0.70906
G1 X90.192 Y118.509 E0.79546
G1 X91.122 Y118.485 E0.89593
G1 X112.875 Y118.486 E3.24526
G1 X113.568 Y118.496 E3.32011
G1 X114.131 Y118.544 E3.38113
G1 X114.73 Y118.681 E3.4475
G1 X115.266 Y118.862 E3.5086
G1 X115.77 Y119.118 E3.56965
G1 X116.301 Y119.49 E3.63967
G1 X116.725 Y119.864 E3.70073
G1 X117.093 Y120.293 E3.76177
G1 X117.42 Y120.814 E3.82821
G1 X117.741 Y121.511 E3.91108
G1 X117.919 Y122.195 E3.98741
G1 X117.983 Y122.839 E4.05731
G1 X118.005 Y123.972 E4.17969
G1 X118.003 Y140.327 E5.94603
G1 X117.991 Y141.075 E6.02683
G1 X117.942 Y141.638 E6.08786
G1 X117.724 Y142.451 E6.17877
G1 X117.39 Y143.204 E6.26773
G1 X117.08 Y143.677 E6.32881
G1 X116.707 Y144.101 E6.3898
G1 X116.256 Y144.495 E6.45448
G1 X115.798 Y144.825 E6.51544
G1 X115.297 Y145.088 E6.57655
G1 X114.647 Y145.308 E6.65067
G1 X113.927 Y145.443 E6.72978
G1 X112.736 Y145.477 E6.85846
G1 X91.142 Y145.476 E9.19061
G1 X90.518 Y145.467 E9.25801
G1 X89.945 Y145.417 E9.32013
G1 X89.157 Y145.251 E9.4071
G1 X88.63 Y145.046 E9.46817
G1 X88.137 Y144.769 E9.52925
G1 X87.484 Y144.232 E9.62056
G1 X86.842 Y143.521 E9.72402
G1 X86.539 Y143.043 E9.78514
G1 X86.307 Y142.527 E9.84624
G1 X86.15 Y141.984 E9.90729
G1 X86.047 Y141.283 E9.98381
G1 X86.016 Y140.784 E10.0378
G1 X86.012 Y123.633 E11.89011
G0 F4500 X86.412 Y123.638
G1 F1800 X86.421 Y123.021 E11.95675
G1 X86.474 Y122.46 E12.01761
G1 X86.657 Y121.633 E12.10909
G1 X86.864 Y121.139 E12.16693
G1 X87.142 Y120.68 E12.22489
G1 X87.484 Y120.256 E12.28372
G1 X87.86 Y119.874 E12.34161
G1 X88.289 Y119.552 E12.39954
G1 X88.828 Y119.268 E12.46534
G1 X89.531 Y119.015 E12.54603
G1 X90.215 Y118.908 E12.6208
G1 X91.128 Y118.885 E12.71944
G1 X112.869 Y118.886 E15.06746
G1 X113.562 Y118.896 E15.14232
G1 X114.096 Y118.944 E15.20022
G1 X114.629 Y119.068 E15.25932
G1 X115.136 Y119.242 E15.31721
G1 X115.612 Y119.49 E15.37518
G1 X116.059 Y119.809 E15.43449
G1 X116.46 Y120.164 E15.49233
G1 X116.804 Y120.576 E15.5503
G1 X117.16 Y121.179 E15.62592
G1 X117.374 Y121.671 E15.68387
G1 X117.535 Y122.327 E15.75682
G1 X117.604 Y123.9 E15.92686
G1 X117.604 Y140.321 E17.70033
G1 X117.592 Y141.069 E17.78113
G1 X117.543 Y141.603 E17.83904
G1 X117.351 Y142.307 E17.91785
G1 X117.028 Y143.033 E18.00367
G1 X116.729 Y143.478 E18.06157
G1 X116.205 Y144.016 E18.14268
G1 X115.564 Y144.499 E18.22936
G1 X115.086 Y144.743 E18.28732
G1 X114.552 Y144.919 E18.34804
G1 X113.593 Y145.062 E18.45276
G1 X112.667 Y145.078 E18.55278
G1 X91.148 Y145.076 E20.87684
G1 X90.524 Y145.067 E20.94424
G1 X89.77 Y144.984 E21.02616
G1 X89.249 Y144.86 E21.084
G1 X88.751 Y144.66 E21.14196
G1 X88.289 Y144.389 E21.1998
G1 X87.77 Y143.952 E21.27308
G1 X87.147 Y143.261 E21.37356
G1 X86.866 Y142.805 E21.43141
G1 X86.655 Y142.312 E21.48932
G1 X86.49 Y141.598 E21.56847
G1 X86.416 Y140.784 E21.65674
G1 X86.412 Y123.638 E23.50851
G0 F4500 X86.812 Y123.644
G1 F1800 X86.821 Y123.027 E23.57515
G1 X86.921 Y122.222 E23.66276
G1 X87.046 Y121.732 E23.71738
G1 X87.247 Y121.268 E23.77199
G1 X87.633 Y120.699 E23.84625
G1 X88.146 Y120.156 E23.92692
G1 X88.984 Y119.636 E24.03344
G1 X89.658 Y119.395 E24.11074
G1 X90.239 Y119.307 E24.17421
G1 X91.133 Y119.285 E24.27079
G1 X112.863 Y119.286 E26.61763
G1 X113.556 Y119.296 E26.69248
G1 X114.321 Y119.401 E26.77587
G1 X115.005 Y119.621 E26.85347
G1 X115.653 Y120.003 E26.93471
G1 X116.193 Y120.464 E27.01139
G1 X116.712 Y121.186 E27.10742
G1 X117.005 Y121.83 E27.18384
G1 X117.14 Y122.393 E27.24636
G1 X117.204 Y123.908 E27.41013
G1 X117.204 Y140.314 E29.18198
G1 X117.192 Y141.062 E29.26277
G1 X117.144 Y141.566 E29.31745
G1 X116.977 Y142.163 E29.3844
G1 X116.666 Y142.86 E29.46683
G1 X116.378 Y143.276 E29.52148
G1 X115.949 Y143.709 E29.58731
G1 X115.331 Y144.172 E29.6707
G1 X114.457 Y144.531 E29.77275
G1 X113.587 Y144.663 E29.86778
G1 X112.667 Y144.678 E29.96716
G1 X91.154 Y144.676 E32.29056
G1 X90.53 Y144.667 E32.35796
G1 X89.833 Y144.589 E32.43371
G1 X88.876 Y144.275 E32.54248
G1 X88.446 Y144.009 E32.59709
G1 X87.779 Y143.39 E32.69537
G1 X87.454 Y143.003 E32.74995
G1 X87.007 Y142.1 E32.85877
G1 X86.887 Y141.548 E32.91977
G1 X86.816 Y140.784 E33.00264
G1 X86.812 Y123.644 E34.85376
G10
G0 F4500 X100 Y130.32
;TYPE:SUPPORT
G11
G1 F1800 X100 Y133.649 E35.21329
G0 F4500 X99.377 Y131.999
G1 F1800 X104.638 Y131.999 E35.78148
G0 F4500 X104 Y133.641
G1 F1800 X104 Y130.307 E36.14155
G10
;MESH:phone stand lite box.STL
G0 F4500 X104.793 Y129.61
G0 X103.773 Y128.715
G0 X101.994 Y128.278
G0 X101.093 Y128.389
G0 X100.117 Y128.792
G0 X99.38 Y129.373
G0 X98.743 Y130.218
G0 X98.147 Y132.032
G11
G0 X98.556 Y132.006
;TYPE:WALL-OUTER
G1 F1800 X98.665 Y131.118 E36.23818
G1 X99.009 Y130.272 E36.33681
G1 X99.549 Y129.559 E36.43341
G1 X100.261 Y129.002 E36.53104
G1 X101.089 Y128.653 E36.62808
G1 X101.983 Y128.528 E36.72557
G1 X102.873 Y128.638 E36.82242
G1 X103.718 Y128.981 E36.92091
G1 X104.431 Y129.521 E37.01751
G1 X104.987 Y130.234 E37.11516
G1 X105.336 Y131.058 E37.2118
G1 X105.462 Y131.955 E37.30963
G1 X105.464 Y131.982 E37.31256
G1 X105.352 Y132.845 E37.40654
G1 X105.008 Y133.69 E37.50507
G1 X104.469 Y134.402 E37.60152
G1 X103.763 Y134.956 E37.69844
G1 X102.929 Y135.309 E37.79625
G1 X102.036 Y135.434 E37.89363
G1 X101.145 Y135.324 E37.99059
G1 X100.3 Y134.98 E38.08912
G1 X99.586 Y134.439 E38.18587
G1 X99.033 Y133.735 E38.28255
G1 X98.68 Y132.901 E38.38036
G1 X98.556 Y132.006 E38.47795
G0 F4500 X98.58 Y131.808
G10
G0 X98.158 Y131.78
G0 X98.473 Y130.05
G0 X98.11 Y123.286
G0 X90.623 Y123.084
G11
G0 X90.213 Y123.084
G1 F1800 X90.213 Y140.956 E40.40812
G1 X90.325 Y141.193 E40.43643
G1 X90.612 Y141.276 E40.4687
G1 X113.486 Y141.277 E42.93909
G1 X113.742 Y141.136 E42.97065
G1 X113.804 Y140.893 E42.99774
G1 X113.804 Y123.031 E44.92684
G1 X113.711 Y122.784 E44.95534
G1 X113.396 Y122.687 E44.99094
G1 X90.513 Y122.686 E47.4623
G1 X90.287 Y122.804 E47.48983
G1 X90.213 Y123.084 E47.52111
G0 F4500 X90.213 Y123.284
G0 X90.613 Y123.086
;TYPE:WALL-INNER
G1 F1800 X90.614 Y140.876 E49.44243
G1 X113.404 Y140.877 E51.90375
G1 X113.404 Y123.09 E53.82475
G1 X113.396 Y123.087 E53.82567
G1 X90.613 Y123.086 E56.28624
G10
G0 F4500 X90.623 Y123.087
G0 X90.813 Y131.412
G0 X97.975 Y131.981
G11
G0 X98.159 Y132.058
G1 F1800 X98.268 Y131.066 E56.39402
G1 X98.639 Y130.118 E56.50396
G1 X99.232 Y129.315 E56.61177
G1 X100.017 Y128.685 E56.72048
G1 X100.936 Y128.283 E56.82881
G1 X101.931 Y128.131 E56.93752
G1 X102.925 Y128.242 E57.04553
G1 X103.871 Y128.611 E57.1552
G1 X104.675 Y129.204 E57.2631
G1 X105.304 Y129.99 E57.37182
G1 X105.706 Y130.905 E57.47976
G1 X105.858 Y131.903 E57.58878
G1 X105.864 Y131.982 E57.59734
G1 X105.749 Y132.897 E57.69694
G1 X105.378 Y133.844 E57.80678
G1 X104.786 Y134.646 E57.91444
G1 X104.007 Y135.273 E58.02244
G1 X103.083 Y135.679 E58.13144
G1 X102.088 Y135.831 E58.24014
G1 X101.093 Y135.72 E58.34827
G1 X100.146 Y135.35 E58.45808
G1 X99.342 Y134.756 E58.56604
G1 X98.717 Y133.979 E58.67373
G1 X98.31 Y133.054 E58.78287
G1 X98.159 Y132.058 E58.89167
G0 F4500 X97.782 Y131.901
;TYPE:SKIN
G1 F1800 X97.946 Y130.811 E59.00714
G1 X98.393 Y129.789 E59.124
G1 X99.076 Y128.936 E59.23848
G1 X99.969 Y128.277 E59.35474
G1 X100.993 Y127.877 E59.46991
G1 X102.089 Y127.754 E59.58545
G1 X103.179 Y127.919 E59.70094
G1 X104.203 Y128.366 E59.81799
G1 X105.057 Y129.051 E59.93268
G1 X105.681 Y129.903 E60.04331
G1 X106.112 Y130.958 E60.1627
G1 X106.236 Y132.061 E60.27898
G1 X106.073 Y133.146 E60.39392
G1 X106.058 Y133.196 E60.39939
G1 X105.625 Y134.172 E60.51124
G1 X104.942 Y135.025 E60.62572
G1 X104.056 Y135.68 E60.74115
G1 X103.026 Y136.085 E60.85709
G1 X101.93 Y136.208 E60.97263
G1 X100.838 Y136.042 E61.08834
G1 X99.815 Y135.596 E61.20525
G1 X98.958 Y134.909 E61.32032
G1 X98.331 Y134.056 E61.43122
G1 X97.904 Y132.997 E61.55084
G1 X97.782 Y131.901 E61.66637
G10
G0 F4500 X98.058 Y131.917
G0 X98.089 Y131.043
G0 X90.813 Y131.043
G0 X90.713 Y123.466
G11
G0 X90.993 Y123.466
G1 F1800 X90.994 Y140.496 E63.45043
G1 X113.024 Y140.496 E65.75829
G1 X113.024 Y127.524 E67.11724
G1 X113.024 Y123.467 E67.54225
G1 X90.993 Y123.466 E69.85022
G0 F4500 X90.713 Y123.466
G0 X112.353 Y123.187
G0 X112.352 Y123.666
G1 F1800 X112.823 Y124.137 E69.92
G0 F4500 X112.823 Y124.703
G1 F1800 X111.787 Y123.666 E70.07356
G0 F4500 X111.221 Y123.666
G1 F1800 X112.823 Y125.268 E70.3109
G0 F4500 X112.823 Y125.834
G1 F1800 X110.655 Y123.666 E70.6321
G0 F4500 X110.09 Y123.666
G1 F1800 X112.823 Y126.4 E71.03707
G0 F4500 X112.823 Y126.965
G1 F1800 X109.524 Y123.666 E71.52583
G0 F4500 X108.958 Y123.666
G1 F1800 X112.823 Y127.531 E72.09844
G0 F4500 X112.823 Y128.097
G1 F1800 X108.393 Y123.666 E72.75483
G0 F4500 X107.827 Y123.666
G1 F1800 X112.823 Y128.663 E73.49508
G0 F4500 X112.823 Y129.228
G1 F1800 X107.261 Y123.666 E74.31911
G0 F4500 X106.696 Y123.666
G1 F1800 X112.823 Y129.794 E75.22691
G0 F4500 X112.823 Y130.36
G1 F1800 X106.13 Y123.666 E76.21858
G0 F4500 X105.564 Y123.666
G1 F1800 X112.823 Y130.925 E77.29402
G0 F4500 X112.823 Y131.491
G1 F1800 X104.998 Y123.666 E78.45332
G0 F4500 X104.433 Y123.666
G1 F1800 X112.823 Y132.057 E79.69639
G0 F4500 X112.823 Y132.622
G1 F1800 X103.867 Y123.666 E81.02325
G0 F4500 X103.301 Y123.666
G1 F1800 X112.823 Y133.188 E82.43397
G0 F4500 X112.823 Y133.754
G1 F1800 X102.736 Y123.666 E83.92846
G0 F4500 X102.17 Y123.666
G1 F1800 X112.823 Y134.319 E85.50673
G0 F4500 X112.823 Y134.885
G1 F1800 X101.604 Y123.665 E87.16894
G0 F4500 X101.038 Y123.665
G1 F1800 X112.823 Y135.451 E88.91499
G0 F4500 X112.823 Y136.016
G1 F1800 X100.472 Y123.665 E90.74483
G0 F4500 X99.907 Y123.665
G1 F1800 X105 Y128.759 E91.49945
G1 X105.07 Y128.829
G0 F4500 X104.755 Y129.144
G0 X103.342 Y128.283
G0 X103.523 Y127.847
G1 F1800 X99.341 Y123.665 E92.11902
G0 F4500 X98.775 Y123.665
G1 F1800 X102.767 Y127.657 E92.71045
G0 F4500 X102.097 Y127.552
G1 F1800 X98.21 Y123.665 E93.28632
G0 F4500 X97.644 Y123.665
G1 F1800 X101.585 Y127.606 E93.87019
G0 F4500 X101.072 Y127.659
G1 F1800 X97.078 Y123.665 E94.46192
G0 F4500 X96.513 Y123.665
G1 F1800 X100.646 Y127.798 E95.07423
G0 F4500 X100.235 Y127.953
G1 F1800 X95.947 Y123.665 E95.70951
G0 F4500 X95.381 Y123.665
G1 F1800 X99.847 Y128.131 E96.37116
G0 F4500 X99.516 Y128.366
G1 F1800 X94.815 Y123.665 E97.06763
G0 F4500 X94.25 Y123.665
G1 F1800 X99.186 Y128.602 E97.79899
G0 F4500 X98.887 Y128.868
G1 F1800 X93.684 Y123.665 E98.56983
G0 F4500 X93.118 Y123.665
G1 F1800 X98.63 Y129.177 E99.38645
G0 F4500 X98.374 Y129.486
G1 F1800 X92.553 Y123.665 E100.24885
G0 F4500 X91.987 Y123.665
G1 F1800 X98.162 Y129.841 E101.16377
G0 F4500 X97.985 Y130.229
G1 F1800 X91.421 Y123.665 E102.13624
G0 F4500 X91.193 Y124.003
G1 F1800 X97.807 Y130.616 E103.11605
G0 F4500 X97.709 Y131.084
G1 F1800 X91.193 Y124.568 E104.08142
G0 F4500 X91.193 Y125.134
G1 F1800 X97.627 Y131.568 E105.03463
G0 F4500 X97.613 Y132.12
G1 F1800 X91.193 Y125.7 E105.98578
G0 F4500 X91.193 Y126.265
G1 F1800 X97.672 Y132.745 E106.94573
G1 X97.742 Y132.815
G0 F4500 X97.91 Y133.548
G1 F1800 X91.193 Y126.831 E107.94088
G0 F4500 X91.193 Y127.397
G1 F1800 X98.702 Y134.906 E109.05336
G1 X98.772 Y134.976
G0 F4500 X99.14 Y134.692
G0 X100.552 Y135.494
G0 X101.99 Y135.784
G0 X102.943 Y135.673
G0 X103.96 Y135.251
G0 X104.712 Y134.657
G0 X105.374 Y133.775
G0 X105.812 Y132
G0 X105.701 Y131.048
G0 X104.98 Y129.404
G0 X105.356 Y129.115
G1 F1800 X112.823 Y136.582 E110.15962
G0 F4500 X112.823 Y137.148
G1 F1800 X106.121 Y130.446 E111.15254
G1 X106.051 Y130.376
G0 F4500 X106.346 Y131.236
G1 F1800 X112.823 Y137.713 E112.11213
G0 F4500 X112.823 Y138.279
G1 F1800 X106.405 Y131.861 E113.06297
G0 F4500 X106.387 Y132.409
G1 F1800 X112.823 Y138.845 E114.01648
G0 F4500 X112.823 Y139.411
G1 F1800 X106.305 Y132.892 E114.98222
G0 F4500 X106.204 Y133.357
G1 F1800 X112.823 Y139.976 E115.96284
G0 F4500 X112.576 Y140.294
G1 F1800 X106.03 Y133.749 E116.93258
G0 F4500 X105.856 Y134.14
G1 F1800 X112.01 Y140.294 E117.84431
G0 F4500 X111.444 Y140.294
G1 F1800 X105.633 Y134.483 E118.70523
G0 F4500 X105.377 Y134.792
G1 F1800 X110.879 Y140.294 E119.52037
G0 F4500 X110.313 Y140.294
G1 F1800 X105.12 Y135.101 E120.28973
G0 F4500 X104.819 Y135.366
G1 F1800 X109.747 Y140.294 E121.01983
G0 F4500 X109.182 Y140.294
G1 F1800 X104.489 Y135.601 E121.71511
G0 F4500 X104.158 Y135.837
G1 F1800 X108.616 Y140.294 E122.3755
G0 F4500 X108.05 Y140.294
G1 F1800 X103.765 Y136.009 E123.01034
G0 F4500 X103.352 Y136.162
G1 F1800 X107.485 Y140.294 E123.62258
G0 F4500 X106.919 Y140.294
G1 F1800 X102.926 Y136.301 E124.21415
G0 F4500 X102.409 Y136.35
G1 F1800 X106.353 Y140.294 E124.79847
G0 F4500 X105.788 Y140.294
G1 F1800 X101.893 Y136.4 E125.37545
G0 F4500 X101.225 Y136.298
G1 F1800 X105.222 Y140.294 E125.96754
G0 F4500 X104.656 Y140.294
G1 F1800 X100.457 Y136.095 E126.58964
G1 X100.387 Y136.025
G0 F4500 X100.553 Y135.627
G0 X99.228 Y134.782
G0 X98.904 Y135.108
G1 F1800 X104.091 Y140.294 E127.35803
G0 F4500 X103.525 Y140.294
G1 F1800 X91.193 Y127.962 E129.18506
G0 F4500 X91.193 Y128.528
G1 F1800 X102.959 Y140.294 E130.92823
G0 F4500 X102.394 Y140.294
G1 F1800 X91.193 Y129.094 E132.58761
G0 F4500 X91.193 Y129.66
G1 F1800 X101.828 Y140.294 E134.16315
G0 F4500 X101.262 Y140.294
G1 F1800 X91.193 Y130.225 E135.6549
G0 F4500 X91.193 Y130.791
G1 F1800 X100.696 Y140.294 E137.0628
G0 F4500 X100.131 Y140.294
G1 F1800 X91.193 Y131.357 E138.38691
G0 F4500 X91.193 Y131.922
G1 F1800 X99.565 Y140.294 E139.62725
G0 F4500 X98.999 Y140.294
G1 F1800 X91.193 Y132.488 E140.78373
G0 F4500 X91.193 Y133.054
G1 F1800 X98.434 Y140.294 E141.85644
G0 F4500 X97.868 Y140.294
G1 F1800 X91.193 Y133.619 E142.84536
G0 F4500 X91.193 Y134.185
G1 F1800 X97.302 Y140.294 E143.75042
G0 F4500 X96.737 Y140.294
G1 F1800 X91.193 Y134.751 E144.57171
G0 F4500 X91.193 Y135.316
G1 F1800 X96.171 Y140.294 E145.30922
G0 F4500 X95.605 Y140.294
G1 F1800 X91.193 Y135.882 E145.96287
G0 F4500 X91.193 Y136.448
G1 F1800 X95.04 Y140.294 E146.53274
G0 F4500 X94.474 Y140.294
G1 F1800 X91.193 Y137.013 E147.01883
G0 F4500 X91.193 Y137.579
G1 F1800 X93.908 Y140.294 E147.42106
G0 F4500 X93.343 Y140.294
G1 F1800 X91.193 Y138.145 E147.73952
G0 F4500 X91.193 Y138.711
G1 F1800 X92.777 Y140.294 E147.97412
G0 F4500 X92.211 Y140.294
G1 F1800 X91.193 Y139.276 E148.12494
G0 F4500 X91.193 Y139.842
G1 F1800 X91.645 Y140.294 E148.1919
G10
;MESH:NONMESH
G0 F600 X91.645 Y140.294 Z0.32
G0 F4500 X91.645 Y140.776
G0 X100 Y140.676
G0 X100 Y133.356
;TIME_ELAPSED:57.101933
;LAYER:1
M106 S127.5
;TYPE:SUPPORT
G11
G1 F2100 X100 Y130.56 E148.24782
G1 X99.853 Y130.56 E148.25076
G1 X99.597 Y131.041 E148.26166
G1 X99.444 Y131.609 E148.27343
G1 X99.446 Y132.367 E148.28859
G1 X99.625 Y132.982 E148.3014
G1 X100.414 Y133.77 E148.3237
G1 X100.556 Y134.121 E148.33127
G1 X101 Y134.364 E148.34139
G1 X101.625 Y134.54 E148.35438
G1 X102.347 Y134.548 E148.36882
G1 X102.926 Y134.392 E148.38081
G1 X102.926 Y133.776 E148.39313
G1 X103.301 Y133.401 E148.40374
G1 X104.169 Y133.401 E148.4211
G1 X104.392 Y132.987 E148.43051
