;FLAVOR:UltiGCode
;TIME:6152
;MATERIAL:5643
;MATERIAL2:0
;NOZZLE_DIAMETER:0.4
;MINX:23.816
;MINY:67.309
;MINZ:0.27
;MAXX:199.183
;MAXY:155.691
;MAXZ:10.97
;Generated with Cura_SteamEngine 5.0.0
M82 ;absolute extrusion mode
G0 F3000 Y50 ;avoid prime blob
G92 E0
G92 E0
G10
;LAYER_COUNT:108
;LAYER:0
M107
G0 F4320 X31.409 Y68.472 Z0.27
G0 X24.384 Y76.452
;TYPE:SKIRT
G11
G1 F1800 X24.636 Y75.721 E0.08351
G1 X25.127 Y74.557 E0.21995
G1 X25.486 Y73.886 E0.30213
G1 X26.154 Y72.813 E0.43864
G1 X26.673 Y72.138 E0.5306
G1 X27.448 Y71.246 E0.65822
G1 X28.032 Y70.69 E0.7453
G1 X28.944 Y69.922 E0.87407
G1 X29.53 Y69.512 E0.95131
G1 X30.657 Y68.831 E1.09352
G1 X31.409 Y68.472 E1.18352
G1 X32.518 Y68.024 E1.31269
G1 X33.26 Y67.801 E1.39637
G1 X34.465 Y67.52 E1.53
G1 X35.339 Y67.408 E1.62516
G1 X36.654 Y67.321 E1.7675
G1 X37.197 Y67.309 E1.82615
G1 X40.448 Y67.31 E2.17726
G1 X41.125 Y67.32 E2.25039
G1 X41.629 Y67.368 E2.30506
G1 X42.118 Y67.494 E2.3596
G1 X42.582 Y67.695 E2.41421
G1 X42.833 Y67.844 E2.44574
G1 X43.852 Y68.512 E2.57733
G1 X46.182 Y69.993 E2.8755
G1 X48.499 Y71.375 E3.16687
G1 X50.919 Y72.727 E3.46625
G1 X53.346 Y73.994 E3.76193
G1 X56.807 Y75.655 E4.17654
G1 X90.22 Y90.877 E8.14197
G1 X92.722 Y91.974 E8.43702
G1 X95.295 Y93.017 E8.73687
G1 X97.807 Y93.954 E9.02642
G1 X100.44 Y94.851 E9.32684
G1 X103.056 Y95.661 E9.6226
G1 X105.665 Y96.389 E9.91513
G1 X108.374 Y97.061 E10.21657
G1 X111.02 Y97.639 E10.50908
G1 X113.684 Y98.144 E10.80192
G1 X116.418 Y98.582 E11.10095
G1 X119.14 Y98.939 E11.39745
G1 X121.861 Y99.218 E11.69286
G1 X123.247 Y99.331 E11.84304
G1 X123.746 Y99.411 E11.89762
G1 X124.226 Y99.57 E11.95223
G1 X124.676 Y99.802 E12.00691
G1 X125.203 Y100.212 E12.07902
G1 X127.444 Y102.363 E12.4145
G1 X129.497 Y104.221 E12.71354
G1 X131.554 Y105.978 E13.00571
G1 X133.7 Y107.71 E13.30354
G1 X135.863 Y109.354 E13.59696
G1 X138.121 Y110.975 E13.89716
G1 X140.346 Y112.477 E14.18709
G1 X142.69 Y113.965 E14.48694
G1 X145.033 Y115.361 E14.7815
G1 X147.428 Y116.698 E15.07773
G1 X149.856 Y117.963 E15.37341
G1 X153.265 Y119.598 E15.78174
G1 X186.999 Y134.966 E19.78526
G1 X189.501 Y136.063 E20.08031
G1 X192.043 Y137.093 E20.37652
G1 X194.633 Y138.058 E20.67503
G1 X197.011 Y138.877 E20.94666
G1 X197.474 Y139.079 E21.00121
G1 X197.9 Y139.352 E21.05586
G1 X198.278 Y139.688 E21.11048
G1 X198.598 Y140.079 E21.16505
G1 X198.853 Y140.516 E21.21969
G1 X199.035 Y140.987 E21.27422
G1 X199.141 Y141.482 E21.3289
G1 X199.183 Y142.681 E21.45847
G1 X199.174 Y142.973 E21.49002
G1 X199.085 Y144.149 E21.61739
G1 X199.02 Y144.783 E21.68622
G1 X198.697 Y146.193 E21.84244
G1 X198.486 Y146.95 E21.92732
G1 X197.914 Y148.309 E22.08656
G1 X197.576 Y149.011 E22.17071
G1 X197.338 Y149.424 E22.22219
G1 X196.694 Y150.366 E22.34543
G1 X196.336 Y150.864 E22.41166
G1 X196.031 Y151.228 E22.46295
G1 X195.241 Y152.038 E22.58515
G1 X194.776 Y152.49 E22.65519
G1 X194.417 Y152.791 E22.70578
G1 X193.504 Y153.447 E22.8272
G1 X192.955 Y153.819 E22.89882
G1 X191.698 Y154.465 E23.05146
G1 X190.939 Y154.808 E23.14141
G1 X190.5 Y154.967 E23.19184
G1 X189.44 Y155.266 E23.31078
G1 X188.809 Y155.426 E23.38109
G1 X187.421 Y155.603 E23.53221
G1 X186.466 Y155.673 E23.63562
G1 X185.561 Y155.691 E23.73338
G1 X182.552 Y155.69 E24.05835
G1 X181.875 Y155.68 E24.13148
G1 X181.371 Y155.632 E24.18616
G1 X180.882 Y155.506 E24.24069
G1 X180.418 Y155.305 E24.2953
G1 X180.167 Y155.156 E24.32683
G1 X179.138 Y154.481 E24.45974
G1 X176.818 Y153.007 E24.75659
G1 X174.501 Y151.625 E25.04796
G1 X172.081 Y150.273 E25.34734
G1 X169.654 Y149.006 E25.64303
G1 X166.193 Y147.345 E26.05763
G1 X132.771 Y132.119 E30.02413
G1 X130.278 Y131.026 E30.31812
G1 X127.705 Y129.983 E30.61796
G1 X125.193 Y129.046 E30.90752
G1 X122.56 Y128.149 E31.20793
G1 X119.944 Y127.339 E31.50369
G1 X117.335 Y126.611 E31.79623
G1 X114.626 Y125.939 E32.09767
G1 X111.98 Y125.361 E32.39017
G1 X109.316 Y124.856 E32.68301
G1 X106.582 Y124.418 E32.98205
G1 X103.86 Y124.061 E33.27854
G1 X101.139 Y123.782 E33.57395
G1 X99.754 Y123.669 E33.72403
G1 X99.255 Y123.589 E33.77861
G1 X98.774 Y123.43 E33.83332
G1 X98.325 Y123.198 E33.8879
G1 X97.798 Y122.788 E33.96001
G1 X95.557 Y120.637 E34.29549
G1 X93.503 Y118.778 E34.59469
G1 X91.446 Y117.021 E34.88685
G1 X89.305 Y115.293 E35.184
G1 X87.116 Y113.629 E35.48096
G1 X84.896 Y112.036 E35.77606
G1 X82.654 Y110.523 E36.06817
G1 X80.325 Y109.045 E36.36608
G1 X77.964 Y107.637 E36.66297
G1 X75.561 Y106.297 E36.96012
G1 X73.144 Y105.036 E37.25454
G1 X69.735 Y103.402 E37.66282
G1 X36.034 Y88.049 E41.66243
G1 X33.462 Y86.921 E41.96574
G1 X30.925 Y85.894 E42.26134
G1 X28.391 Y84.949 E42.55342
G1 X25.99 Y84.123 E42.82765
G1 X25.526 Y83.921 E42.8823
G1 X25.1 Y83.649 E42.93689
G1 X24.722 Y83.313 E42.99151
G1 X24.402 Y82.921 E43.04616
G1 X24.148 Y82.485 E43.10066
G1 X23.965 Y82.013 E43.15533
G1 X23.859 Y81.519 E43.20989
G1 X23.816 Y80.45 E43.32544
G1 X23.831 Y79.848 E43.39048
G1 X23.886 Y79.096 E43.47191
G1 X23.952 Y78.389 E43.5486
G1 X24.076 Y77.695 E43.62474
G1 X24.384 Y76.452 E43.76304
G10
;MESH:phone stand lite V2.STL
G0 F4320 X26.8 Y77.074
G0 X27.895 Y77.337
G0 X29.701 Y74.689
G0 X30.383 Y73.889
G0 X31.449 Y72.98
G0 X32.646 Y72.247
G0 X33.93 Y71.71
G0 X35.3 Y71.382
G0 X36.987 Y71.27
G0 X40.309 Y71.282
G0 X40.83 Y72.562
G11
G0 X41 Y72.19
;TYPE:WALL-OUTER
G1 F1800 X40.883 Y72.008 E43.78641
G1 X40.88 Y70.71 E43.92659
G1 X36.754 Y70.709 E44.3722
G1 X35.213 Y70.827 E44.53911
G1 X33.756 Y71.176 E44.70092
G1 X32.39 Y71.746 E44.86078
G1 X31.118 Y72.525 E45.02187
G1 X29.985 Y73.491 E45.18267
G1 X29.024 Y74.619 E45.34271
G1 X28.246 Y75.889 E45.50356
G1 X27.681 Y77.256 E45.66331
G1 X27.321 Y78.738 E45.82802
G1 X27.211 Y80.185 E45.98475
G1 X27.209 Y80.901 E46.06208
G1 X28.5 Y80.901 E46.20151
G1 X29.477 Y81.325 E46.31653
G1 X32.133 Y82.536 E46.63179
G1 X100.093 Y113.495 E54.69717
G1 X100.209 Y113.651 E54.71816
G1 X100.21 Y120.29 E55.43518
G1 X114.98 Y120.29 E57.03034
G1 X115.854 Y120.677 E57.13357
G1 X182 Y150.81 E64.98368
G1 X182.099 Y150.908 E64.99873
G1 X182.117 Y150.992 E65.00801
G1 X182.12 Y152.29 E65.14819
G1 X186.244 Y152.291 E65.59358
G1 X187.949 Y152.146 E65.77839
G1 X189.545 Y151.719 E65.95682
G1 X191.04 Y151.02 E66.13505
G1 X192.392 Y150.076 E66.31314
G1 X193.579 Y148.894 E66.49406
G1 X194.519 Y147.54 E66.67207
G1 X195.219 Y146.043 E66.85055
G1 X195.595 Y144.634 E67.00805
G1 X195.733 Y143.446 E67.13722
G1 X195.792 Y142.789 E67.20846
G1 X195.792 Y142.761 E67.21148
G1 X195.791 Y142.099 E67.28298
G1 X194.5 Y142.1 E67.4224
G1 X194.385 Y142.067 E67.43533
G1 X122.907 Y109.505 E75.91824
G1 X122.791 Y109.349 E75.93923
G1 X122.79 Y102.71 E76.65624
G1 X108.02 Y102.71 E78.2514
G1 X107.146 Y102.323 E78.35463
G1 X41 Y72.19 E86.20475
G0 F4320 X40.892 Y72.022
G0 X40.834 Y72.554
;TYPE:WALL-INNER
G1 F1800 X40.625 Y72.395 E86.23311
G1 X40.483 Y72.009 E86.27753
G1 X40.481 Y71.11 E86.37462
G1 X36.769 Y71.109 E86.77552
G1 X35.275 Y71.223 E86.93734
G1 X33.88 Y71.558 E87.09228
G1 X32.572 Y72.103 E87.24532
G1 X31.354 Y72.85 E87.39963
G1 X30.269 Y73.775 E87.55362
G1 X29.349 Y74.855 E87.70684
G1 X28.604 Y76.071 E87.86085
G1 X28.063 Y77.38 E88.01382
G1 X27.717 Y78.801 E88.17178
G1 X27.608 Y80.235 E88.3271
G1 X27.609 Y80.501 E88.35582
G1 X28.5 Y80.501 E88.45205
G1 X28.749 Y80.554 E88.47955
G1 X100.259 Y113.131 E96.96627
G1 X100.532 Y113.381 E97.00625
G1 X100.61 Y113.678 E97.03941
G1 X100.61 Y119.89 E97.71031
G1 X114.961 Y119.89 E99.26022
G1 X115.21 Y119.944 E99.28774
G1 X182.166 Y150.446 E107.23398
G1 X182.377 Y150.606 E107.26258
G1 X182.517 Y150.991 E107.30682
G1 X182.519 Y151.89 E107.40391
G1 X186.227 Y151.891 E107.80438
G1 X187.88 Y151.75 E107.98355
G1 X189.407 Y151.342 E108.15425
G1 X190.84 Y150.672 E108.3251
G1 X192.134 Y149.768 E108.49557
G1 X193.271 Y148.636 E108.66885
G1 X194.171 Y147.34 E108.83926
G1 X194.842 Y145.905 E109.01035
G1 X195.25 Y144.379 E109.18094
G1 X195.392 Y142.761 E109.35636
G1 X195.391 Y142.499 E109.38466
G1 X194.5 Y142.5 E109.48088
G1 X194.219 Y142.431 E109.51213
G1 X122.741 Y109.869 E117.99504
G1 X122.468 Y109.619 E118.03502
G1 X122.39 Y109.322 E118.06818
G1 X122.39 Y103.11 E118.73908
G1 X108.039 Y103.11 E120.28899
G1 X107.79 Y103.056 E120.31651
G1 X40.834 Y72.554 E128.26275
G0 F4320 X40.83 Y72.562
G0 X107.972 Y103.059
G0 X122.218 Y103.282
G0 X122.292 Y109.337
G0 X122.011 Y109.352
;TYPE:SKIN
G1 F1800 X122.01 Y103.491 E128.87675
G1 X108.039 Y103.49 E130.34035
G1 X107.404 Y103.3 E130.40979
G1 X40.666 Y72.894 E138.09269
G1 X40.227 Y72.474 E138.15634
G1 X40.103 Y72.006 E138.20706
G1 X40.101 Y71.49 E138.26112
G1 X36.785 Y71.49 E138.6085
G1 X35.331 Y71.6 E138.76126
G1 X33.987 Y71.921 E138.90601
G1 X32.744 Y72.445 E139.04733
G1 X31.576 Y73.16 E139.19079
G1 X30.539 Y74.044 E139.33355
G1 X29.658 Y75.079 E139.47593
G1 X28.946 Y76.242 E139.61879
G1 X28.425 Y77.501 E139.76153
G1 X28.095 Y78.857 E139.90773
G1 X28.037 Y79.619 E139.98779
G1 X28.004 Y80.132 E140.04164
G1 X28.798 Y80.175 E140.12494
G1 X28.87 Y80.192 E140.13269
G1 X100.397 Y112.777 E148.36678
G1 X100.737 Y113.053 E148.41266
G1 X100.882 Y113.241 E148.43753
G1 X100.99 Y113.676 E148.48449
G1 X100.99 Y119.509 E149.09555
G1 X114.981 Y119.51 E150.56125
G1 X115.608 Y119.708 E150.63013
G1 X182.333 Y150.105 E158.31141
G1 X182.773 Y150.527 E158.37527
G1 X182.897 Y150.994 E158.42589
G1 X182.899 Y151.51 E158.47995
G1 X186.209 Y151.511 E158.82671
G1 X187.816 Y151.374 E158.99567
G1 X189.276 Y150.985 E159.15395
G1 X190.645 Y150.342 E159.3124
G1 X191.88 Y149.481 E159.47012
G1 X192.985 Y148.385 E159.63316
G1 X193.84 Y147.147 E159.79078
G1 X194.485 Y145.772 E159.94988
G1 X194.841 Y144.438 E160.09452
G1 X194.913 Y143.863 E160.15523
G1 X194.955 Y143.37 E160.20706
G1 X194.993 Y142.88 E160.25855
G1 X194.46 Y142.876 E160.31439
G1 X194.059 Y142.777 E160.35766
G1 X122.602 Y110.222 E168.58377
G1 X122.164 Y109.843 E168.64445
G1 X122.011 Y109.352 E168.69833
G0 F4320 X122.292 Y109.337
G0 X194.558 Y142.599
G0 X194.558 Y143.08
G1 F1800 X194.759 Y143.282 E168.72818
G0 F4320 X194.716 Y143.805
G1 F1800 X193.782 Y142.87 E168.86663
G1 X193.712 Y142.8
G0 F4320 X192.743 Y142.397
G1 F1800 X194.666 Y144.32 E169.15153
G0 F4320 X194.546 Y144.766
G1 F1800 X191.704 Y141.924 E169.57258
G1 X191.634 Y141.854
G0 F4320 X190.665 Y141.451
G1 F1800 X194.427 Y145.212 E170.12986
G0 F4320 X194.307 Y145.658
G1 F1800 X189.626 Y140.977 E170.82336
G1 X189.556 Y140.907
G0 F4320 X188.587 Y140.504
G1 F1800 X194.133 Y146.05 E171.64502
G0 F4320 X193.952 Y146.434
G1 F1800 X187.548 Y140.03 E172.59379
G1 X187.478 Y139.96
G0 F4320 X186.509 Y139.557
G1 F1800 X193.772 Y146.82 E173.66983
G0 F4320 X193.57 Y147.184
G1 F1800 X185.47 Y139.084 E174.86987
G1 X185.4 Y139.014
G0 F4320 X184.431 Y138.61
G1 F1800 X193.339 Y147.519 E176.18969
G0 F4320 X193.108 Y147.853
G1 F1800 X183.392 Y138.137 E177.62914
G1 X183.322 Y138.067
G0 F4320 X183.507 Y137.662
G0 X182.551 Y137.226
G0 X182.352 Y137.663
G1 F1800 X192.877 Y148.188 E179.18845
G0 F4320 X192.603 Y148.479
G1 F1800 X181.314 Y137.19 E180.86095
G1 X181.244 Y137.12
G0 F4320 X181.429 Y136.715
G0 X180.473 Y136.28
G0 X180.274 Y136.716
G1 F1800 X192.319 Y148.761 E182.64545
G0 F4320 X192.035 Y149.043
G1 F1800 X179.236 Y136.243 E184.54174
G1 X179.166 Y136.173
G0 F4320 X178.197 Y135.77
G1 F1800 X191.751 Y149.325 E186.54988
G0 F4320 X191.418 Y149.558
G1 F1800 X177.157 Y135.297 E188.66269
G1 X177.087 Y135.227
G0 F4320 X176.119 Y134.824
G1 F1800 X191.085 Y149.789 E190.87987
G0 F4320 X190.751 Y150.022
G1 F1800 X175.079 Y134.35 E193.20173
G1 X175.009 Y134.28
G0 F4320 X174.04 Y133.877
G1 F1800 X190.399 Y150.235 E195.62529
G0 F4320 X190.014 Y150.416
G1 F1800 X173.001 Y133.403 E198.14581
G1 X172.931 Y133.333
G0 F4320 X171.962 Y132.93
G1 F1800 X189.629 Y150.596 E200.76316
G0 F4320 X189.244 Y150.777
G1 F1800 X170.923 Y132.457 E203.4774
G1 X170.853 Y132.387
G0 F4320 X169.884 Y131.983
G1 F1800 X188.803 Y150.902 E206.2803
G0 F4320 X188.356 Y151.021
G1 F1800 X168.845 Y131.51 E209.17092
G1 X168.775 Y131.44
G0 F4320 X167.806 Y131.036
G1 F1800 X187.91 Y151.141 E212.14946
G0 F4320 X187.41 Y151.207
G1 F1800 X166.767 Y130.563 E215.20786
G1 X166.697 Y130.493
G0 F4320 X165.728 Y130.089
G1 F1800 X186.89 Y151.252 E218.34314
G0 F4320 X186.369 Y151.296
G1 F1800 X164.689 Y129.616 E221.5551
G1 X164.619 Y129.546
G0 F4320 X163.65 Y129.143
G1 F1800 X185.817 Y151.31 E224.83921
G0 F4320 X185.252 Y151.31
G1 F1800 X162.611 Y128.67 E228.19347
G1 X162.541 Y128.6
G0 F4320 X161.572 Y128.197
G1 F1800 X184.686 Y151.31 E231.6178
G0 F4320 X184.119 Y151.31
G1 F1800 X160.533 Y127.723 E235.11221
G1 X160.463 Y127.653
G0 F4320 X160.648 Y127.248
G0 X194.504 Y142.661
G0 X195.054 Y144.489
G0 X194.579 Y146.088
G0 X194.031 Y147.259
G0 X193.147 Y148.532
G0 X192.03 Y149.644
G0 X190.759 Y150.532
G0 X189.352 Y151.19
G0 X187.851 Y151.591
G0 X185.987 Y151.73
G0 X182.691 Y151.718
G0 X182.593 Y150.892
G0 X183.038 Y150.794
G1 F1800 X183.554 Y151.31 E235.18866
G0 F4320 X183.554 Y151.79
G0 X182.691 Y151.718
G0 X182.457 Y150.749
G0 X181.759 Y150.15
G0 X181.958 Y149.714
G1 F1800 X159.494 Y127.25 E238.51677
G1 X159.424 Y127.18
G0 F4320 X159.609 Y126.775
G0 X158.653 Y126.339
G0 X158.454 Y126.776
G1 F1800 X180.919 Y149.241 E241.84503
G1 X180.989 Y149.311
G0 F4320 X180.805 Y149.715
G0 X179.681 Y149.204
G0 X179.88 Y148.768
G1 F1800 X157.416 Y126.303 E245.17321
G1 X157.346 Y126.233
G0 F4320 X156.377 Y125.83
G1 F1800 X178.841 Y148.294 E248.50132
G1 X178.911 Y148.364
G0 F4320 X178.726 Y148.769
G0 X177.603 Y148.257
G0 X177.802 Y147.821
G1 F1800 X155.337 Y125.356 E251.82958
G1 X155.267 Y125.286
G0 F4320 X154.299 Y124.883
G1 F1800 X176.763 Y147.348 E255.15776
G1 X176.833 Y147.418
G0 F4320 X176.649 Y147.822
G0 X175.525 Y147.31
G0 X175.724 Y146.874
G1 F1800 X153.259 Y124.409 E258.48602
G1 X153.189 Y124.339
G0 F4320 X152.22 Y123.936
G1 F1800 X174.685 Y146.401 E261.81428
G1 X174.755 Y146.471
G0 F4320 X174.57 Y146.875
G0 X173.448 Y146.364
G0 X173.647 Y145.928
G1 F1800 X151.182 Y123.463 E265.14253
G1 X151.112 Y123.393
G0 F4320 X151.297 Y122.988
G0 X150.341 Y122.553
G0 X150.142 Y122.989
G1 F1800 X172.607 Y145.454 E268.47079
G1 X172.677 Y145.524
G0 F4320 X172.492 Y145.929
G0 X171.369 Y145.417
G0 X171.568 Y144.981
G1 F1800 X149.104 Y122.516 E271.79897
G1 X149.034 Y122.446
G0 F4320 X149.219 Y122.041
G0 X148.263 Y121.606
G0 X148.064 Y122.043
G1 F1800 X170.53 Y144.508 E275.12731
G1 X170.6 Y144.578
G0 F4320 X170.415 Y144.983
G0 X169.291 Y144.47
G0 X169.49 Y144.034
G1 F1800 X147.025 Y121.57 E278.45549
G1 X146.955 Y121.5
G0 F4320 X145.986 Y121.096
G1 F1800 X168.451 Y143.561 E281.78375
G1 X168.521 Y143.631
G0 F4320 X168.336 Y144.035
G0 X167.214 Y143.524
G0 X167.413 Y143.088
G1 F1800 X144.947 Y120.623 E285.11208
G1 X144.877 Y120.553
G0 F4320 X143.908 Y120.15
G1 F1800 X166.373 Y142.614 E288.44026
G1 X166.443 Y142.684
G0 F4320 X166.258 Y143.089
G0 X165.136 Y142.577
G0 X165.335 Y142.141
G1 F1800 X142.869 Y119.676 E291.76859
G1 X142.799 Y119.606
G0 F4320 X141.83 Y119.203
G1 F1800 X164.296 Y141.668 E295.09692
G1 X164.366 Y141.738
G0 F4320 X164.181 Y142.143
G0 X163.057 Y141.631
G0 X163.256 Y141.195
G1 F1800 X140.791 Y118.729 E298.42526
G1 X140.721 Y118.659
G0 F4320 X139.752 Y118.256
G1 F1800 X162.218 Y140.722 E301.75366
G1 X162.288 Y140.792
G0 F4320 X162.104 Y141.196
G0 X160.98 Y140.684
G0 X161.179 Y140.248
G1 F1800 X138.713 Y117.782 E305.08207
G1 X138.643 Y117.712
G0 F4320 X137.674 Y117.309
G1 F1800 X160.139 Y139.775 E308.4104
G1 X160.209 Y139.845
G0 F4320 X160.025 Y140.249
G0 X158.902 Y139.738
G0 X159.101 Y139.302
G1 F1800 X136.635 Y116.836 E311.7388
G1 X136.565 Y116.766
G0 F4320 X135.596 Y116.362
