;FLAVOR:UltiGCode
;TIME:10037
;MATERIAL:5430
;MATERIAL2:0
;NOZZLE_DIAMETER:0.4
;MINX:23.821
;MINY:67.306
;MINZ:0.27
;MAXX:199.171
;MAXY:155.696
;MAXZ:11.02
;Generated with Cura_SteamEngine 5.0.0
M82 ;absolute extrusion mode
G0 F3000 Y50 ;avoid prime blob
G92 E0
G92 E0
G10
;LAYER_COUNT:216
;LAYER:0
M107
G0 F4500 X31.377 Y68.5 Z0.27
G0 X25.122 Y74.617
;TYPE:SKIRT
G11
G1 F1800 X25.467 Y73.913 E0.08467
G1 X26.256 Y72.706 E0.24041
G1 X26.721 Y72.067 E0.32576
G1 X27.708 Y71.014 E0.48163
G1 X28.278 Y70.465 E0.5671
G1 X29.383 Y69.632 E0.71655
G1 X30.088 Y69.156 E0.80842
G1 X31.377 Y68.5 E0.96462
G1 X32.084 Y68.182 E1.04835
G1 X33.472 Y67.757 E1.20512
G1 X34.229 Y67.565 E1.28947
G1 X35.662 Y67.388 E1.44541
G1 X36.469 Y67.328 E1.5328
G1 X37.428 Y67.308 E1.6364
G1 X39.467 Y67.306 E1.85661
G1 X40.142 Y67.315 E1.92952
G1 X41.118 Y67.482 E2.03646
G1 X41.836 Y67.765 E2.11981
G1 X42.8 Y68.389 E2.24383
G1 X45.157 Y69.921 E2.54743
G1 X47.459 Y71.328 E2.83881
G1 X49.828 Y72.686 E3.13371
G1 X52.27 Y73.995 E3.43295
G1 X54.723 Y75.222 E3.72917
G1 X56.642 Y76.122 E3.95808
G1 X101.486 Y96.556 E9.28034
G1 X103.977 Y97.648 E9.57408
G1 X106.578 Y98.702 E9.87718
G1 X109.085 Y99.637 E10.16615
G1 X111.687 Y100.524 E10.46304
G1 X114.321 Y101.34 E10.76085
G1 X116.947 Y102.072 E11.05528
G1 X118.287 Y102.416 E11.20469
G1 X118.766 Y102.58 E11.25937
G1 X119.286 Y102.866 E11.32346
G1 X121.814 Y104.579 E11.65326
G1 X124.136 Y106.055 E11.95041
G1 X126.453 Y107.437 E12.24178
G1 X128.887 Y108.797 E12.54291
G1 X131.289 Y110.052 E12.8356
G1 X134.766 Y111.719 E13.25204
G1 X187.706 Y135.837 E19.53493
G1 X190.267 Y136.96 E19.83694
G1 X192.796 Y137.984 E20.13162
G1 X195.401 Y138.955 E20.43186
G1 X196.698 Y139.408 E20.58024
G1 X197.557 Y139.864 E20.68527
G1 X198.19 Y140.386 E20.77388
G1 X198.77 Y141.21 E20.88271
G1 X199.029 Y141.909 E20.96322
G1 X199.145 Y142.401 E21.01781
G1 X199.171 Y143.137 E21.09735
G1 X199.085 Y144.192 E21.21167
G1 X199.005 Y144.907 E21.28937
G1 X198.674 Y146.3 E21.444
G1 X198.454 Y147.059 E21.52935
G1 X197.882 Y148.386 E21.68541
G1 X197.534 Y149.096 E21.77081
G1 X196.733 Y150.317 E21.92852
G1 X196.292 Y150.926 E22.00972
G1 X195.264 Y152.021 E22.17193
G1 X194.731 Y152.534 E22.25183
G1 X193.549 Y153.421 E22.41143
G1 X192.921 Y153.845 E22.49326
G1 X191.625 Y154.504 E22.65029
G1 X190.915 Y154.822 E22.73431
G1 X189.522 Y155.249 E22.89166
G1 X188.778 Y155.437 E22.97454
G1 X187.266 Y155.622 E23.13905
G1 X186.503 Y155.678 E23.22168
G1 X185.55 Y155.696 E23.32462
G1 X183.531 Y155.695 E23.54267
G1 X182.945 Y155.687 E23.60597
G1 X182.251 Y155.609 E23.68139
G1 X181.76 Y155.487 E23.73603
G1 X181.047 Y155.16 E23.82075
G1 X180.242 Y154.651 E23.92361
G1 X179.061 Y153.858 E24.07724
G1 X176.748 Y152.397 E24.37271
G1 X174.401 Y151.007 E24.6673
G1 X172.003 Y149.676 E24.9635
G1 X169.568 Y148.414 E25.25971
G1 X166.347 Y146.874 E25.64529
G1 X121.524 Y126.454 E30.96485
G1 X118.956 Y125.328 E31.26769
G1 X116.434 Y124.305 E31.56162
G1 X113.894 Y123.358 E31.85438
G1 X111.283 Y122.468 E32.1523
G1 X108.655 Y121.655 E32.4494
G1 X106.048 Y120.928 E32.7417
G1 X104.715 Y120.586 E32.89032
G1 X104.236 Y120.422 E32.945
G1 X103.715 Y120.135 E33.00925
G1 X101.188 Y118.423 E33.3389
G1 X98.877 Y116.955 E33.63458
G1 X96.524 Y115.553 E33.9304
G1 X94.129 Y114.216 E34.22663
G1 X91.712 Y112.955 E34.52106
G1 X88.261 Y111.3 E34.93441
G1 X35.273 Y87.159 E41.22305
G1 X32.712 Y86.036 E41.52506
G1 X30.175 Y85.009 E41.82065
G1 X27.06 Y83.858 E42.17931
G1 X26.429 Y83.637 E42.25151
G1 X25.727 Y83.313 E42.33501
G1 X24.91 Y82.723 E42.44385
G1 X24.488 Y82.203 E42.51618
G1 X24.117 Y81.561 E42.59626
G1 X23.893 Y80.836 E42.67821
G1 X23.821 Y80.224 E42.74476
G1 X23.911 Y78.877 E42.89056
G1 X23.998 Y78.089 E42.97618
G1 X24.34 Y76.665 E43.13435
G1 X24.55 Y75.942 E43.21566
G1 X25.122 Y74.617 E43.37153
G10
;MESH:phone stand lite V3.STL
G0 F4500 X105.588 Y115.457
;TYPE:WALL-OUTER
G11
G1 F1800 X105.695 Y115.575 E43.38873
G1 X105.705 Y115.64 E43.39583
G1 X105.705 Y117.295 E43.57457
G1 X109.593 Y117.295 E43.99448
G1 X110.353 Y117.628 E44.08409
G1 X181.325 Y149.96 E52.50697
G1 X181.896 Y150.34 E52.58105
G1 X182.34 Y150.903 E52.65848
G1 X182.577 Y151.575 E52.73544
G1 X182.681 Y152.152 E52.79876
G1 X182.941 Y152.295 E52.83081
G1 X186.255 Y152.296 E53.18872
G1 X187.94 Y152.152 E53.37136
G1 X189.526 Y151.731 E53.54858
G1 X191.016 Y151.039 E53.72601
G1 X192.373 Y150.096 E53.90448
G1 X193.537 Y148.945 E54.08127
G1 X194.492 Y147.597 E54.25969
G1 X195.199 Y146.11 E54.43751
G1 X195.636 Y144.532 E54.61435
G1 X195.794 Y142.906 E54.79079
G1 X195.79 Y142.878 E54.79384
G1 X195.655 Y142.655 E54.82199
G1 X195.413 Y142.596 E54.8489
G1 X194.532 Y142.577 E54.94407
G1 X193.938 Y142.41 E55.01071
G1 X192.657 Y141.829 E55.16262
G1 X117.412 Y107.549 E64.09268
G1 X117.305 Y107.431 E64.10988
G1 X117.295 Y107.366 E64.11698
G1 X117.295 Y105.705 E64.29637
G1 X113.393 Y105.705 E64.71779
G1 X112.641 Y105.376 E64.80643
G1 X41.704 Y73.055 E73.22538
G1 X41.105 Y72.66 E73.30287
G1 X40.66 Y72.097 E73.38038
G1 X40.423 Y71.425 E73.45733
G1 X40.303 Y70.837 E73.52215
G1 X40.065 Y70.706 E73.55149
G1 X36.711 Y70.709 E73.91372
G1 X35.061 Y70.852 E74.09259
G1 X33.476 Y71.273 E74.2697
G1 X31.986 Y71.965 E74.44713
G1 X30.641 Y72.898 E74.62392
G1 X29.465 Y74.06 E74.80247
G1 X28.514 Y75.399 E74.97984
G1 X27.806 Y76.891 E75.1582
G1 X27.369 Y78.468 E75.33494
G1 X27.206 Y80.096 E75.51164
G1 X27.32 Y80.325 E75.53927
G1 X27.607 Y80.409 E75.57156
G1 X28.467 Y80.427 E75.66446
G1 X29.06 Y80.595 E75.73103
G1 X30.355 Y81.181 E75.88454
G1 X34.551 Y83.095 E76.38263
G1 X35.782 Y83.654 E76.52864
G1 X36.685 Y84.067 E76.63588
G1 X105.588 Y115.457 E84.81324
G0 F4500 X105.695 Y115.575
G0 X105.701 Y115.616
G0 X105.754 Y115.093
;TYPE:WALL-INNER
G1 F1800 X106.015 Y115.323 E84.85081
G1 X106.105 Y115.64 E84.8864
G1 X106.105 Y116.895 E85.02194
G1 X109.622 Y116.896 E85.40178
G1 X110.519 Y117.264 E85.50649
G1 X181.491 Y149.596 E93.92937
G1 X182.119 Y150.008 E94.01049
G1 X182.658 Y150.659 E94.10176
G1 X182.956 Y151.448 E94.19285
G1 X183.022 Y151.895 E94.24165
G1 X186.238 Y151.896 E94.58898
G1 X187.871 Y151.756 E94.76599
G1 X189.39 Y151.353 E94.93572
G1 X190.816 Y150.691 E95.10551
G1 X192.116 Y149.787 E95.27652
G1 X193.231 Y148.685 E95.44583
G1 X194.146 Y147.394 E95.61673
G1 X194.823 Y145.97 E95.78702
G1 X195.241 Y144.459 E95.95633
G1 X195.383 Y142.996 E96.11508
G1 X194.524 Y142.977 E96.20787
G1 X193.826 Y142.794 E96.28581
G1 X192.491 Y142.193 E96.44392
G1 X117.246 Y107.913 E105.37398
G1 X116.985 Y107.683 E105.41155
G1 X116.895 Y107.366 E105.44714
G1 X116.895 Y106.105 E105.58333
G1 X113.364 Y106.104 E105.96468
G1 X112.475 Y105.74 E106.06842
G1 X41.538 Y73.419 E114.48737
G1 X40.884 Y72.993 E114.57167
G1 X40.342 Y72.341 E114.66324
G1 X40.044 Y71.552 E114.75432
G1 X39.978 Y71.106 E114.80302
G1 X36.729 Y71.109 E115.15391
G1 X35.13 Y71.248 E115.32725
G1 X34.088 Y71.524 E115.44367
G1 X33.612 Y71.651 E115.49688
G1 X32.186 Y72.313 E115.66667
G1 X30.897 Y73.207 E115.83609
G1 X29.771 Y74.32 E116.00708
G1 X28.86 Y75.602 E116.17693
G1 X28.182 Y77.031 E116.34775
G1 X27.764 Y78.542 E116.51707
G1 X27.617 Y80.009 E116.6763
G1 X28.475 Y80.027 E116.76898
G1 X29.174 Y80.211 E116.84705
G1 X30.521 Y80.817 E117.00657
G1 X34.717 Y82.731 E117.50465
G1 X35.948 Y83.29 E117.65067
G1 X36.851 Y83.703 E117.75791
G1 X105.754 Y115.093 E125.93527
G10
G0 F4500 X106.485 Y115.636
;TYPE:SKIN
G11
G1 F1800 X106.485 Y116.515 E126.02735
G1 X109.623 Y116.515 E126.35609
G1 X110.165 Y116.684 E126.41556
G1 X181.649 Y149.249 E134.64469
G1 X182.523 Y149.87 E134.75701
G1 X183.089 Y150.667 E134.85941
G1 X183.335 Y151.515 E134.95191
G1 X186.219 Y151.516 E135.25404
G1 X187.808 Y151.38 E135.42111
G1 X189.258 Y150.996 E135.57825
G1 X190.623 Y150.36 E135.73601
G1 X191.863 Y149.5 E135.8941
G1 X192.947 Y148.432 E136.05351
G1 X193.817 Y147.198 E136.21168
G1 X194.467 Y145.834 E136.36997
G1 X194.865 Y144.392 E136.52668
G1 X194.894 Y144.086 E136.55888
G1 X194.965 Y143.358 E136.63551
G1 X194.235 Y143.306 E136.71218
G1 X193.614 Y143.121 E136.78006
G1 X192.333 Y142.539 E136.92746
G1 X117.078 Y108.253 E145.59083
G1 X116.663 Y107.884 E145.64901
G1 X116.515 Y107.37 E145.70504
G1 X116.515 Y106.486 E145.79765
G1 X113.362 Y106.485 E146.12796
G1 X113.02 Y106.4 E146.16488
G1 X41.361 Y73.756 E154.41411
G1 X40.479 Y73.131 E154.52736
G1 X39.913 Y72.339 E154.62934
G1 X39.665 Y71.487 E154.7223
G1 X36.747 Y71.489 E155.02799
G1 X35.194 Y71.624 E155.19129
G1 X33.744 Y72.008 E155.34843
G1 X32.379 Y72.644 E155.50619
G1 X31.139 Y73.504 E155.66428
G1 X30.065 Y74.564 E155.82236
G1 X29.19 Y75.799 E155.98092
G1 X28.538 Y77.167 E156.13968
G1 X28.14 Y78.609 E156.29639
G1 X28.035 Y79.647 E156.40568
G1 X28.769 Y79.699 E156.48277
G1 X29.386 Y79.884 E156.55025
G1 X30.673 Y80.47 E156.69839
G1 X37.007 Y83.354 E157.42749
G1 X105.892 Y114.739 E165.35759
G1 X106.309 Y115.086 E165.41443
G1 X106.485 Y115.636 E165.47492
G10
G0 F4500 X194.427 Y143.515
G11
G1 F1800 X194.719 Y143.807 E165.51818
G0 F4500 X194.669 Y144.323
G1 F1800 X193.703 Y143.357 E165.6613
G1 X193.633 Y143.287
G10
G0 F4500 X192.704 Y142.924
G11
G1 F1800 X194.551 Y144.771 E165.93494
G0 F4500 X194.429 Y145.214
G1 F1800 X191.666 Y142.451 E166.34428
G1 X191.596 Y142.381
G10
G0 F4500 X190.627 Y141.978
G11
G1 F1800 X194.307 Y145.658 E166.88949
G0 F4500 X194.139 Y146.056
G1 F1800 X189.588 Y141.504 E167.56381
G1 X189.518 Y141.434
G10
G0 F4500 X188.549 Y141.031
G11
G1 F1800 X193.957 Y146.439 E168.36502
G0 F4500 X193.774 Y146.822
G1 F1800 X187.51 Y140.558 E169.29305
G1 X187.44 Y140.488
G10
G0 F4500 X186.471 Y140.084
G11
G1 F1800 X193.577 Y147.191 E170.3459
G0 F4500 X193.343 Y147.522
G1 F1800 X185.432 Y139.611 E171.51793
G1 X185.362 Y139.541
G10
G0 F4500 X184.393 Y139.138
G11
G1 F1800 X193.109 Y147.854 E172.80924
G0 F4500 X192.875 Y148.186
G1 F1800 X183.354 Y138.665 E174.2198
G1 X183.284 Y138.595
G10
G0 F4500 X182.315 Y138.191
G11
G1 F1800 X192.607 Y148.483 E175.74459
G0 F4500 X192.322 Y148.764
G1 F1800 X181.276 Y137.718 E177.38109
G1 X181.206 Y137.648
G10
G0 F4500 X180.237 Y137.245
G11
G1 F1800 X192.037 Y149.045 E179.1293
G0 F4500 X191.752 Y149.326
G1 F1800 X179.198 Y136.772 E180.98921
G1 X179.128 Y136.702
G10
G0 F4500 X178.159 Y136.299
G11
G1 F1800 X191.421 Y149.56 E182.95394
G0 F4500 X191.087 Y149.792
G1 F1800 X177.12 Y135.825 E185.02319
G1 X177.05 Y135.755
G10
G0 F4500 X176.081 Y135.352
G11
G1 F1800 X190.754 Y150.024 E187.19697
G0 F4500 X190.404 Y150.24
G1 F1800 X175.042 Y134.879 E189.47282
G1 X174.972 Y134.809
G10
G0 F4500 X174.004 Y134.406
G11
G1 F1800 X190.018 Y150.42 E191.84534
G0 F4500 X189.632 Y150.6
G1 F1800 X172.964 Y133.932 E194.31476
G1 X172.894 Y133.862
G10
G0 F4500 X171.925 Y133.459
G11
G1 F1800 X189.246 Y150.779 E196.88084
G0 F4500 X188.808 Y150.907
G1 F1800 X170.887 Y132.986 E199.53589
G1 X170.817 Y132.916
G10
G0 F4500 X169.847 Y132.512
G11
G1 F1800 X188.361 Y151.025 E202.27872
G0 F4500 X187.914 Y151.144
G1 F1800 X168.809 Y132.039 E205.10919
G1 X168.739 Y131.969
G10
G0 F4500 X167.77 Y131.566
G11
G1 F1800 X187.416 Y151.212 E208.0198
G0 F4500 X186.895 Y151.257
G1 F1800 X166.73 Y131.092 E211.00731
G1 X166.66 Y131.022
G10
G0 F4500 X165.692 Y130.619
G11
G1 F1800 X186.374 Y151.301 E214.07141
G0 F4500 X185.822 Y151.315
G1 F1800 X164.653 Y130.146 E217.20766
G1 X164.583 Y130.076
G10
G0 F4500 X163.613 Y129.672
G11
G1 F1800 X185.256 Y151.315 E220.41413
G0 F4500 X184.689 Y151.314
G1 F1800 X162.575 Y129.199 E223.69046
G1 X162.505 Y129.129
G10
G0 F4500 X182.968 Y150.158
G11
G1 F1800 X184.124 Y151.314 E223.86173
G0 F4500 X183.558 Y151.314
G1 F1800 X183.458 Y151.214 E223.87654
G10
G0 F4500 X182.209 Y149.399
G11
G1 F1800 X161.536 Y128.726 E226.93931
G1 X161.466 Y128.656
G10
G0 F4500 X160.496 Y128.252
G11
G1 F1800 X180.959 Y148.715 E229.97097
G1 X181.029 Y148.785
G10
G0 F4500 X179.92 Y148.242
G11
G1 F1800 X159.458 Y127.779 E233.00255
G1 X159.388 Y127.709
G10
G0 F4500 X158.419 Y127.306
G11
G1 F1800 X178.881 Y147.769 E236.03413
G1 X178.951 Y147.839
G10
G0 F4500 X177.842 Y147.295
G11
G1 F1800 X157.38 Y126.833 E239.06563
G1 X157.31 Y126.763
G10
G0 F4500 X156.341 Y126.359
G11
G1 F1800 X176.803 Y146.822 E242.09722
G1 X176.873 Y146.892
G10
G0 F4500 X175.764 Y146.349
G11
G1 F1800 X155.302 Y125.886 E245.1288
G1 X155.232 Y125.816
G10
G0 F4500 X154.263 Y125.413
G11
G1 F1800 X174.725 Y145.875 E248.1603
G1 X174.795 Y145.945
G10
G0 F4500 X173.686 Y145.402
G11
G1 F1800 X153.224 Y124.94 E251.19181
G1 X153.154 Y124.87
G10
G0 F4500 X152.185 Y124.467
G11
G1 F1800 X172.647 Y144.929 E254.22332
G1 X172.717 Y144.999
G10
G0 F4500 X171.608 Y144.455
G11
G1 F1800 X151.146 Y123.993 E257.25482
G1 X151.076 Y123.923
G10
G0 F4500 X150.107 Y123.52
G11
G1 F1800 X170.569 Y143.982 E260.28633
G1 X170.639 Y144.052
G10
G0 F4500 X169.53 Y143.509
G11
G1 F1800 X149.068 Y123.047 E263.31784
G1 X148.998 Y122.977
G10
G0 F4500 X148.029 Y122.573
G11
G1 F1800 X168.491 Y143.035 E266.34935
G1 X168.561 Y143.105
G10
G0 F4500 X167.452 Y142.562
G11
G1 F1800 X146.99 Y122.1 E269.38085
G1 X146.92 Y122.03
G10
G0 F4500 X145.951 Y121.627
G11
G1 F1800 X166.414 Y142.089 E272.41243
G1 X166.484 Y142.159
G10
G0 F4500 X165.374 Y141.615
G11
G1 F1800 X144.912 Y121.153 E275.44394
G1 X144.842 Y121.083
G10
G0 F4500 X143.873 Y120.68
G11
G1 F1800 X164.335 Y141.142 E278.47545
G1 X164.405 Y141.212
G10
G0 F4500 X163.297 Y140.669
G11
G1 F1800 X142.834 Y120.207 E281.50703
G1 X142.764 Y120.137
G10
G0 F4500 X141.796 Y119.734
G11
G1 F1800 X162.257 Y140.195 E284.53839
G1 X162.327 Y140.265
G10
G0 F4500 X161.218 Y139.722
G11
G1 F1800 X140.756 Y119.26 E287.56989
G1 X140.686 Y119.19
G10
G0 F4500 X139.717 Y118.787
G11
G1 F1800 X160.18 Y139.249 E290.60147
G1 X160.25 Y139.319
G10
G0 F4500 X159.14 Y138.776
G11
G1 F1800 X138.679 Y118.314 E293.63291
G1 X138.609 Y118.244
G10
G0 F4500 X137.639 Y117.84
G11
G1 F1800 X158.102 Y138.303 E296.66456
G1 X158.172 Y138.373
G10
G0 F4500 X157.063 Y137.829
G11
G1 F1800 X136.601 Y117.367 E299.69607
G1 X136.531 Y117.297
G10
G0 F4500 X135.562 Y116.894
G11
G1 F1800 X156.023 Y137.356 E302.7275
G1 X156.093 Y137.426
G10
G0 F4500 X154.985 Y136.883
G11
G1 F1800 X134.522 Y116.42 E305.75916
G1 X134.452 Y116.35
G10
G0 F4500 X133.484 Y115.947
G11
G1 F1800 X153.946 Y136.41 E308.79074
G1 X154.016 Y136.48
G10
G0 F4500 X152.906 Y135.936
G11
G1 F1800 X132.445 Y115.474 E311.82217
G1 X132.375 Y115.404
G10
G0 F4500 X131.405 Y115.001
G11
G1 F1800 X151.868 Y135.463 E314.85375
G1 X151.938 Y135.533
G10
G0 F4500 X150.829 Y134.99
G11
G1 F1800 X130.367 Y114.527 E317.88533
G1 X130.297 Y114.457
G10
G0 F4500 X129.328 Y114.054
G11
G1 F1800 X149.789 Y134.516 E320.91677
G1 X149.859 Y134.586
G10
G0 F4500 X148.751 Y134.043
G11
G1 F1800 X128.288 Y113.581 E323.94835
G1 X128.218 Y113.511
G10
G0 F4500 X127.25 Y113.108
G11
G1 F1800 X147.712 Y133.57 E326.97985
G1 X147.782 Y133.64
G10
G0 F4500 X146.673 Y133.096
G11
G1 F1800 X126.211 Y112.635 E330.01129
G1 X126.141 Y112.565
G10
G0 F4500 X125.172 Y112.161
G11
G1 F1800 X145.634 Y132.623 E333.04279
G1 X145.704 Y132.693
G10
G0 F4500 X144.595 Y132.15
G11
G1 F1800 X124.133 Y111.688 E336.0743
G1 X124.063 Y111.618
G10
G0 F4500 X123.094 Y111.215
G11
G1 F1800 X143.556 Y131.676 E339.10573
G1 X143.626 Y131.746
G10
G0 F4500 X142.517 Y131.203
G11
G1 F1800 X122.055 Y110.741 E342.13724
G1 X121.985 Y110.671
G10
G0 F4500 X121.016 Y110.268
G11
G1 F1800 X141.478 Y130.73 E345.16875
G1 X141.548 Y130.8
G10
G0 F4500 X140.439 Y130.256
G11
G1 F1800 X119.977 Y109.795 E348.20018
G1 X119.907 Y109.725
G10
G0 F4500 X118.938 Y109.321
G11
