;FLAVOR:UltiGCode
;TIME:9708
;MATERIAL:5865
;MATERIAL2:0
;NOZZLE_DIAMETER:0.4
;MINX:23.811
;MINY:67.304
;MINZ:0.27
;MAXX:199.188
;MAXY:155.696
;MAXZ:12.02
;Generated with Cura_SteamEngine 5.0.0
M82 ;absolute extrusion mode
G0 F3000 Y50 ;avoid prime blob
G92 E0
G92 E0
G10
;LAYER_COUNT:236
;LAYER:0
M107
G0 F4500 X31.397 Y68.471 Z0.27
G0 X23.873 Y79.195
;TYPE:SKIRT
G11
G1 F1800 X23.948 Y78.387 E0.08764
G1 X24.086 Y77.63 E0.17074
G1 X24.38 Y76.449 E0.30218
G1 X24.63 Y75.724 E0.38501
G1 X25.126 Y74.547 E0.52295
G1 X25.466 Y73.911 E0.60084
G1 X26.147 Y72.814 E0.74029
G1 X26.667 Y72.136 E0.83257
G1 X27.443 Y71.244 E0.96025
G1 X28.09 Y70.635 E1.05622
G1 X28.963 Y69.902 E1.17933
G1 X29.595 Y69.465 E1.26231
G1 X30.661 Y68.824 E1.39665
G1 X31.397 Y68.471 E1.48481
G1 X32.53 Y68.014 E1.61675
G1 X33.704 Y67.688 E1.74834
G1 X34.528 Y67.504 E1.83952
G1 X35.297 Y67.406 E1.92325
G1 X36.532 Y67.321 E2.05694
G1 X37.193 Y67.304 E2.12836
G1 X40.453 Y67.305 E2.48044
G1 X41.128 Y67.315 E2.55334
G1 X42.121 Y67.489 E2.66222
G1 X42.835 Y67.839 E2.7481
G1 X43.836 Y68.495 E2.87735
G1 X46.185 Y69.987 E3.17789
G1 X48.535 Y71.388 E3.47337
G1 X50.922 Y72.722 E3.7687
G1 X53.359 Y73.995 E4.06564
G1 X56.825 Y75.657 E4.48078
G1 X90.219 Y90.871 E8.44399
G1 X92.728 Y91.97 E8.73981
G1 X95.268 Y93.002 E9.03591
G1 X97.825 Y93.954 E9.33059
G1 X100.439 Y94.845 E9.62885
G1 X103.055 Y95.655 E9.92461
G1 X105.664 Y96.383 E10.21715
G1 X108.366 Y97.053 E10.5178
G1 X111.027 Y97.636 E10.812
G1 X113.688 Y98.14 E11.1045
G1 X116.411 Y98.575 E11.40231
G1 X119.139 Y98.933 E11.69946
G1 X121.857 Y99.212 E11.99455
G1 X123.252 Y99.326 E12.14571
G1 X124.232 Y99.565 E12.25466
G1 X124.681 Y99.797 E12.30924
G1 X125.207 Y100.207 E12.38126
G1 X127.451 Y102.362 E12.71727
G1 X129.503 Y104.219 E13.01617
G1 X131.578 Y105.991 E13.31086
G1 X133.69 Y107.695 E13.60394
G1 X135.864 Y109.349 E13.89896
G1 X138.119 Y110.965 E14.19858
G1 X140.371 Y112.487 E14.49213
G1 X142.712 Y113.973 E14.7916
G1 X145.024 Y115.35 E15.08223
G1 X147.414 Y116.684 E15.37783
G1 X149.851 Y117.956 E15.67472
G1 X153.311 Y119.614 E16.08909
G1 X186.952 Y134.939 E20.08155
G1 X189.502 Y136.057 E20.38225
G1 X192.067 Y137.096 E20.68114
G1 X194.628 Y138.05 E20.97629
G1 X197.017 Y138.874 E21.24922
G1 X197.481 Y139.076 E21.30387
G1 X198.284 Y139.684 E21.41265
G1 X198.858 Y140.513 E21.52155
G1 X199.041 Y140.984 E21.57612
G1 X199.174 Y141.846 E21.67032
G1 X199.188 Y142.691 E21.76159
G1 X199.179 Y142.982 E21.79304
G1 X199.09 Y144.154 E21.91998
G1 X199.026 Y144.778 E21.98772
G1 X198.703 Y146.193 E22.14447
G1 X198.489 Y146.956 E22.23006
G1 X197.912 Y148.324 E22.39041
G1 X197.579 Y149.016 E22.47334
G1 X196.769 Y150.267 E22.6343
G1 X196.333 Y150.875 E22.7151
G1 X195.306 Y151.98 E22.87803
G1 X194.779 Y152.494 E22.95753
G1 X193.583 Y153.398 E23.11945
G1 X192.955 Y153.825 E23.20146
G1 X191.629 Y154.503 E23.36231
G1 X190.952 Y154.808 E23.4425
G1 X189.529 Y155.247 E23.60333
G1 X188.811 Y155.431 E23.68338
G1 X187.425 Y155.607 E23.83427
G1 X186.478 Y155.678 E23.93683
G1 X185.554 Y155.696 E24.03665
G1 X182.547 Y155.695 E24.3614
G1 X181.872 Y155.685 E24.43431
G1 X180.879 Y155.511 E24.54319
G1 X180.165 Y155.161 E24.62907
G1 X179.164 Y154.505 E24.75832
G1 X176.815 Y153.013 E25.05886
G1 X174.465 Y151.612 E25.35434
G1 X172.078 Y150.278 E25.64966
G1 X169.641 Y149.005 E25.9466
G1 X166.175 Y147.343 E26.36174
G1 X132.772 Y132.125 E30.32602
G1 X130.272 Y131.03 E30.62078
G1 X127.732 Y129.998 E30.91688
G1 X125.175 Y129.046 E31.21155
G1 X122.561 Y128.155 E31.50981
G1 X119.945 Y127.345 E31.80558
G1 X117.336 Y126.617 E32.09811
G1 X114.634 Y125.947 E32.39877
G1 X111.973 Y125.364 E32.69297
G1 X109.312 Y124.86 E32.98547
G1 X106.589 Y124.425 E33.28328
G1 X103.861 Y124.067 E33.58043
G1 X101.143 Y123.788 E33.87552
G1 X99.748 Y123.674 E34.02668
G1 X98.768 Y123.435 E34.13562
G1 X98.319 Y123.203 E34.1902
G1 X97.793 Y122.793 E34.26223
G1 X95.549 Y120.638 E34.59824
G1 X93.496 Y118.78 E34.89728
G1 X91.439 Y117.024 E35.18938
G1 X89.292 Y115.291 E35.48737
G1 X87.113 Y113.634 E35.78301
G1 X84.904 Y112.05 E36.07658
G1 X82.629 Y110.513 E36.3731
G1 X80.288 Y109.027 E36.67256
G1 X77.976 Y107.65 E36.96319
G1 X75.579 Y106.312 E37.25967
G1 X73.149 Y105.044 E37.55569
G1 X69.689 Y103.386 E37.97006
G1 X36.048 Y88.061 E41.96251
G1 X33.498 Y86.943 E42.26322
G1 X30.933 Y85.904 E42.5621
G1 X28.372 Y84.95 E42.85726
G1 X25.983 Y84.126 E43.13019
G1 X25.519 Y83.924 E43.18484
G1 X24.716 Y83.316 E43.29362
G1 X24.142 Y82.487 E43.40252
G1 X23.959 Y82.016 E43.45709
G1 X23.827 Y81.172 E43.54935
G1 X23.811 Y80.299 E43.64365
G1 X23.873 Y79.195 E43.76307
G10
;MESH:phone stand lite.STL
G0 F4500 X26.427 Y78.664
G0 X27.548 Y78.752
G0 X28.895 Y75.894
G0 X29.475 Y74.947
G0 X30.38 Y73.885
G0 X31.447 Y72.975
G0 X32.642 Y72.243
G0 X33.93 Y71.705
G0 X35.3 Y71.377
G0 X36.987 Y71.265
G0 X40.314 Y71.277
G0 X40.835 Y72.559
G11
G0 X41.005 Y72.187
;TYPE:WALL-OUTER
G1 F1800 X40.888 Y72.005 E43.78644
G1 X40.885 Y70.705 E43.92684
G1 X36.753 Y70.705 E44.37309
G1 X35.213 Y70.822 E44.53989
G1 X33.756 Y71.171 E44.7017
G1 X32.387 Y71.742 E44.8619
G1 X31.116 Y72.52 E45.02284
G1 X29.982 Y73.487 E45.1838
G1 X29.02 Y74.616 E45.34399
G1 X28.241 Y75.888 E45.50508
G1 X27.676 Y77.255 E45.66483
G1 X27.322 Y78.712 E45.82676
G1 X27.203 Y80.209 E45.98895
G1 X27.204 Y80.906 E46.06422
G1 X28.501 Y80.906 E46.2043
G1 X29.474 Y81.328 E46.31884
G1 X100.112 Y113.511 E54.70223
G1 X100.205 Y113.681 E54.72315
G1 X100.205 Y120.295 E55.43747
G1 X114.981 Y120.295 E57.03327
G1 X115.856 Y120.682 E57.1366
G1 X181.995 Y150.813 E64.98594
G1 X182.094 Y150.911 E65.00099
G1 X182.112 Y150.995 E65.01026
G1 X182.115 Y152.295 E65.15066
G1 X186.244 Y152.296 E65.5966
G1 X187.951 Y152.151 E65.78162
G1 X189.547 Y151.724 E65.96005
G1 X191.043 Y151.024 E66.13843
G1 X192.395 Y150.08 E66.31651
G1 X193.582 Y148.898 E66.49743
G1 X194.524 Y147.543 E66.67566
G1 X195.224 Y146.045 E66.85423
G1 X195.6 Y144.636 E67.01173
G1 X195.738 Y143.448 E67.1409
G1 X195.797 Y142.789 E67.21235
G1 X195.797 Y142.761 E67.21538
G1 X195.796 Y142.094 E67.28741
G1 X194.499 Y142.095 E67.42749
G1 X194.387 Y142.064 E67.44004
G1 X122.888 Y109.489 E75.9256
G1 X122.795 Y109.319 E75.94652
G1 X122.795 Y102.705 E76.66084
G1 X108.019 Y102.705 E78.25664
G1 X107.144 Y102.318 E78.35997
G1 X41.005 Y72.187 E86.20931
G0 F4500 X40.897 Y72.019
G0 X40.839 Y72.551
;TYPE:WALL-INNER
G1 F1800 X40.629 Y72.392 E86.23776
G1 X40.488 Y72.006 E86.28214
G1 X40.486 Y71.105 E86.37945
G1 X36.768 Y71.105 E86.78099
G1 X35.275 Y71.218 E86.9427
G1 X33.88 Y71.553 E87.09764
G1 X32.569 Y72.099 E87.25102
G1 X31.352 Y72.845 E87.40518
G1 X30.266 Y73.771 E87.55932
G1 X29.345 Y74.852 E87.71269
G1 X28.599 Y76.07 E87.86695
G1 X28.058 Y77.379 E88.01992
G1 X27.718 Y78.776 E88.1752
G1 X27.603 Y80.235 E88.33326
G1 X27.604 Y80.506 E88.36253
G1 X28.501 Y80.506 E88.45941
G1 X28.75 Y80.559 E88.4869
G1 X100.254 Y113.134 E96.97295
G1 X100.527 Y113.384 E97.01293
G1 X100.605 Y113.681 E97.04609
G1 X100.605 Y119.895 E97.7172
G1 X114.962 Y119.894 E99.26776
G1 X115.211 Y119.948 E99.29527
G1 X182.161 Y150.449 E107.24089
G1 X182.372 Y150.61 E107.26955
G1 X182.512 Y150.994 E107.31369
G1 X182.514 Y151.895 E107.411
G1 X186.227 Y151.896 E107.812
G1 X187.882 Y151.755 E107.99139
G1 X189.409 Y151.347 E108.16209
G1 X190.842 Y150.676 E108.33298
G1 X192.137 Y149.772 E108.50355
G1 X193.274 Y148.64 E108.67683
G1 X194.176 Y147.343 E108.84745
G1 X194.847 Y145.907 E109.01863
G1 X195.255 Y144.381 E109.18923
G1 X195.397 Y142.761 E109.36486
G1 X195.396 Y142.494 E109.3937
G1 X194.499 Y142.495 E109.49057
G1 X194.221 Y142.428 E109.52146
G1 X122.746 Y109.866 E118.00407
G1 X122.473 Y109.616 E118.04405
G1 X122.395 Y109.319 E118.07721
G1 X122.395 Y103.105 E118.74832
G1 X108.038 Y103.105 E120.29888
G1 X107.789 Y103.052 E120.32637
G1 X40.839 Y72.551 E128.27198
G0 F4500 X40.671 Y72.891
;TYPE:SKIN
G1 F1800 X40.233 Y72.472 E128.33548
G1 X40.108 Y72.003 E128.38633
G1 X40.106 Y71.485 E128.4406
G1 X36.784 Y71.486 E128.78861
G1 X35.787 Y71.56 E128.89334
G1 X34.885 Y71.701 E128.98898
G1 X33.987 Y71.916 E129.08572
G1 X32.74 Y72.441 E129.22746
G1 X31.574 Y73.155 E129.37069
G1 X30.533 Y74.042 E129.51397
G1 X29.655 Y75.074 E129.65591
G1 X28.941 Y76.241 E129.79923
G1 X28.42 Y77.5 E129.94197
G1 X28.095 Y78.832 E130.08561
G1 X28.033 Y79.626 E130.16904
G1 X27.999 Y80.126 E130.22154
G1 X28.537 Y80.129 E130.2779
G1 X28.877 Y80.2 E130.31429
G1 X100.392 Y112.78 E138.54702
G1 X100.829 Y113.158 E138.60755
G1 X100.985 Y113.679 E138.66452
G1 X100.985 Y119.515 E139.2759
G1 X114.981 Y119.514 E140.74212
G1 X115.609 Y119.711 E140.81107
G1 X182.328 Y150.108 E148.49178
G1 X182.768 Y150.53 E148.55565
G1 X182.892 Y150.997 E148.60626
G1 X182.894 Y151.515 E148.66053
G1 X186.209 Y151.515 E149.00781
G1 X187.818 Y151.379 E149.17697
G1 X189.277 Y150.99 E149.33515
G1 X190.648 Y150.346 E149.49384
G1 X191.883 Y149.485 E149.65155
G1 X192.988 Y148.389 E149.8146
G1 X193.845 Y147.15 E149.97242
G1 X194.49 Y145.773 E150.13171
G1 X194.846 Y144.439 E150.27635
G1 X194.917 Y143.869 E150.33653
G1 X194.96 Y143.371 E150.38889
G1 X194.998 Y142.875 E150.44101
G1 X194.459 Y142.871 E150.49747
G1 X194.06 Y142.772 E150.54054
G1 X122.607 Y110.22 E158.76614
G1 X122.169 Y109.84 E158.82689
G1 X122.015 Y109.321 E158.8836
G1 X122.015 Y103.486 E159.49488
G1 X108.019 Y103.485 E160.9611
G1 X107.394 Y103.29 E161.02969
G1 X40.671 Y72.891 E168.71086
G0 F4500 X40.801 Y72.645
G0 X108.158 Y103.288
G0 X122.223 Y103.277
G0 X122.341 Y109.74
G0 X194.553 Y142.594
G0 X194.553 Y143.075
G1 F1800 X194.764 Y143.286 E168.74212
G0 F4500 X194.72 Y143.808
G1 F1800 X193.774 Y142.862 E168.88227
G1 X193.704 Y142.792
G0 F4500 X193.889 Y142.387
G0 X192.933 Y141.951
G0 X192.734 Y142.388
G1 F1800 X194.67 Y144.324 E169.1691
G0 F4500 X194.55 Y144.77
G1 F1800 X191.695 Y141.915 E169.59207
G1 X191.625 Y141.845
G0 F4500 X190.656 Y141.441
G1 F1800 X194.431 Y145.216 E170.15135
G0 F4500 X194.311 Y145.662
G1 F1800 X189.617 Y140.968 E170.84678
G1 X189.547 Y140.898
G0 F4500 X188.579 Y140.495
G1 F1800 X194.136 Y146.053 E171.67014
G0 F4500 X193.956 Y146.438
G1 F1800 X187.539 Y140.021 E172.62084
G1 X187.469 Y139.951
G0 F4500 X186.5 Y139.548
G1 F1800 X193.776 Y146.825 E173.69887
G0 F4500 X193.575 Y147.189
G1 F1800 X185.461 Y139.075 E174.90099
G1 X185.391 Y139.005
G0 F4500 X184.422 Y138.602
G1 F1800 X193.343 Y147.522 E176.22259
G0 F4500 X193.112 Y147.857
G1 F1800 X183.383 Y138.128 E177.66397
G1 X183.313 Y138.058
G0 F4500 X182.344 Y137.655
G1 F1800 X192.881 Y148.191 E179.22498
G0 F4500 X192.606 Y148.483
G1 F1800 X181.305 Y137.181 E180.89933
G1 X181.235 Y137.111
G0 F4500 X180.266 Y136.708
G1 F1800 X192.323 Y148.765 E182.68561
G0 F4500 X192.038 Y149.046
G1 F1800 X179.226 Y136.234 E184.58375
G1 X179.156 Y136.164
G0 F4500 X178.188 Y135.761
G1 F1800 X191.755 Y149.328 E186.59374
G0 F4500 X191.422 Y149.561
G1 F1800 X177.148 Y135.287 E188.70848
G1 X177.078 Y135.217
G0 F4500 X176.109 Y134.814
G1 F1800 X191.088 Y149.793 E190.92766
G0 F4500 X190.755 Y150.026
G1 F1800 X175.07 Y134.341 E193.25144
G1 X175 Y134.271
G0 F4500 X174.031 Y133.868
G1 F1800 X190.402 Y150.238 E195.67678
G0 F4500 X190.017 Y150.419
G1 F1800 X172.992 Y133.394 E198.19909
G1 X172.922 Y133.324
G0 F4500 X171.953 Y132.921
G1 F1800 X189.632 Y150.6 E200.81828
G0 F4500 X189.247 Y150.781
G1 F1800 X170.914 Y132.448 E203.53437
G1 X170.844 Y132.378
G0 F4500 X169.875 Y131.974
G1 F1800 X188.808 Y150.907 E206.33935
G0 F4500 X188.361 Y151.025
G1 F1800 X168.836 Y131.501 E209.23197
G1 X168.766 Y131.431
G0 F4500 X167.797 Y131.027
G1 F1800 X187.914 Y151.144 E212.21236
G0 F4500 X187.415 Y151.211
G1 F1800 X166.758 Y130.554 E215.27276
G1 X166.688 Y130.484
G0 F4500 X166.873 Y130.079
G0 X165.917 Y129.644
G0 X165.718 Y130.08
G1 F1800 X186.893 Y151.255 E218.4099
G0 F4500 X186.372 Y151.299
G1 F1800 X164.68 Y129.607 E221.62363
G1 X164.61 Y129.537
G0 F4500 X164.795 Y129.132
G0 X163.839 Y128.697
G0 X163.64 Y129.133
G1 F1800 X185.821 Y151.314 E224.90982
G0 F4500 X185.255 Y151.314
G1 F1800 X162.602 Y128.66 E228.266
G1 X162.532 Y128.59
G0 F4500 X162.717 Y128.185
G0 X161.761 Y127.75
G0 X161.562 Y128.187
G1 F1800 X184.689 Y151.314 E231.69233
G0 F4500 X184.124 Y151.314
G1 F1800 X160.523 Y127.714 E235.18882
G1 X160.453 Y127.644
G0 F4500 X160.638 Y127.239
G0 X194.503 Y142.656
G0 X195.059 Y144.491
G0 X194.584 Y146.09
G0 X194.036 Y147.262
G0 X193.15 Y148.536
G0 X192.033 Y149.648
G0 X190.762 Y150.536
G0 X189.353 Y151.195
G0 X187.853 Y151.596
G0 X185.987 Y151.735
G0 X182.686 Y151.723
G0 X182.586 Y150.885
G0 X183.031 Y150.787
G1 F1800 X183.558 Y151.314 E235.2669
G0 F4500 X183.558 Y151.795
G0 X182.686 Y151.723
G0 X182.461 Y150.753
G0 X181.768 Y150.159
G0 X181.967 Y149.723
G1 F1800 X159.484 Y127.24 E238.59782
G1 X159.414 Y127.17
G0 F4500 X158.445 Y126.767
G1 F1800 X180.928 Y149.249 E241.92867
G1 X180.998 Y149.319
G0 F4500 X180.813 Y149.724
G0 X179.69 Y149.213
G0 X179.889 Y148.776
G1 F1800 X157.406 Y126.294 E245.25952
G1 X157.336 Y126.224
G0 F4500 X156.367 Y125.82
G1 F1800 X178.849 Y148.302 E248.5903
G1 X178.919 Y148.372
G0 F4500 X178.734 Y148.777
G0 X177.612 Y148.266
G0 X177.811 Y147.829
G1 F1800 X155.328 Y125.347 E251.92115
G1 X155.258 Y125.277
G0 F4500 X154.289 Y124.873
G1 F1800 X176.772 Y147.356 E255.25207
G1 X176.842 Y147.426
G0 F4500 X176.657 Y147.831
G0 X175.534 Y147.319
G0 X175.733 Y146.883
G1 F1800 X153.25 Y124.4 E258.583
G1 X153.18 Y124.33
G0 F4500 X152.211 Y123.926
G1 F1800 X174.694 Y146.409 E261.91392
G1 X174.764 Y146.479
G0 F4500 X174.579 Y146.884
G0 X173.455 Y146.372
G0 X173.654 Y145.936
G1 F1800 X151.172 Y123.453 E265.24477
G1 X151.102 Y123.383
G0 F4500 X151.287 Y122.978
G0 X150.331 Y122.543
G0 X150.132 Y122.98
G1 F1800 X172.616 Y145.463 E268.57577
G1 X172.686 Y145.533
G0 F4500 X172.501 Y145.938
G0 X171.378 Y145.426
G0 X171.577 Y144.99
G1 F1800 X149.094 Y122.506 E271.90677
G1 X149.024 Y122.436
G0 F4500 X149.208 Y122.032
G0 X148.253 Y121.596
G0 X148.054 Y122.033
G1 F1800 X170.537 Y144.516 E275.23769
G1 X170.607 Y144.586
G0 F4500 X170.422 Y144.991
G0 X169.3 Y144.479
G0 X169.499 Y144.043
G1 F1800 X147.015 Y121.56 E278.56869
G1 X146.945 Y121.49
G0 F4500 X145.976 Y121.086
G1 F1800 X168.459 Y143.569 E281.89961
G1 X168.529 Y143.639
G0 F4500 X168.344 Y144.044
G0 X167.221 Y143.532
G0 X167.42 Y143.096
G1 F1800 X144.937 Y120.613 E285.23054
G1 X144.867 Y120.543
G0 F4500 X143.898 Y120.139
G1 F1800 X166.382 Y142.623 E288.56161
G1 X166.452 Y142.693
G0 F4500 X166.267 Y143.098
G0 X165.143 Y142.586
G0 X165.342 Y142.149
G1 F1800 X142.859 Y119.666 E291.89253
G1 X142.789 Y119.596
G0 F4500 X141.82 Y119.192
G1 F1800 X164.304 Y141.676 E295.22361
G1 X164.374 Y141.746
G0 F4500 X164.189 Y142.151
G0 X163.065 Y141.639
G0 X163.264 Y141.202
G1 F1800 X140.781 Y118.719 E298.55453
G1 X140.711 Y118.649
G0 F4500 X139.742 Y118.246
G1 F1800 X162.225 Y140.729 E301.88545
G1 X162.295 Y140.799
G0 F4500 X162.11 Y141.204
G0 X160.988 Y140.693
G0 X161.187 Y140.256
G1 F1800 X138.703 Y117.772 E305.21653
G1 X138.633 Y117.702
G0 F4500 X137.664 Y117.299
G1 F1800 X160.147 Y139.782 E308.54745
G1 X160.217 Y139.852
G0 F4500 X160.032 Y140.257
G0 X158.909 Y139.746
G0 X159.108 Y139.309
G1 F1800 X136.625 Y116.826 E311.87838
G1 X136.555 Y116.756
G0 F4500 X135.586 Y116.353
G1 F1800 X158.069 Y138.836 E315.2093
G1 X158.139 Y138.906
G0 F4500 X157.954 Y139.311
G0 X156.831 Y138.799
G0 X157.03 Y138.363
G1 F1800 X134.546 Y115.879 E318.54037
G1 X134.476 Y115.809
G0 F4500 X133.508 Y115.406
G1 F1800 X155.991 Y137.89 E321.87137
G1 X156.061 Y137.96
G0 F4500 X155.877 Y138.364
G0 X154.753 Y137.852
G0 X154.952 Y137.416
G1 F1800 X132.468 Y114.932 E325.20244
