;FLAVOR:UltiGCode
;TIME:8415
;MATERIAL:14453
;MATERIAL2:0
;NOZZLE_DIAMETER:0.4
;MINX:18.702
;MINY:20.405
;MINZ:0.27
;MAXX:196.672
;MAXY:195.942
;MAXZ:11.07
;Generated with Cura_SteamEngine 5.0.0
M82 ;absolute extrusion mode
G0 F3000 Y50 ;avoid prime blob
G92 E0
G92 E0
G10
;LAYER_COUNT:73
;LAYER:0
M107
G0 F4500 X23.738 Y25.255 Z0.27
G0 X20.9 Y30.482
;TYPE:SKIRT
G11
G1 F1800 X21.102 Y29.682 E0.08911
G1 X21.408 Y28.751 E0.19495
G1 X21.722 Y28.051 E0.27781
G1 X22.184 Y27.191 E0.38324
G1 X22.619 Y26.552 E0.46673
G1 X23.227 Y25.781 E0.57277
G1 X23.738 Y25.255 E0.65197
G1 X24.479 Y24.593 E0.75929
G1 X25.09 Y24.153 E0.8406
G1 X25.919 Y23.638 E0.94601
G1 X26.594 Y23.312 E1.02696
G1 X27.524 Y22.939 E1.13518
G1 X28.247 Y22.734 E1.21634
G1 X29.215 Y22.533 E1.32312
G1 X29.922 Y22.462 E1.39986
G1 X30.598 Y22.419 E1.47301
G1 X31.457 Y22.405 E1.5658
G1 X44.797 Y22.405 E3.00652
G1 X47.597 Y22.365 E3.30895
G1 X50.267 Y22.252 E3.59757
G1 X53.007 Y22.058 E3.89423
G1 X55.663 Y21.794 E4.18249
G1 X58.415 Y21.442 E4.48213
G1 X61.057 Y21.027 E4.77096
G1 X63.979 Y20.482 E5.09198
G1 X64.6 Y20.416 E5.15942
G1 X65.032 Y20.405 E5.2061
G1 X73.522 Y20.405 E6.12302
G1 X74.223 Y20.415 E6.19873
G1 X74.91 Y20.485 E6.27331
G1 X76.489 Y20.784 E6.44687
G1 X79.248 Y21.256 E6.74917
G1 X81.879 Y21.629 E7.03616
G1 X84.61 Y21.938 E7.33299
G1 X87.312 Y22.167 E7.62586
G1 X90.022 Y22.32 E7.919
G1 X94.092 Y22.405 E8.35866
G1 X184.034 Y22.405 E18.07239
G1 X184.688 Y22.414 E18.14303
G1 X185.58 Y22.473 E18.23958
G1 X186.115 Y22.526 E18.29764
G1 X186.679 Y22.625 E18.35949
G1 X187.378 Y22.801 E18.43733
G1 X188.339 Y23.116 E18.54655
G1 X189.012 Y23.419 E18.62627
G1 X189.886 Y23.888 E18.73339
G1 X190.525 Y24.323 E18.81687
G1 X191.296 Y24.931 E18.92292
G1 X191.826 Y25.447 E19.00281
G1 X192.484 Y26.183 E19.10943
G1 X192.903 Y26.763 E19.1867
G1 X193.435 Y27.617 E19.29537
G1 X193.771 Y28.31 E19.37855
G1 X194.134 Y29.219 E19.48426
G1 X194.347 Y29.97 E19.56856
G1 X194.543 Y30.913 E19.67258
G1 X194.616 Y31.631 E19.75053
G1 X194.657 Y32.282 E19.82098
G1 X194.672 Y33.209 E19.9211
G1 X194.672 Y40 E20.65453
G1 X194.712 Y42.8 E20.95696
G1 X194.825 Y45.471 E21.24569
G1 X195.019 Y48.21 E21.54224
G1 X195.283 Y50.866 E21.8305
G1 X195.635 Y53.618 E22.13014
G1 X196.049 Y56.253 E22.41821
G1 X196.594 Y59.173 E22.73902
G1 X196.66 Y59.785 E22.8055
G1 X196.672 Y60.235 E22.85411
G1 X196.672 Y71.228 E24.04136
G1 X196.657 Y72.291 E24.15617
G1 X196.657 Y75.063 E24.45555
G1 X196.672 Y75.96 E24.55244
G1 X196.666 Y79.607 E24.94632
G1 X196.672 Y80.163 E25.00637
G1 X196.671 Y94.223 E26.52485
G1 X196.658 Y94.964 E26.60489
G1 X196.543 Y96.27 E26.74648
G1 X196.473 Y96.886 E26.81344
G1 X196.243 Y99.573 E27.1047
G1 X196.087 Y102.279 E27.39743
G1 X196.009 Y104.987 E27.69001
G1 X196.007 Y107.713 E27.98442
G1 X196.069 Y110.319 E28.26595
G1 X196.069 Y142.297 E31.71957
G1 X196.058 Y143.004 E31.79594
G1 X195.991 Y143.671 E31.86834
G1 X195.768 Y144.874 E32.00047
G1 X195.298 Y147.621 E32.30146
G1 X194.915 Y150.312 E32.59502
G1 X194.614 Y152.964 E32.88327
G1 X194.382 Y155.694 E33.17918
G1 X194.227 Y158.437 E33.47589
G1 X194.152 Y161.107 E33.76437
G1 X194.152 Y163.85 E34.06061
G1 X194.229 Y166.526 E34.34974
G1 X194.384 Y169.263 E34.64581
G1 X194.616 Y171.991 E34.9415
G1 X194.92 Y174.657 E35.23129
G1 X195.306 Y177.368 E35.52703
G1 X195.764 Y180.039 E35.81971
G1 X195.987 Y181.201 E35.94749
G1 X196.057 Y181.834 E36.01627
G1 X196.069 Y182.286 E36.06511
G1 X196.069 Y191.256 E37.03387
G1 X196.06 Y191.983 E37.11239
G1 X196.013 Y192.546 E37.17341
G1 X195.887 Y193.097 E37.23445
G1 X195.685 Y193.625 E37.2955
G1 X195.41 Y194.119 E37.35657
G1 X195.068 Y194.569 E37.41761
G1 X194.666 Y194.967 E37.4787
G1 X194.213 Y195.304 E37.53968
G1 X193.716 Y195.574 E37.60077
G1 X193.186 Y195.771 E37.66183
G1 X192.634 Y195.892 E37.72286
G1 X191.851 Y195.94 E37.80759
G1 X94.229 Y195.941 E48.35076
G1 X93.504 Y195.927 E48.42908
G1 X92.941 Y195.876 E48.49013
G1 X92.628 Y195.813 E48.52461
G1 X91.534 Y195.544 E48.64628
G1 X90.808 Y195.356 E48.72728
G1 X88.182 Y194.755 E49.01822
G1 X85.471 Y194.215 E49.31676
G1 X82.858 Y193.771 E49.60301
G1 X80.137 Y193.387 E49.89979
G1 X77.445 Y193.084 E50.19236
G1 X74.742 Y192.857 E50.48531
G1 X72.043 Y192.708 E50.77725
G1 X69.298 Y192.633 E51.07382
G1 X66.589 Y192.637 E51.36639
G1 X63.886 Y192.716 E51.65844
G1 X61.178 Y192.874 E51.9514
G1 X58.478 Y193.106 E52.24407
G1 X55.764 Y193.417 E52.5391
G1 X53.099 Y193.801 E52.8299
G1 X50.385 Y194.269 E53.12733
G1 X47.803 Y194.789 E53.41179
G1 X43.492 Y195.823 E53.89058
G1 X42.671 Y195.931 E53.98001
G1 X42.239 Y195.942 E54.02669
G1 X23.754 Y195.942 E56.02307
G1 X23.056 Y195.933 E56.09846
G1 X22.493 Y195.885 E56.15948
G1 X21.942 Y195.759 E56.22052
G1 X21.414 Y195.557 E56.28158
G1 X20.92 Y195.282 E56.34264
G1 X20.47 Y194.94 E56.40368
G1 X20.072 Y194.538 E56.46478
G1 X19.736 Y194.084 E56.52578
G1 X19.466 Y193.587 E56.58686
G1 X19.269 Y193.057 E56.64793
G1 X19.149 Y192.505 E56.70894
G1 X19.1 Y191.708 E56.79518
G1 X19.099 Y128.622 E63.60847
G1 X19.137 Y125.921 E63.9002
G1 X19.099 Y122.18 E64.30425
G1 X19.099 Y110.617 E65.55305
G1 X19.11 Y109.907 E65.62974
G1 X19.165 Y109.306 E65.69492
G1 X19.544 Y107.05 E65.94199
G1 X19.928 Y104.355 E66.23599
G1 X20.229 Y101.706 E66.52392
G1 X20.462 Y98.963 E66.82123
G1 X20.615 Y96.258 E67.11384
G1 X20.702 Y92.152 E67.55738
G1 X20.702 Y60.78 E70.94556
G1 X20.662 Y57.98 E71.24799
G1 X20.549 Y55.31 E71.53661
G1 X20.355 Y52.57 E71.83327
G1 X20.091 Y49.913 E72.12164
G1 X19.739 Y47.161 E72.42128
G1 X19.324 Y44.519 E72.71011
G1 X18.779 Y41.597 E73.03113
G1 X18.713 Y40.977 E73.09847
G1 X18.702 Y40.506 E73.14935
G1 X18.713 Y39.366 E73.27247
G1 X18.759 Y38.803 E73.33348
G1 X18.871 Y38.293 E73.38987
G1 X19.601 Y35.77 E73.67353
G1 X20.287 Y33.131 E73.96802
G1 X20.9 Y30.482 E74.26167
G10
G0 F4500 X19.989 Y35.867
G11
G1 F1800 X20.67 Y33.251 E74.55361
G1 X21.288 Y30.579 E74.84981
G1 X21.487 Y29.79 E74.93769
G1 X21.773 Y28.914 E75.03721
G1 X22.083 Y28.225 E75.11881
G1 X22.515 Y27.415 E75.21795
G1 X22.943 Y26.786 E75.30012
G1 X23.514 Y26.059 E75.39996
G1 X24.017 Y25.542 E75.47786
G1 X24.714 Y24.917 E75.57897
G1 X25.314 Y24.484 E75.65888
G1 X26.094 Y23.998 E75.75813
G1 X26.757 Y23.677 E75.83769
G1 X27.634 Y23.324 E75.93979
G1 X28.345 Y23.122 E76.01962
G1 X29.256 Y22.931 E76.12014
G1 X29.952 Y22.861 E76.19569
G1 X30.605 Y22.818 E76.26637
G1 X31.398 Y22.805 E76.35202
G1 X44.803 Y22.805 E77.79976
G1 X47.584 Y22.766 E78.10014
G1 X50.312 Y22.65 E78.39503
G1 X53.042 Y22.456 E78.69061
G1 X55.717 Y22.191 E78.98093
G1 X58.457 Y21.841 E79.27925
G1 X61.12 Y21.422 E79.5704
G1 X64.052 Y20.875 E79.89251
G1 X64.611 Y20.815 E79.95323
G1 X65.032 Y20.805 E79.99871
G1 X73.516 Y20.805 E80.91499
G1 X74.217 Y20.815 E80.9907
G1 X74.836 Y20.878 E81.0579
G1 X76.472 Y21.188 E81.23773
G1 X79.156 Y21.647 E81.53181
G1 X81.849 Y22.029 E81.82557
G1 X84.567 Y22.336 E82.12098
G1 X87.291 Y22.567 E82.41623
G1 X89.991 Y22.719 E82.70829
G1 X94.083 Y22.805 E83.15032
G1 X184.029 Y22.805 E92.86449
G1 X184.683 Y22.814 E92.93513
G1 X185.551 Y22.872 E93.02908
G1 X186.582 Y23.013 E93.14146
G1 X187.27 Y23.187 E93.21811
G1 X188.176 Y23.481 E93.32098
G1 X188.838 Y23.78 E93.39943
G1 X189.662 Y24.219 E93.50026
G1 X190.291 Y24.647 E93.58243
G1 X191.018 Y25.218 E93.68227
G1 X191.538 Y25.725 E93.7607
G1 X192.16 Y26.418 E93.86127
G1 X192.572 Y26.988 E93.93723
G1 X193.075 Y27.792 E94.03966
G1 X193.406 Y28.474 E94.12153
G1 X193.75 Y29.329 E94.22106
G1 X193.959 Y30.068 E94.30401
G1 X194.145 Y30.955 E94.40188
G1 X194.218 Y31.66 E94.47843
G1 X194.258 Y32.289 E94.5465
G1 X194.272 Y33.151 E94.63961
G1 X194.272 Y40.006 E95.37995
G1 X194.311 Y42.787 E95.68033
G1 X194.427 Y45.516 E95.97533
G1 X194.621 Y48.245 E96.2708
G1 X194.886 Y50.92 E96.56112
G1 X195.236 Y53.66 E96.85944
G1 X195.654 Y56.317 E97.14992
G1 X196.201 Y59.246 E97.47173
G1 X196.26 Y59.797 E97.53157
G1 X196.272 Y60.235 E97.5789
G1 X196.272 Y71.223 E98.7656
G1 X196.257 Y72.286 E98.88042
G1 X196.257 Y75.063 E99.18033
G1 X196.272 Y75.959 E99.27711
G1 X196.266 Y79.606 E99.67099
G1 X196.272 Y80.167 E99.73158
G1 X196.271 Y94.216 E101.24887
G1 X196.258 Y94.957 E101.32891
G1 X196.145 Y96.231 E101.46705
G1 X196.076 Y96.839 E101.53313
G1 X195.844 Y99.552 E101.8272
G1 X195.687 Y102.28 E102.12232
G1 X195.609 Y104.975 E102.4135
G1 X195.607 Y107.723 E102.71028
G1 X195.669 Y110.319 E102.99073
G1 X195.669 Y142.291 E106.44371
G1 X195.658 Y142.998 E106.52007
G1 X195.598 Y143.598 E106.58519
G1 X195.365 Y144.855 E106.72326
G1 X194.907 Y147.528 E107.01615
G1 X194.52 Y150.247 E107.31277
G1 X194.212 Y152.956 E107.60722
G1 X193.982 Y155.672 E107.9016
G1 X193.829 Y158.369 E108.19334
G1 X193.752 Y161.132 E108.49186
G1 X193.752 Y163.827 E108.78292
G1 X193.831 Y166.594 E109.08188
G1 X193.984 Y169.286 E109.37309
G1 X194.215 Y172.003 E109.66758
G1 X194.524 Y174.718 E109.96269
G1 X194.91 Y177.426 E110.25811
G1 X195.373 Y180.123 E110.55365
G1 X195.594 Y181.276 E110.68044
G1 X195.657 Y181.846 E110.74238
G1 X195.669 Y182.286 E110.78992
G1 X195.669 Y191.251 E111.75814
G1 X195.66 Y191.978 E111.83666
G1 X195.613 Y192.512 E111.89455
G1 X195.488 Y193.033 E111.95242
G1 X195.286 Y193.53 E112.01036
G1 X195.013 Y193.992 E112.06831
G1 X194.675 Y194.408 E112.1262
G1 X194.278 Y194.769 E112.18415
G1 X193.832 Y195.067 E112.24208
G1 X193.347 Y195.295 E112.29996
G1 X192.833 Y195.449 E112.35791
G1 X192.161 Y195.532 E112.43104
G1 X191.739 Y195.542 E112.47663
G1 X94.236 Y195.541 E123.00695
G1 X93.511 Y195.527 E123.08527
G1 X92.723 Y195.424 E123.1711
G1 X91.634 Y195.157 E123.29219
G1 X90.892 Y194.965 E123.37497
G1 X88.277 Y194.366 E123.6647
G1 X85.544 Y193.822 E123.96566
G1 X82.91 Y193.374 E124.25421
G1 X80.167 Y192.987 E124.55339
G1 X77.49 Y192.686 E124.84433
G1 X74.796 Y192.46 E125.1363
G1 X72.04 Y192.307 E125.43441
G1 X69.308 Y192.233 E125.72957
G1 X66.578 Y192.237 E126.02441
G1 X63.886 Y192.316 E126.31528
G1 X61.154 Y192.475 E126.61083
G1 X58.434 Y192.709 E126.90568
G1 X55.698 Y193.023 E127.2031
G1 X53.046 Y193.405 E127.49248
G1 X50.31 Y193.877 E127.79233
G1 X47.715 Y194.398 E128.07818
G1 X43.399 Y195.434 E128.55755
G1 X42.66 Y195.532 E128.63806
G1 X42.239 Y195.542 E128.68354
G1 X23.76 Y195.542 E130.67927
G1 X23.062 Y195.533 E130.75466
G1 X22.527 Y195.486 E130.81267
G1 X22.006 Y195.36 E130.87056
G1 X21.509 Y195.158 E130.9285
G1 X21.048 Y194.885 E130.98636
G1 X20.632 Y194.546 E131.04432
G1 X20.271 Y194.15 E131.10219
G1 X19.973 Y193.704 E131.16012
G1 X19.745 Y193.218 E131.2181
G1 X19.592 Y192.704 E131.27601
G1 X19.509 Y192.03 E131.34936
G1 X19.499 Y191.6 E131.39581
G1 X19.499 Y128.628 E138.19678
G1 X19.537 Y125.923 E138.48895
G1 X19.499 Y122.176 E138.89365
G1 X19.499 Y110.623 E140.14137
G1 X19.51 Y109.913 E140.21806
G1 X19.56 Y109.372 E140.27674
G1 X19.936 Y107.133 E140.52194
G1 X20.323 Y104.419 E140.81802
G1 X20.63 Y101.713 E141.11214
G1 X20.863 Y98.984 E141.40794
G1 X21.014 Y96.287 E141.69967
G1 X21.102 Y92.161 E142.14538
G1 X21.102 Y60.774 E145.53518
G1 X21.063 Y57.993 E145.83556
G1 X20.947 Y55.265 E146.13045
G1 X20.753 Y52.535 E146.42603
G1 X20.488 Y49.859 E146.71645
G1 X20.138 Y47.119 E147.01478
G1 X19.719 Y44.456 E147.30592
G1 X19.172 Y41.524 E147.62804
G1 X19.112 Y40.966 E147.68865
G1 X19.102 Y40.51 E147.73791
G1 X19.113 Y39.37 E147.86104
G1 X19.158 Y38.836 E147.91891
G1 X19.255 Y38.404 E147.96673
G1 X19.989 Y35.867 E148.25196
G10
G0 F4500 X19.503 Y40.635
G11
G1 F1800 X19.513 Y39.374 E148.38816
G1 X19.639 Y38.515 E148.48192
G1 X20.377 Y35.965 E148.76862
G1 X21.061 Y33.336 E149.06201
G1 X21.676 Y30.677 E149.35676
G1 X21.873 Y29.899 E149.44344
G1 X22.139 Y29.077 E149.53674
G1 X22.443 Y28.399 E149.61699
G1 X22.846 Y27.64 E149.7098
G1 X23.268 Y27.02 E149.7908
G1 X23.802 Y26.337 E149.88443
G1 X24.296 Y25.83 E149.96088
G1 X24.949 Y25.241 E150.05586
G1 X25.539 Y24.814 E150.13452
G1 X26.27 Y24.358 E150.22756
G1 X26.921 Y24.042 E150.30572
G1 X27.744 Y23.708 E150.40164
G1 X28.444 Y23.51 E150.48021
G1 X29.297 Y23.329 E150.57438
G1 X29.981 Y23.26 E150.64863
G1 X30.612 Y23.218 E150.71693
G1 X31.405 Y23.205 E150.80259
G1 X44.809 Y23.205 E152.25022
G1 X47.606 Y23.165 E152.55232
G1 X50.323 Y23.05 E152.84602
G1 X53.07 Y22.855 E153.14345
G1 X55.774 Y22.587 E153.43691
G1 X58.498 Y22.239 E153.73349
G1 X61.184 Y21.817 E154.02714
G1 X64.125 Y21.268 E154.35025
G1 X64.942 Y21.206 E154.43874
G1 X73.511 Y21.205 E155.36419
G1 X74.212 Y21.215 E155.43991
G1 X74.761 Y21.271 E155.49951
G1 X76.377 Y21.577 E155.67714
G1 X79.104 Y22.044 E155.97594
G1 X81.785 Y22.423 E156.26837
G1 X84.525 Y22.734 E156.56619
G1 X87.268 Y22.966 E156.86349
G1 X89.989 Y23.119 E157.15782
G1 X94.075 Y23.205 E157.59921
G1 X184.023 Y23.205 E167.31359
G1 X184.867 Y23.223 E167.40477
G1 X185.615 Y23.279 E167.48578
G1 X186.484 Y23.401 E167.58055
G1 X187.163 Y23.572 E167.65617
G1 X188.012 Y23.846 E167.75252
G1 X188.664 Y24.14 E167.82976
G1 X189.437 Y24.55 E167.92426
G1 X190.057 Y24.972 E168.00526
G1 X190.74 Y25.506 E168.09889
G1 X191.251 Y26.003 E168.17588
G1 X191.837 Y26.654 E168.27048
G1 X192.241 Y27.213 E168.34497
G1 X192.716 Y27.968 E168.4413
G1 X193.041 Y28.637 E168.52163
G1 X193.365 Y29.439 E168.61505
G1 X193.572 Y30.165 E168.69658
G1 X193.747 Y30.997 E168.7884
G1 X193.819 Y31.689 E168.86354
G1 X193.858 Y32.295 E168.92912
G1 X193.872 Y33.157 E169.02223
G1 X193.872 Y40.012 E169.76257
G1 X193.912 Y42.81 E170.06479
G1 X194.027 Y45.527 E170.35848
G1 X194.222 Y48.273 E170.6558
G1 X194.49 Y50.977 E170.94926
G1 X194.838 Y53.701 E171.24585
G1 X195.26 Y56.387 E171.53949
G1 X195.808 Y59.32 E171.86174
G1 X195.871 Y60.137 E171.95024
G1 X195.872 Y71.217 E173.14688
G1 X195.857 Y72.28 E173.26169
G1 X195.857 Y75.009 E173.55642
G1 X195.872 Y75.958 E173.65893
G1 X195.866 Y79.605 E174.0528
G1 X195.872 Y80.171 E174.11394
G1 X195.872 Y94.209 E175.63004
G1 X195.859 Y94.95 E175.71008
G1 X195.747 Y96.191 E175.84465
G1 X195.677 Y96.796 E175.91043
G1 X195.447 Y99.496 E176.20308
G1 X195.289 Y102.245 E176.50047
G1 X195.209 Y104.999 E176.79802
G1 X195.207 Y107.731 E177.09308
G1 X195.269 Y110.319 E177.37266
G1 X195.269 Y142.285 E180.82499
G1 X195.258 Y142.992 E180.90136
G1 X195.204 Y143.525 E180.95922
G1 X194.979 Y144.739 E181.09256
G1 X194.51 Y147.481 E181.393
G1 X194.126 Y150.177 E181.6871
G1 X193.815 Y152.913 E181.9845
G1 X193.583 Y155.651 E182.28126
G1 X193.429 Y158.37 E182.57538
G1 X193.352 Y161.12 E182.8725
G1 X193.352 Y163.838 E183.16604
G1 X193.431 Y166.594 E183.46381
G1 X193.587 Y169.339 E183.76075
G1 X193.817 Y172.048 E184.05438
G1 X194.125 Y174.753 E184.3484
G1 X194.513 Y177.474 E184.64524
G1 X194.973 Y180.159 E184.93945
G1 X195.202 Y181.352 E185.07064
G1 X195.268 Y182.189 E185.16132
G1 X195.269 Y191.246 E186.13948
G1 X195.26 Y191.973 E186.218
G1 X195.214 Y192.476 E186.27255
G1 X195.089 Y192.966 E186.32716
G1 X194.617 Y193.857 E186.43606
G1 X193.892 Y194.557 E186.5449
G1 X193.456 Y194.813 E186.59951
G1 X192.491 Y195.104 E186.70836
G1 X191.829 Y195.141 E186.77997
G1 X94.244 Y195.141 E197.31915
G1 X93.519 Y195.127 E197.39746
G1 X92.818 Y195.036 E197.47381
G1 X91.735 Y194.769 E197.59427
G1 X91.017 Y194.583 E197.67438
G1 X88.339 Y193.97 E197.97108
G1 X85.652 Y193.435 E198.26697
G1 X82.961 Y192.978 E198.56176
G1 X80.231 Y192.592 E198.85954
G1 X77.533 Y192.289 E199.15275
G1 X74.784 Y192.058 E199.45069
G1 X72.072 Y191.908 E199.74403
G1 X69.318 Y191.833 E200.04158
G1 X66.601 Y191.837 E200.33501
G1 X63.852 Y191.918 E200.63203
G1 X61.097 Y192.078 E200.93007
G1 X58.386 Y192.311 E201.22394
G1 X55.666 Y192.623 E201.51963
G1 X52.957 Y193.013 E201.81522
G1 X50.269 Y193.477 E202.10981
G1 X47.627 Y194.008 E202.40086
G1 X43.306 Y195.045 E202.88077
