;FLAVOR:UltiGCode
;TIME:1866
;MATERIAL:2977
;MATERIAL2:0
;NOZZLE_DIAMETER:0.4
;MINX:88.515
;MINY:23.515
;MINZ:0.27
;MAXX:134.485
;MAXY:199.485
;MAXZ:2.07
;Generated with Cura_SteamEngine 5.0.0
M82 ;absolute extrusion mode
G0 F3000 Y50 ;avoid prime blob
G92 E0
G92 E0
G10
;LAYER_COUNT:13
;LAYER:0
M107
G0 F4500 X88.904 Y37.821 Z0.27
G0 X88.515 Y40.165
;TYPE:SKIRT
G11
G1 F1800 X88.525 Y39.463 E0.07582
G1 X88.573 Y38.9 E0.13685
G1 X88.7 Y38.349 E0.19792
G1 X88.904 Y37.821 E0.25905
G1 X89.179 Y37.328 E0.32002
G1 X89.522 Y36.878 E0.38112
G1 X89.924 Y36.481 E0.44214
G1 X90.299 Y36.197 E0.49295
G1 X91.576 Y35.341 E0.65898
G1 X93.85 Y33.757 E0.95828
G1 X96.028 Y32.145 E1.25093
G1 X98.168 Y30.468 E1.54456
G1 X100.262 Y28.727 E1.83866
G1 X102.288 Y26.944 E2.13014
G1 X104.775 Y24.62 E2.49775
G1 X105.212 Y24.261 E2.55883
G1 X105.695 Y23.968 E2.61985
G1 X106.215 Y23.745 E2.68095
G1 X106.76 Y23.598 E2.74192
G1 X107.413 Y23.526 E2.81287
G1 X107.845 Y23.515 E2.85954
G1 X109.835 Y23.515 E3.07446
G1 X110.764 Y23.535 E3.17481
G1 X112.287 Y23.645 E3.33973
G1 X115.046 Y23.8 E3.63817
G1 X117.717 Y23.875 E3.92675
G1 X120.461 Y23.873 E4.2231
G1 X123.133 Y23.796 E4.5118
G1 X125.903 Y23.639 E4.81144
G1 X127.413 Y23.526 E4.97497
G1 X127.845 Y23.515 E5.02164
G1 X129.835 Y23.515 E5.23656
G1 X130.533 Y23.525 E5.31196
G1 X131.097 Y23.573 E5.37309
G1 X131.647 Y23.7 E5.43405
G1 X132.175 Y23.904 E5.49518
G1 X132.669 Y24.179 E5.55625
G1 X133.118 Y24.522 E5.61727
G1 X133.515 Y24.924 E5.67829
G1 X133.852 Y25.379 E5.73944
G1 X134.12 Y25.876 E5.80042
G1 X134.316 Y26.406 E5.86145
G1 X134.436 Y26.959 E5.92256
G1 X134.483 Y27.733 E6.00631
G1 X134.485 Y36.65 E6.96934
G1 X134.465 Y37.985 E7.11354
G1 X134.424 Y39.352 E7.26124
G1 X134.42 Y42.091 E7.55706
G1 X134.453 Y43.677 E7.72838
G1 X134.485 Y44.82 E7.85187
G1 X134.485 Y53.45 E8.78391
G1 X134.466 Y54.7 E8.91893
G1 X134.421 Y56.19 E9.07992
G1 X134.415 Y58.93 E9.37584
G1 X134.449 Y60.583 E9.5544
G1 X134.485 Y61.856 E9.69194
G1 X134.485 Y70.251 E10.5986
G1 X134.466 Y71.488 E10.73221
G1 X134.418 Y73.1 E10.90639
G1 X134.413 Y75.845 E11.20285
G1 X134.445 Y77.43 E11.37406
G1 X134.485 Y78.851 E11.52759
G1 X134.485 Y87.05 E12.41308
G1 X134.468 Y88.174 E12.53449
G1 X134.414 Y89.954 E12.72682
G1 X134.408 Y92.692 E13.02252
G1 X134.442 Y94.336 E13.20011
G1 X134.485 Y95.849 E13.36358
G1 X134.485 Y103.85 E14.22769
G1 X134.469 Y104.897 E14.34078
G1 X134.408 Y107.026 E14.57081
G1 X134.408 Y109.769 E14.86705
G1 X134.44 Y111.261 E15.02822
G1 X134.485 Y112.835 E15.19829
G1 X134.485 Y120.651 E16.04241
G1 X134.469 Y121.67 E16.15248
G1 X134.405 Y123.944 E16.39817
G1 X134.405 Y126.689 E16.69463
G1 X134.436 Y128.124 E16.84964
G1 X134.485 Y129.843 E17.03537
G1 X134.485 Y137.449 E17.85682
G1 X134.471 Y138.368 E17.95608
G1 X134.401 Y140.866 E18.22597
G1 X134.403 Y143.61 E18.52233
G1 X134.433 Y144.992 E18.67162
G1 X134.485 Y146.82 E18.86912
G1 X134.485 Y154.25 E19.67156
G1 X134.472 Y155.082 E19.76143
G1 X134.397 Y157.733 E20.04785
G1 X134.397 Y160.45 E20.34129
G1 X134.447 Y161.977 E20.50629
G1 X134.438 Y162.203 E20.53072
G1 X134.485 Y163.845 E20.70813
G1 X134.484 Y171.059 E21.48724
G1 X134.47 Y171.895 E21.57754
G1 X134.392 Y174.651 E21.87531
G1 X134.392 Y177.367 E22.16863
G1 X134.485 Y180.845 E22.54439
G1 X134.484 Y187.868 E23.30288
G1 X134.457 Y189.079 E23.4337
G1 X134.406 Y189.718 E23.50293
G1 X134.262 Y190.643 E23.60403
G1 X134.123 Y191.25 E23.67128
G1 X133.912 Y191.969 E23.75221
G1 X133.59 Y192.816 E23.85007
G1 X133.323 Y193.39 E23.91844
G1 X132.972 Y194.043 E23.99851
G1 X132.454 Y194.843 E24.10144
G1 X132.075 Y195.345 E24.16937
G1 X131.598 Y195.907 E24.24899
G1 X130.958 Y196.549 E24.34689
G1 X130.462 Y196.981 E24.41793
G1 X129.889 Y197.422 E24.49602
G1 X129.076 Y197.95 E24.60071
G1 X128.559 Y198.237 E24.66457
G1 X127.871 Y198.566 E24.74694
G1 X127.045 Y198.885 E24.84257
G1 X126.421 Y199.076 E24.91305
G1 X125.693 Y199.253 E24.99396
G1 X124.792 Y199.397 E25.0925
G1 X124.15 Y199.453 E25.1621
G1 X123.443 Y199.479 E25.23851
G1 X122.955 Y199.485 E25.29122
G1 X113.165 Y199.485 E26.34854
G1 X111.641 Y199.462 E26.51315
G1 X110.436 Y199.428 E26.64334
G1 X107.191 Y199.436 E26.9938
G1 X104.569 Y199.485 E27.27703
G1 X93.165 Y199.485 E28.50866
G1 X92.467 Y199.475 E28.58405
G1 X91.903 Y199.427 E28.64518
G1 X91.353 Y199.3 E28.70615
G1 X90.825 Y199.096 E28.76728
G1 X90.331 Y198.821 E28.82834
G1 X89.882 Y198.478 E28.88936
G1 X89.485 Y198.076 E28.95038
G1 X89.148 Y197.621 E29.01153
G1 X88.88 Y197.124 E29.07251
G1 X88.684 Y196.594 E29.13354
G1 X88.564 Y196.041 E29.19466
G1 X88.516 Y195.251 E29.28013
G1 X88.516 Y193.132 E29.50899
G1 X88.537 Y192.156 E29.61442
G1 X88.681 Y189.616 E29.88918
G1 X88.757 Y186.946 E30.17766
G1 X88.757 Y184.202 E30.47401
G1 X88.681 Y181.503 E30.76561
G1 X88.606 Y179.998 E30.92836
G1 X88.526 Y178.587 E31.08099
G1 X88.515 Y178.156 E31.12755
G1 X88.516 Y176.146 E31.34463
G1 X88.537 Y175.156 E31.45158
G1 X88.681 Y172.616 E31.72634
G1 X88.757 Y169.946 E32.01481
G1 X88.757 Y167.202 E32.31117
G1 X88.681 Y164.503 E32.60277
G1 X88.606 Y162.998 E32.76552
G1 X88.526 Y161.587 E32.91815
G1 X88.515 Y161.156 E32.96471
G1 X88.516 Y159.146 E33.18179
G1 X88.537 Y158.156 E33.28874
G1 X88.681 Y155.616 E33.5635
G1 X88.757 Y152.946 E33.85197
G1 X88.757 Y150.202 E34.14832
G1 X88.681 Y147.503 E34.43993
G1 X88.606 Y145.998 E34.60267
G1 X88.526 Y144.587 E34.75531
G1 X88.515 Y144.156 E34.80187
G1 X88.516 Y142.146 E35.01895
G1 X88.537 Y141.156 E35.12589
G1 X88.681 Y138.616 E35.40065
G1 X88.757 Y135.946 E35.68913
G1 X88.757 Y133.202 E35.98548
G1 X88.681 Y130.503 E36.27709
G1 X88.606 Y128.998 E36.43983
G1 X88.526 Y127.587 E36.59246
G1 X88.515 Y127.156 E36.63903
G1 X88.516 Y125.146 E36.85611
G1 X88.537 Y124.156 E36.96305
G1 X88.681 Y121.616 E37.23781
G1 X88.757 Y118.946 E37.52629
G1 X88.757 Y116.202 E37.82264
G1 X88.681 Y113.503 E38.11425
G1 X88.606 Y111.998 E38.27699
G1 X88.526 Y110.587 E38.42962
G1 X88.515 Y110.156 E38.47619
G1 X88.516 Y108.146 E38.69327
G1 X88.537 Y107.156 E38.80021
G1 X88.681 Y104.616 E39.07497
G1 X88.757 Y101.946 E39.36345
G1 X88.757 Y99.202 E39.6598
G1 X88.681 Y96.503 E39.95141
G1 X88.606 Y94.998 E40.11415
G1 X88.526 Y93.587 E40.26678
G1 X88.515 Y93.156 E40.31334
G1 X88.516 Y91.146 E40.53043
G1 X88.537 Y90.156 E40.63737
G1 X88.681 Y87.616 E40.91213
G1 X88.757 Y84.946 E41.20061
G1 X88.757 Y82.202 E41.49696
G1 X88.681 Y79.503 E41.78857
G1 X88.606 Y77.998 E41.95131
G1 X88.526 Y76.587 E42.10394
G1 X88.515 Y76.156 E42.1505
G1 X88.516 Y74.146 E42.36758
G1 X88.537 Y73.156 E42.47453
G1 X88.681 Y70.616 E42.74929
G1 X88.757 Y67.946 E43.03776
G1 X88.757 Y65.202 E43.33412
G1 X88.681 Y62.503 E43.62572
G1 X88.606 Y60.998 E43.78847
G1 X88.526 Y59.587 E43.9411
G1 X88.515 Y59.156 E43.98766
G1 X88.516 Y57.146 E44.20474
G1 X88.537 Y56.156 E44.31169
G1 X88.681 Y53.616 E44.58645
G1 X88.757 Y50.946 E44.87492
G1 X88.757 Y48.202 E45.17128
G1 X88.681 Y45.503 E45.46288
G1 X88.606 Y43.998 E45.62562
G1 X88.526 Y42.584 E45.77858
G1 X88.515 Y42.15 E45.82547
G1 X88.515 Y40.165 E46.03985
G0 F4500 X88.915 Y40.171
G1 F1800 X88.925 Y39.469 E46.11567
G1 X88.973 Y38.935 E46.17358
G1 X89.099 Y38.413 E46.23157
G1 X89.302 Y37.917 E46.28945
G1 X89.576 Y37.456 E46.34737
G1 X89.915 Y37.04 E46.40533
G1 X90.521 Y36.529 E46.49094
G1 X91.831 Y35.652 E46.6612
G1 X94.071 Y34.091 E46.95606
G1 X96.29 Y32.449 E47.25419
G1 X98.425 Y30.775 E47.5472
G1 X100.499 Y29.051 E47.83847
G1 X102.561 Y27.236 E48.13515
G1 X105.05 Y24.911 E48.503
G1 X105.466 Y24.572 E48.56095
G1 X105.927 Y24.298 E48.61887
G1 X106.424 Y24.097 E48.67677
G1 X106.946 Y23.971 E48.73477
G1 X107.743 Y23.916 E48.82105
G1 X109.83 Y23.915 E49.04644
G1 X110.735 Y23.934 E49.1442
G1 X112.286 Y24.046 E49.31215
G1 X114.976 Y24.198 E49.60313
G1 X117.742 Y24.275 E49.90197
G1 X120.437 Y24.273 E50.19304
G1 X123.202 Y24.194 E50.49178
G1 X125.908 Y24.04 E50.7845
G1 X127.424 Y23.925 E50.9487
G1 X127.845 Y23.915 E50.99418
G1 X129.83 Y23.915 E51.20856
G1 X130.528 Y23.925 E51.28395
G1 X131.062 Y23.973 E51.34185
G1 X131.583 Y24.099 E51.39974
G1 X132.08 Y24.302 E51.45772
G1 X132.541 Y24.576 E51.51564
G1 X132.956 Y24.915 E51.57352
G1 X133.316 Y25.313 E51.63147
G1 X133.613 Y25.759 E51.68935
G1 X133.841 Y26.245 E51.74732
G1 X133.993 Y26.759 E51.80521
G1 X134.075 Y27.424 E51.87757
G1 X134.085 Y27.845 E51.92306
G1 X134.085 Y36.644 E52.87335
G1 X134.065 Y37.973 E53.0169
G1 X134.024 Y39.339 E53.16449
G1 X134.02 Y42.1 E53.46268
G1 X134.053 Y43.689 E53.63433
G1 X134.085 Y44.82 E53.75652
G1 X134.085 Y53.445 E54.68802
G1 X134.066 Y54.688 E54.82228
G1 X134.021 Y56.178 E54.98328
G1 X134.015 Y58.938 E55.28136
G1 X134.049 Y60.595 E55.46035
G1 X134.085 Y61.856 E55.5966
G1 X134.085 Y70.245 E56.50261
G1 X134.066 Y71.476 E56.63557
G1 X134.018 Y73.087 E56.80964
G1 X134.013 Y75.853 E57.10836
G1 X134.045 Y77.442 E57.28001
G1 X134.085 Y78.851 E57.43225
G1 X134.085 Y87.044 E58.31709
G1 X134.068 Y88.161 E58.43774
G1 X134.014 Y89.94 E58.62996
G1 X134.008 Y92.699 E58.92793
G1 X134.042 Y94.348 E59.10606
G1 X134.085 Y95.849 E59.26824
G1 X134.085 Y103.844 E60.1317
G1 X134.07 Y104.885 E60.24414
G1 X134.008 Y107.049 E60.47794
G1 X134.008 Y109.778 E60.77268
G1 X134.04 Y111.273 E60.93417
G1 X134.085 Y112.835 E61.10294
G1 X134.085 Y120.645 E61.94642
G1 X134.07 Y121.658 E62.05584
G1 X134.005 Y123.967 E62.30531
G1 X134.005 Y126.697 E62.60015
G1 X134.036 Y128.135 E62.75549
G1 X134.085 Y129.843 E62.94003
G1 X134.085 Y137.443 E63.76083
G1 X134.072 Y138.357 E63.85955
G1 X134.001 Y140.89 E64.13322
G1 X134.003 Y143.619 E64.42795
G1 X134.033 Y145.004 E64.57757
G1 X134.085 Y146.82 E64.77377
G1 X134.085 Y154.244 E65.57557
G1 X134.073 Y155.071 E65.66489
G1 X133.997 Y157.758 E65.9552
G1 X133.997 Y160.463 E66.24734
G1 X134.047 Y161.99 E66.41235
G1 X134.038 Y162.208 E66.43591
G1 X134.085 Y163.845 E66.61278
G1 X134.085 Y171.052 E67.39114
G1 X134.071 Y171.884 E67.48101
G1 X133.992 Y174.676 E67.78266
G1 X133.992 Y177.378 E68.07448
G1 X134.085 Y180.845 E68.44905
G1 X134.084 Y187.861 E69.20678
G1 X134.058 Y189.051 E69.33533
G1 X134.01 Y189.667 E69.40206
G1 X133.868 Y190.574 E69.50121
G1 X133.738 Y191.141 E69.56403
G1 X133.534 Y191.839 E69.64257
G1 X133.218 Y192.668 E69.73839
G1 X132.969 Y193.203 E69.80212
G1 X132.629 Y193.837 E69.87981
G1 X132.121 Y194.62 E69.98062
G1 X131.769 Y195.088 E70.04386
G1 X131.305 Y195.635 E70.12133
G1 X130.679 Y196.262 E70.21702
G1 X130.215 Y196.666 E70.28346
G1 X129.661 Y197.094 E70.35907
G1 X128.864 Y197.611 E70.46167
G1 X128.384 Y197.878 E70.52099
G1 X127.716 Y198.197 E70.60094
G1 X126.907 Y198.51 E70.69462
G1 X126.323 Y198.688 E70.76056
G1 X125.618 Y198.86 E70.83893
G1 X124.735 Y199.001 E70.9355
G1 X124.135 Y199.053 E71.00055
G1 X123.438 Y199.079 E71.07588
G1 X122.95 Y199.085 E71.12858
G1 X113.171 Y199.085 E72.18472
G1 X111.652 Y199.063 E72.34878
G1 X110.413 Y199.028 E72.48265
G1 X107.183 Y199.036 E72.83149
G1 X104.569 Y199.085 E73.11385
G1 X93.17 Y199.085 E74.34494
G1 X92.472 Y199.075 E74.42034
G1 X91.938 Y199.027 E74.47824
G1 X91.417 Y198.901 E74.53613
G1 X90.92 Y198.698 E74.59411
G1 X90.459 Y198.424 E74.65203
G1 X90.044 Y198.085 E74.7099
G1 X89.684 Y197.687 E74.76786
G1 X89.387 Y197.241 E74.82573
G1 X89.159 Y196.755 E74.88371
G1 X89.007 Y196.241 E74.9416
G1 X88.925 Y195.573 E75.01428
G1 X88.915 Y195.143 E75.06074
G1 X88.916 Y193.139 E75.27717
G1 X88.937 Y192.179 E75.38087
G1 X89.079 Y189.686 E75.65055
G1 X89.157 Y186.921 E75.94929
G1 X89.157 Y184.227 E76.24024
G1 X89.079 Y181.471 E76.53801
G1 X89.005 Y179.978 E76.69945
G1 X88.925 Y178.575 E76.85122
G1 X88.915 Y178.156 E76.89649
G1 X88.916 Y176.153 E77.11281
G1 X88.937 Y175.179 E77.21803
G1 X89.079 Y172.686 E77.48771
G1 X89.157 Y169.921 E77.78645
G1 X89.157 Y167.227 E78.0774
G1 X89.079 Y164.462 E78.37614
G1 X89.005 Y162.978 E78.53661
G1 X88.925 Y161.575 E78.68838
G1 X88.915 Y161.156 E78.73365
G1 X88.916 Y159.153 E78.94997
G1 X88.937 Y158.179 E79.05519
G1 X89.079 Y155.686 E79.32487
G1 X89.157 Y152.921 E79.6236
G1 X89.157 Y150.227 E79.91456
G1 X89.079 Y147.471 E80.21232
G1 X89.005 Y145.978 E80.37377
G1 X88.925 Y144.575 E80.52554
G1 X88.915 Y144.156 E80.5708
G1 X88.916 Y142.153 E80.78712
G1 X88.937 Y141.179 E80.89234
G1 X89.079 Y138.686 E81.16202
G1 X89.157 Y135.921 E81.46076
G1 X89.157 Y133.227 E81.75171
G1 X89.079 Y130.471 E82.04948
G1 X89.005 Y128.978 E82.21092
G1 X88.925 Y127.575 E82.36269
G1 X88.915 Y127.156 E82.40796
G1 X88.916 Y125.153 E82.62428
G1 X88.937 Y124.179 E82.7295
G1 X89.08 Y121.658 E83.0022
G1 X89.157 Y118.921 E83.29792
G1 X89.157 Y116.227 E83.58887
G1 X89.079 Y113.471 E83.88663
G1 X89.005 Y111.978 E84.04808
G1 X88.925 Y110.575 E84.19985
G1 X88.915 Y110.156 E84.24511
G1 X88.916 Y108.153 E84.46144
G1 X88.937 Y107.179 E84.56665
G1 X89.079 Y104.686 E84.83633
G1 X89.157 Y101.921 E85.13507
G1 X89.157 Y99.227 E85.42602
G1 X89.079 Y96.471 E85.72379
G1 X89.005 Y94.978 E85.88523
G1 X88.925 Y93.575 E86.037
G1 X88.915 Y93.156 E86.08227
G1 X88.916 Y91.153 E86.29859
G1 X88.937 Y90.179 E86.40381
G1 X89.079 Y87.686 E86.67349
G1 X89.157 Y84.921 E86.97223
G1 X89.157 Y82.227 E87.26318
G1 X89.079 Y79.471 E87.56095
G1 X89.005 Y77.978 E87.72239
G1 X88.925 Y76.575 E87.87416
G1 X88.915 Y76.156 E87.91942
G1 X88.916 Y74.153 E88.13575
G1 X88.937 Y73.179 E88.24096
G1 X89.079 Y70.686 E88.51064
G1 X89.157 Y67.921 E88.80938
G1 X89.157 Y65.227 E89.10034
G1 X89.079 Y62.471 E89.3981
G1 X89.005 Y60.978 E89.55954
G1 X88.925 Y59.575 E89.71131
G1 X88.915 Y59.156 E89.75658
G1 X88.916 Y57.153 E89.9729
G1 X88.937 Y56.179 E90.07812
G1 X89.079 Y53.686 E90.3478
G1 X89.157 Y50.921 E90.64654
G1 X89.157 Y48.227 E90.93749
G1 X89.079 Y45.471 E91.23526
G1 X89.005 Y43.978 E91.3967
G1 X88.925 Y42.573 E91.54869
G1 X88.915 Y42.15 E91.59438
G1 X88.915 Y40.171 E91.80811
G0 F4500 X89.315 Y40.176
G1 F1800 X89.325 Y39.474 E91.88394
G1 X89.372 Y38.971 E91.9385
G1 X89.498 Y38.481 E91.99314
G1 X89.971 Y37.591 E92.10199
G1 X90.307 Y37.213 E92.15661
G1 X90.744 Y36.861 E92.21722
G1 X92.061 Y35.979 E92.3884
G1 X94.315 Y34.408 E92.68513
G1 X96.506 Y32.787 E92.97948
G1 X98.665 Y31.095 E93.27572
G1 X100.79 Y29.328 E93.5742
G1 X102.815 Y27.545 E93.86559
G1 X105.325 Y25.201 E94.2365
G1 X105.719 Y24.883 E94.29118
G1 X106.63 Y24.452 E94.40003
G1 X107.436 Y24.325 E94.48815
G1 X107.845 Y24.315 E94.53233
G1 X109.824 Y24.315 E94.74606
G1 X110.706 Y24.333 E94.84134
G1 X112.245 Y24.444 E95.00798
G1 X114.98 Y24.598 E95.30383
G1 X117.73 Y24.675 E95.60095
G1 X120.449 Y24.673 E95.8946
G1 X123.202 Y24.594 E96.19205
G1 X125.961 Y24.437 E96.4905
G1 X127.435 Y24.325 E96.65015
G1 X127.845 Y24.315 E96.69445
G1 X129.824 Y24.315 E96.90818
G1 X130.522 Y24.325 E96.98357
G1 X131.025 Y24.372 E97.03813
G1 X131.515 Y24.498 E97.09277
G1 X132.405 Y24.972 E97.20167
G1 X132.783 Y25.307 E97.25622
G1 X133.358 Y26.135 E97.36509
G1 X133.648 Y27.1 E97.47392
G1 X133.684 Y27.755 E97.54477
G1 X133.685 Y36.638 E98.50413
G1 X133.666 Y37.961 E98.64703
G1 X133.624 Y39.362 E98.7984
G1 X133.62 Y42.107 E99.09486
G1 X133.654 Y43.7 E99.26695
G1 X133.685 Y44.82 E99.38795
G1 X133.685 Y53.439 E100.31881
G1 X133.667 Y54.676 E100.45242
G1 X133.621 Y56.2 E100.61708
G1 X133.615 Y58.946 E100.91365
G1 X133.65 Y60.607 E101.09308
G1 X133.685 Y61.856 E101.22802
G1 X133.685 Y70.239 E102.13339
G1 X133.667 Y71.464 E102.2657
G1 X133.618 Y73.11 E102.44355
G1 X133.613 Y75.88 E102.74271
G1 X133.646 Y77.454 E102.91274
G1 X133.685 Y78.851 E103.06367
G1 X133.685 Y87.038 E103.94787
G1 X133.669 Y88.149 E104.06787
G1 X133.614 Y89.962 E104.26376
G1 X133.608 Y92.706 E104.56012
G1 X133.643 Y94.36 E104.73879
G1 X133.685 Y95.849 E104.89966
G1 X133.685 Y103.838 E105.76248
