;FLAVOR:UltiGCode
;TIME:4307
;MATERIAL:7096
;MATERIAL2:0
;NOZZLE_DIAMETER:0.4
;MINX:23.015
;MINY:66.515
;MINZ:0.27
;MAXX:199.985
;MAXY:156.485
;MAXZ:11.07
;Generated with Cura_SteamEngine 5.0.0
M82 ;absolute extrusion mode
G0 F3000 Y50 ;avoid prime blob
G92 E0
G92 E0
G10
;LAYER_COUNT:73
;LAYER:0
M107
G0 F4500 X25.372 Y66.881 Z0.27
G0 X23.015 Y71.135
;TYPE:SKIRT
G11
G1 F1800 X23.024 Y70.47 E0.07183
G1 X23.072 Y69.907 E0.13285
G1 X23.198 Y69.356 E0.1939
G1 X23.401 Y68.828 E0.25499
G1 X23.677 Y68.334 E0.3161
G1 X24.019 Y67.884 E0.37715
G1 X24.421 Y67.487 E0.43816
G1 X24.875 Y67.15 E0.49923
G1 X25.372 Y66.881 E0.56026
G1 X25.902 Y66.684 E0.62133
G1 X26.455 Y66.565 E0.68242
G1 X27.233 Y66.517 E0.7666
G1 X65.835 Y66.515 E4.93562
G1 X66.702 Y66.531 E5.02927
G1 X69.15 Y66.665 E5.29405
G1 X71.84 Y66.741 E5.58469
G1 X74.584 Y66.741 E5.88104
G1 X77.289 Y66.664 E6.1733
G1 X79.897 Y66.527 E6.45535
G1 X80.345 Y66.515 E6.50375
G1 X195.335 Y66.515 E18.92267
G1 X196.033 Y66.525 E18.99806
G1 X196.597 Y66.573 E19.0592
G1 X197.147 Y66.7 E19.12016
G1 X197.675 Y66.904 E19.18129
G1 X198.169 Y67.179 E19.24235
G1 X198.618 Y67.522 E19.30337
G1 X199.015 Y67.924 E19.36439
G1 X199.352 Y68.379 E19.42554
G1 X199.62 Y68.876 E19.48653
G1 X199.816 Y69.406 E19.54756
G1 X199.936 Y69.959 E19.60867
G1 X199.983 Y70.733 E19.69242
G1 X199.985 Y102.84 E23.15997
G1 X199.974 Y103.547 E23.23634
G1 X199.907 Y104.214 E23.30873
G1 X199.684 Y105.417 E23.44087
G1 X199.214 Y108.164 E23.74186
G1 X198.831 Y110.855 E24.03542
G1 X198.53 Y113.507 E24.32367
G1 X198.298 Y116.237 E24.61957
G1 X198.143 Y118.98 E24.91629
G1 X198.068 Y121.65 E25.20476
G1 X198.068 Y124.393 E25.50101
G1 X198.145 Y127.069 E25.79014
G1 X198.3 Y129.806 E26.08621
G1 X198.532 Y132.534 E26.38189
G1 X198.836 Y135.2 E26.67169
G1 X199.222 Y137.911 E26.96743
G1 X199.68 Y140.582 E27.26011
G1 X199.903 Y141.744 E27.38789
G1 X199.973 Y142.377 E27.45667
G1 X199.985 Y142.829 E27.50551
G1 X199.985 Y151.799 E28.47427
G1 X199.976 Y152.526 E28.55279
G1 X199.929 Y153.089 E28.6138
G1 X199.803 Y153.64 E28.67485
G1 X199.601 Y154.168 E28.7359
G1 X199.326 Y154.662 E28.79696
G1 X198.984 Y155.112 E28.85801
G1 X198.582 Y155.51 E28.9191
G1 X198.129 Y155.847 E28.98008
G1 X197.632 Y156.117 E29.04116
G1 X197.102 Y156.314 E29.10223
G1 X196.55 Y156.435 E29.16326
G1 X195.767 Y156.483 E29.24798
G1 X98.145 Y156.484 E39.79116
G1 X97.42 Y156.47 E39.86948
G1 X96.857 Y156.419 E39.93053
G1 X96.544 Y156.356 E39.96501
G1 X95.45 Y156.087 E40.08668
G1 X94.724 Y155.899 E40.16768
G1 X92.098 Y155.298 E40.45862
G1 X89.387 Y154.758 E40.75716
G1 X86.774 Y154.314 E41.04341
G1 X84.053 Y153.93 E41.34019
G1 X81.361 Y153.627 E41.63276
G1 X78.658 Y153.4 E41.92571
G1 X75.959 Y153.251 E42.21764
G1 X73.214 Y153.176 E42.51422
G1 X70.505 Y153.18 E42.80679
G1 X67.802 Y153.259 E43.09884
G1 X65.094 Y153.417 E43.3918
G1 X62.394 Y153.649 E43.68447
G1 X59.68 Y153.96 E43.9795
G1 X57.015 Y154.344 E44.27029
G1 X54.301 Y154.812 E44.56773
G1 X51.719 Y155.332 E44.85219
G1 X47.408 Y156.366 E45.33098
G1 X46.587 Y156.474 E45.42041
G1 X46.155 Y156.485 E45.46708
G1 X27.67 Y156.485 E47.46346
G1 X26.972 Y156.476 E47.53885
G1 X26.409 Y156.428 E47.59988
G1 X25.858 Y156.302 E47.66092
G1 X25.33 Y156.1 E47.72198
G1 X24.836 Y155.825 E47.78304
G1 X24.386 Y155.483 E47.84408
G1 X23.988 Y155.081 E47.90518
G1 X23.652 Y154.627 E47.96618
G1 X23.382 Y154.13 E48.02726
G1 X23.185 Y153.6 E48.08833
G1 X23.065 Y153.048 E48.14934
G1 X23.016 Y152.251 E48.23557
G1 X23.015 Y89.165 E55.04886
G1 X23.053 Y86.464 E55.3406
G1 X23.015 Y82.723 E55.74465
G1 X23.015 Y71.135 E56.99615
G0 F4500 X23.415 Y71.14
G1 F1800 X23.424 Y70.475 E57.06798
G1 X23.472 Y69.941 E57.12588
G1 X23.598 Y69.42 E57.18377
G1 X23.8 Y68.923 E57.24171
G1 X24.073 Y68.462 E57.29958
G1 X24.412 Y68.046 E57.35753
G1 X24.809 Y67.686 E57.41541
G1 X25.256 Y67.388 E57.47343
G1 X25.741 Y67.16 E57.53131
G1 X26.255 Y67.007 E57.58923
G1 X26.923 Y66.925 E57.66192
G1 X27.345 Y66.915 E57.70751
G1 X65.829 Y66.915 E61.86378
G1 X66.681 Y66.93 E61.95581
G1 X69.118 Y67.063 E62.2194
G1 X71.865 Y67.141 E62.51619
G1 X74.559 Y67.141 E62.80714
G1 X77.323 Y67.063 E63.10577
G1 X79.909 Y66.927 E63.38545
G1 X80.345 Y66.915 E63.43255
G1 X195.33 Y66.915 E75.85093
G1 X196.028 Y66.925 E75.92633
G1 X196.562 Y66.973 E75.98423
G1 X197.083 Y67.099 E76.04212
G1 X197.58 Y67.302 E76.1001
G1 X198.041 Y67.576 E76.15802
G1 X198.456 Y67.915 E76.21589
G1 X198.816 Y68.313 E76.27385
G1 X199.113 Y68.759 E76.33172
G1 X199.341 Y69.245 E76.3897
G1 X199.493 Y69.759 E76.44759
G1 X199.575 Y70.424 E76.51995
G1 X199.585 Y70.845 E76.56543
G1 X199.585 Y102.834 E80.02024
G1 X199.574 Y103.541 E80.09661
G1 X199.514 Y104.141 E80.16173
G1 X199.281 Y105.398 E80.2998
G1 X198.823 Y108.071 E80.59269
G1 X198.436 Y110.79 E80.8893
G1 X198.128 Y113.499 E81.18376
G1 X197.898 Y116.215 E81.47814
G1 X197.745 Y118.912 E81.76988
G1 X197.668 Y121.675 E82.0684
G1 X197.668 Y124.37 E82.35946
G1 X197.747 Y127.137 E82.65842
G1 X197.9 Y129.829 E82.94963
G1 X198.131 Y132.546 E83.24412
G1 X198.44 Y135.261 E83.53923
G1 X198.826 Y137.969 E83.83465
G1 X199.289 Y140.666 E84.13019
G1 X199.51 Y141.819 E84.25698
G1 X199.573 Y142.389 E84.31892
G1 X199.585 Y142.829 E84.36645
G1 X199.585 Y151.794 E85.33467
G1 X199.576 Y152.521 E85.4132
G1 X199.529 Y153.055 E85.47109
G1 X199.404 Y153.576 E85.52896
G1 X199.202 Y154.073 E85.5869
G1 X198.929 Y154.535 E85.64485
G1 X198.591 Y154.951 E85.70274
G1 X198.194 Y155.312 E85.76069
G1 X197.748 Y155.61 E85.81862
G1 X197.263 Y155.838 E85.8765
G1 X196.749 Y155.992 E85.93445
G1 X196.077 Y156.075 E86.00758
G1 X195.655 Y156.085 E86.05317
G1 X98.152 Y156.084 E96.58349
G1 X97.427 Y156.07 E96.66181
G1 X96.639 Y155.967 E96.74764
G1 X95.55 Y155.7 E96.86873
G1 X94.808 Y155.508 E96.95151
G1 X92.193 Y154.909 E97.24124
G1 X89.46 Y154.365 E97.54219
G1 X86.826 Y153.917 E97.83075
G1 X84.083 Y153.53 E98.12993
G1 X81.406 Y153.229 E98.42087
G1 X78.712 Y153.003 E98.71284
G1 X75.956 Y152.85 E99.01095
G1 X73.224 Y152.776 E99.30611
G1 X70.494 Y152.78 E99.60095
G1 X67.802 Y152.859 E99.89181
G1 X65.07 Y153.018 E100.18737
G1 X62.35 Y153.252 E100.48221
G1 X59.614 Y153.566 E100.77964
G1 X56.962 Y153.948 E101.06901
G1 X54.226 Y154.42 E101.36887
G1 X51.631 Y154.941 E101.65472
G1 X47.315 Y155.977 E102.13409
G1 X46.576 Y156.075 E102.2146
G1 X46.155 Y156.085 E102.26008
G1 X27.676 Y156.085 E104.25581
G1 X26.978 Y156.076 E104.3312
G1 X26.443 Y156.029 E104.3892
G1 X25.922 Y155.903 E104.44709
G1 X25.425 Y155.701 E104.50503
G1 X24.964 Y155.428 E104.5629
G1 X24.548 Y155.089 E104.62085
G1 X24.187 Y154.693 E104.67873
G1 X23.889 Y154.247 E104.73666
G1 X23.661 Y153.761 E104.79463
G1 X23.508 Y153.247 E104.85255
G1 X23.425 Y152.573 E104.9259
G1 X23.415 Y152.143 E104.97235
G1 X23.415 Y89.171 E111.77332
G1 X23.453 Y86.466 E112.06549
G1 X23.415 Y82.719 E112.47019
G1 X23.415 Y71.14 E113.72072
G0 F4500 X23.815 Y71.146
G1 F1800 X23.824 Y70.481 E113.79255
G1 X23.871 Y69.977 E113.84722
G1 X24.198 Y69.024 E113.95603
G1 X24.469 Y68.597 E114.01065
G1 X25.195 Y67.898 E114.11949
G1 X26.103 Y67.459 E114.22842
G1 X26.934 Y67.325 E114.31932
G1 X27.345 Y67.315 E114.36373
G1 X65.823 Y67.315 E118.51935
G1 X66.659 Y67.33 E118.60965
G1 X69.084 Y67.463 E118.87195
G1 X71.854 Y67.541 E119.17122
G1 X74.57 Y67.541 E119.46455
G1 X77.315 Y67.463 E119.76113
G1 X79.922 Y67.327 E120.04307
G1 X80.345 Y67.315 E120.08877
G1 X195.324 Y67.315 E132.50651
G1 X196.022 Y67.325 E132.5819
G1 X196.525 Y67.372 E132.63646
G1 X197.015 Y67.498 E132.6911
G1 X197.905 Y67.972 E132.8
G1 X198.283 Y68.307 E132.85455
G1 X198.858 Y69.135 E132.96342
G1 X199.148 Y70.1 E133.07225
G1 X199.184 Y70.755 E133.14309
G1 X199.185 Y102.828 E136.60698
G1 X199.174 Y103.535 E136.68334
G1 X199.12 Y104.068 E136.7412
G1 X198.895 Y105.282 E136.87455
G1 X198.426 Y108.024 E137.17498
G1 X198.042 Y110.72 E137.46909
G1 X197.731 Y113.456 E137.76648
G1 X197.499 Y116.194 E138.06324
G1 X197.345 Y118.913 E138.35737
G1 X197.268 Y121.663 E138.65448
G1 X197.268 Y124.381 E138.94803
G1 X197.347 Y127.137 E139.2458
G1 X197.503 Y129.882 E139.54274
G1 X197.733 Y132.591 E139.83636
G1 X198.041 Y135.296 E140.13039
G1 X198.429 Y138.017 E140.42723
G1 X198.889 Y140.702 E140.72143
G1 X199.118 Y141.895 E140.85263
G1 X199.184 Y142.732 E140.94331
G1 X199.185 Y151.789 E141.92146
G1 X199.176 Y152.516 E141.99998
G1 X199.13 Y153.019 E142.05453
G1 X199.005 Y153.509 E142.10915
G1 X198.533 Y154.4 E142.21805
G1 X197.808 Y155.1 E142.32689
G1 X197.372 Y155.356 E142.38149
G1 X196.407 Y155.647 E142.49035
G1 X195.745 Y155.684 E142.56195
G1 X98.16 Y155.684 E153.10113
G1 X97.435 Y155.67 E153.17945
G1 X96.734 Y155.579 E153.25579
G1 X95.651 Y155.312 E153.37626
G1 X94.933 Y155.126 E153.45636
G1 X92.255 Y154.513 E153.75307
G1 X89.568 Y153.978 E154.04896
G1 X86.877 Y153.521 E154.34375
G1 X84.147 Y153.135 E154.64152
G1 X81.449 Y152.832 E154.93474
G1 X78.7 Y152.601 E155.23267
G1 X75.988 Y152.451 E155.52602
G1 X73.234 Y152.376 E155.82356
G1 X70.517 Y152.38 E156.117
G1 X67.768 Y152.461 E156.41402
G1 X65.013 Y152.621 E156.71206
G1 X62.302 Y152.854 E157.00593
G1 X59.582 Y153.166 E157.30161
G1 X56.873 Y153.556 E157.5972
G1 X54.185 Y154.02 E157.8918
G1 X51.543 Y154.551 E158.18284
G1 X47.222 Y155.588 E158.66276
G1 X46.565 Y155.675 E158.73433
G1 X46.155 Y155.685 E158.77863
G1 X27.681 Y155.685 E160.77382
G1 X26.983 Y155.676 E160.84921
G1 X25.989 Y155.504 E160.95816
G1 X25.099 Y155.032 E161.06696
G1 X24.72 Y154.697 E161.12159
G1 X24.144 Y153.87 E161.23043
G1 X23.96 Y153.399 E161.28504
G1 X23.825 Y152.562 E161.37661
G1 X23.815 Y152.143 E161.42187
G1 X23.815 Y89.176 E168.22231
G1 X23.854 Y86.467 E168.51491
G1 X23.815 Y82.715 E168.92015
G1 X23.815 Y71.146 E170.1696
G10
;MESH:phone stand v5.STL
G0 F4500 X32.785 Y122.984
;TYPE:WALL-OUTER
G11
G1 F1800 X32.865 Y121.963 E170.28021
G1 X33.108 Y120.944 E170.39335
G1 X33.509 Y119.966 E170.5075
G1 X34.057 Y119.065 E170.6214
G1 X34.74 Y118.264 E170.73508
G1 X35.537 Y117.58 E170.84851
G1 X36.436 Y117.023 E170.96273
G1 X37.407 Y116.619 E171.07631
G1 X38.433 Y116.37 E171.19034
G1 X39.416 Y116.29 E171.29685
G1 X79.516 Y116.285 E175.62765
G1 X80.536 Y116.365 E175.73815
G1 X81.563 Y116.609 E175.85215
G1 X82.074 Y116.818 E175.91178
G1 X82.974 Y117.274 E176.02074
G1 X83.438 Y117.558 E176.0795
G1 X84.084 Y118.11 E176.17127
G1 X84.682 Y118.757 E176.26642
G1 X85.228 Y119.533 E176.36889
G1 X85.491 Y119.964 E176.42342
G1 X85.882 Y120.909 E176.53387
G1 X86.13 Y121.933 E176.64766
G1 X86.21 Y122.913 E176.75385
G1 X86.215 Y140.016 E178.60098
G1 X86.133 Y141.054 E178.71343
G1 X85.891 Y142.062 E178.82539
G1 X85.491 Y143.034 E178.93891
G1 X84.943 Y143.935 E179.0528
G1 X84.259 Y144.736 E179.16656
G1 X83.456 Y145.426 E179.2809
G1 X82.564 Y145.977 E179.39413
G1 X81.591 Y146.382 E179.50796
G1 X80.567 Y146.63 E179.62175
G1 X79.584 Y146.71 E179.72826
G1 X45.477 Y146.715 E183.41182
G1 X43.999 Y146.714 E183.57144
G1 X39.484 Y146.715 E184.05906
G1 X38.464 Y146.635 E184.16956
G1 X37.444 Y146.392 E184.2828
G1 X36.466 Y145.991 E184.39696
G1 X35.565 Y145.443 E184.51085
G1 X34.762 Y144.757 E184.62492
G1 X34.08 Y143.963 E184.73796
G1 X33.523 Y143.064 E184.85218
G1 X33.119 Y142.092 E184.96586
G1 X32.87 Y141.066 E185.07988
G1 X32.79 Y140.087 E185.18597
G1 X32.785 Y122.984 E187.03309
G0 F4500 X32.8 Y122.785
G10
G0 X84.037 Y114.962
G11
G1 F1800 X83.46 Y114.827 E187.09709
G1 X82.578 Y114.729 E187.19293
G1 X81.97 Y114.724 E187.2586
G1 X80.761 Y114.725 E187.38917
G1 X79.577 Y114.724 E187.51704
G1 X31.799 Y114.724 E192.67707
G1 X31.613 Y114.589 E192.70189
G1 X31.597 Y114.509 E192.7107
G1 X31.597 Y75.629 E196.90974
G1 X31.681 Y75.462 E196.92993
G1 X31.812 Y75.414 E196.945
G1 X190.826 Y75.414 E214.11851
G1 X191.014 Y75.527 E214.1422
G1 X191.041 Y75.629 E214.15359
G1 X191.041 Y146.649 E221.82375
G1 X190.946 Y146.825 E221.84535
G1 X190.826 Y146.864 E221.85898
G1 X87.546 Y146.864 E233.01322
G1 X87.343 Y146.718 E233.04023
G1 X87.331 Y146.182 E233.09813
G1 X87.331 Y119.516 E235.97806
G1 X87.271 Y118.78 E236.05781
G1 X87.094 Y118.017 E236.1424
G1 X86.806 Y117.334 E236.22245
G1 X86.414 Y116.694 E236.30351
G1 X85.927 Y116.123 E236.38456
G1 X85.361 Y115.641 E236.46485
G1 X84.719 Y115.248 E236.54614
G1 X84.037 Y114.962 E236.62602
G0 F4500 X83.843 Y114.917
G10
G0 X97.5 Y148.785
G11
G1 F1800 X97.704 Y148.933 E236.65323
G1 X97.715 Y149.574 E236.72247
G1 X97.715 Y152.285 E237.01526
G1 X195.785 Y152.285 E247.60682
G1 X195.785 Y145.071 E248.38593
G1 X195.785 Y142.699 E248.64211
G1 X192.5 Y142.699 E248.99689
G1 X192.343 Y142.626 E249.01559
G1 X192.285 Y142.484 E249.03215
G1 X192.285 Y103.5 E253.24243
G1 X192.358 Y103.343 E253.26113
G1 X192.5 Y103.285 E253.27769
G1 X195.785 Y103.285 E253.63247
G1 X195.785 Y70.715 E257.15003
G1 X80.215 Y70.715 E269.63159
G1 X80.215 Y74 E269.98637
G1 X80.142 Y74.157 E270.00507
G1 X80 Y74.215 E270.02164
G1 X66.5 Y74.215 E271.47964
G1 X66.343 Y74.142 E271.49834
G1 X66.285 Y74 E271.5149
G1 X66.285 Y70.716 E271.86957
G1 X27.216 Y70.716 E276.08903
G1 X27.215 Y82.785 E277.39248
G1 X30.5 Y82.785 E277.74726
G1 X30.657 Y82.858 E277.76596
G1 X30.715 Y83 E277.78252
G1 X30.715 Y88.5 E278.37652
G1 X30.642 Y88.657 E278.39522
G1 X30.5 Y88.715 E278.41179
G1 X27.215 Y88.715 E278.76657
G1 X27.215 Y152.285 E285.63213
G1 X46.285 Y152.285 E287.69169
G1 X46.285 Y149 E288.04647
G1 X46.358 Y148.843 E288.06517
G1 X46.5 Y148.785 E288.08173
G1 X97.5 Y148.785 E293.58973
G0 F4500 X97.661 Y148.902
G0 X97.497 Y148.405
;TYPE:SKIN
G1 F1800 X97.846 Y148.533 E293.62868
G1 X98.078 Y148.913 E293.67532
G1 X98.096 Y149.575 E293.74469
G1 X98.096 Y151.905 E293.98879
G1 X195.405 Y151.905 E304.18288
G1 X195.405 Y145.073 E304.8986
G1 X195.405 Y143.079 E305.10749
G1 X192.505 Y143.079 E305.41129
G1 X192.151 Y142.952 E305.45069
G1 F1683.5 X191.887 Y142.585 E305.50101
G1 F1583.9 X191.887 Y141.468 E305.63236
G1 X191.887 Y140.351 E305.76372
G1 X191.887 Y139.234 E305.89507
G1 X191.887 Y138.117 E306.02642
G1 X191.887 Y137 E306.15777
G1 F1587.9 X191.887 Y135.883 E306.28883
G1 X191.887 Y134.766 E306.41989
G1 X191.887 Y133.649 E306.55095
G1 X191.887 Y132.532 E306.68201
G1 X191.887 Y131.415 E306.81306
G1 F1591.8 X191.887 Y130.298 E306.94383
G1 X191.886 Y129.181 E307.0746
G1 X191.886 Y128.064 E307.20536
G1 X191.886 Y126.947 E307.33613
G1 X191.886 Y125.83 E307.4669
G1 F1595.8 X191.886 Y124.713 E307.59737
G1 X191.886 Y123.596 E307.72784
G1 X191.886 Y122.479 E307.85832
G1 X191.886 Y121.362 E307.98879
G1 X191.886 Y120.245 E308.11927
G1 F1599.8 X191.886 Y119.128 E308.24945
G1 X191.886 Y118.011 E308.37963
G1 X191.886 Y116.894 E308.50981
G1 X191.885 Y115.777 E308.63999
G1 X191.885 Y114.66 E308.77017
G1 F1603.8 X191.885 Y113.543 E308.90006
G1 X191.885 Y112.426 E309.02995
G1 X191.885 Y111.309 E309.15984
G1 X191.885 Y110.192 E309.28973
G1 X191.885 Y109.075 E309.41962
G1 F1607.8 X191.885 Y107.958 E309.54921
G1 X191.885 Y106.841 E309.67881
G1 X191.885 Y105.724 E309.80841
G1 X191.885 Y104.607 E309.938
G1 X191.884 Y103.49 E310.0676
G1 F1701.2 X192.035 Y103.15 E310.10862
G1 F1800 X192.426 Y102.921 E310.15609
G1 X193.412 Y102.905 E310.25939
G1 X195.405 Y102.905 E310.46818
G1 X195.405 Y71.095 E313.8006
G1 X80.595 Y71.095 E325.82809
G1 X80.595 Y73.997 E326.1321
G1 X80.466 Y74.348 E326.17128
G1 F1737.7 X80.098 Y74.601 E326.21958
G1 F1683.5 X78.587 Y74.601 E326.38777
G1 X77.076 Y74.601 E326.55596
G1 F1687.9 X75.565 Y74.602 E326.72375
G1 X74.054 Y74.602 E326.89154
G1 F1692.3 X72.543 Y74.603 E327.05893
G1 F1696.8 X71.032 Y74.603 E327.22593
G1 X69.521 Y74.604 E327.39293
G1 F1701.2 X68.01 Y74.604 E327.55953
G1 X66.499 Y74.605 E327.72613
G1 F1751.7 X66.151 Y74.467 E327.76633
