;FLAVOR:UltiGCode
;TIME:4466
;MATERIAL:7371
;MATERIAL2:0
;NOZZLE_DIAMETER:0.4
;MINX:23.015
;MINY:66.515
;MINZ:0.27
;MAXX:199.985
;MAXY:156.485
;MAXZ:11.07
;Generated with Cura_SteamEngine 5.0.0
M82 ;absolute extrusion mode
G0 F3000 Y50 ;avoid prime blob
G92 E0
G92 E0
G10
;LAYER_COUNT:73
;LAYER:0
M107
G0 F4500 X25.372 Y66.881 Z0.27
G0 X23.015 Y71.135
;TYPE:SKIRT
G11
G1 F1800 X23.024 Y70.47 E0.07183
G1 X23.072 Y69.907 E0.13285
G1 X23.198 Y69.356 E0.1939
G1 X23.401 Y68.828 E0.25499
G1 X23.677 Y68.334 E0.3161
G1 X24.019 Y67.884 E0.37715
G1 X24.421 Y67.487 E0.43816
G1 X24.875 Y67.15 E0.49923
G1 X25.372 Y66.881 E0.56026
G1 X25.902 Y66.684 E0.62133
G1 X26.455 Y66.565 E0.68242
G1 X27.233 Y66.517 E0.7666
G1 X64.835 Y66.515 E4.82762
G1 X65.702 Y66.531 E4.92127
G1 X68.15 Y66.665 E5.18605
G1 X70.84 Y66.741 E5.47669
G1 X73.584 Y66.741 E5.77304
G1 X76.289 Y66.664 E6.0653
G1 X78.897 Y66.527 E6.34735
G1 X79.345 Y66.515 E6.39575
G1 X195.335 Y66.515 E18.92267
G1 X196.033 Y66.525 E18.99806
G1 X196.597 Y66.573 E19.0592
G1 X197.147 Y66.7 E19.12016
G1 X197.675 Y66.904 E19.18129
G1 X198.169 Y67.179 E19.24235
G1 X198.618 Y67.522 E19.30337
G1 X199.015 Y67.924 E19.36439
G1 X199.352 Y68.379 E19.42554
G1 X199.62 Y68.876 E19.48653
G1 X199.816 Y69.406 E19.54756
G1 X199.936 Y69.959 E19.60867
G1 X199.983 Y70.733 E19.69242
G1 X199.985 Y102.84 E23.15997
G1 X199.974 Y103.547 E23.23634
G1 X199.907 Y104.214 E23.30873
G1 X199.684 Y105.417 E23.44087
G1 X199.214 Y108.164 E23.74186
G1 X198.831 Y110.855 E24.03542
G1 X198.53 Y113.507 E24.32367
G1 X198.298 Y116.237 E24.61957
G1 X198.143 Y118.98 E24.91629
G1 X198.068 Y121.65 E25.20476
G1 X198.068 Y124.393 E25.50101
G1 X198.145 Y127.069 E25.79014
G1 X198.3 Y129.806 E26.08621
G1 X198.532 Y132.534 E26.38189
G1 X198.836 Y135.2 E26.67169
G1 X199.222 Y137.911 E26.96743
G1 X199.68 Y140.582 E27.26011
G1 X199.903 Y141.744 E27.38789
G1 X199.973 Y142.377 E27.45667
G1 X199.985 Y142.829 E27.50551
G1 X199.985 Y151.799 E28.47427
G1 X199.976 Y152.526 E28.55279
G1 X199.929 Y153.089 E28.6138
G1 X199.803 Y153.64 E28.67485
G1 X199.601 Y154.168 E28.7359
G1 X199.326 Y154.662 E28.79696
G1 X198.984 Y155.112 E28.85801
G1 X198.582 Y155.51 E28.9191
G1 X198.129 Y155.847 E28.98008
G1 X197.632 Y156.117 E29.04116
G1 X197.102 Y156.314 E29.10223
G1 X196.55 Y156.435 E29.16326
G1 X195.767 Y156.483 E29.24798
G1 X98.145 Y156.484 E39.79116
G1 X97.418 Y156.47 E39.86969
G1 X96.855 Y156.419 E39.93074
G1 X96.54 Y156.355 E39.96546
G1 X95.401 Y156.075 E40.09213
G1 X92.691 Y155.45 E40.3925
G1 X90.007 Y154.913 E40.68811
G1 X87.376 Y154.462 E40.97641
G1 X84.659 Y154.075 E41.2728
G1 X82.007 Y153.774 E41.56106
G1 X79.27 Y153.541 E41.85772
G1 X76.531 Y153.386 E42.15401
G1 X73.86 Y153.31 E42.44259
G1 X71.116 Y153.31 E42.73895
G1 X68.445 Y153.386 E43.02753
G1 X65.702 Y153.541 E43.32425
G1 X62.977 Y153.772 E43.6196
G1 X60.309 Y154.076 E43.90961
G1 X57.604 Y154.46 E44.20468
G1 X54.938 Y154.917 E44.49681
G1 X52.325 Y155.44 E44.78461
G1 X49.587 Y156.071 E45.08806
G1 X48.442 Y156.357 E45.21552
G1 X47.885 Y156.455 E45.2766
G1 X47.268 Y156.483 E45.34331
G1 X27.67 Y156.485 E47.45989
G1 X26.972 Y156.476 E47.53528
G1 X26.409 Y156.428 E47.59631
G1 X25.858 Y156.302 E47.65735
G1 X25.33 Y156.1 E47.71841
G1 X24.836 Y155.825 E47.77947
G1 X24.386 Y155.483 E47.84051
G1 X23.988 Y155.081 E47.9016
G1 X23.652 Y154.627 E47.9626
G1 X23.382 Y154.13 E48.02369
G1 X23.185 Y153.6 E48.08476
G1 X23.065 Y153.048 E48.14576
G1 X23.016 Y152.251 E48.232
G1 X23.015 Y88.165 E55.15329
G1 X23.053 Y85.464 E55.44503
G1 X23.015 Y81.723 E55.84908
G1 X23.015 Y71.135 E56.99258
G0 F4500 X23.415 Y71.14
G1 F1800 X23.424 Y70.475 E57.06441
G1 X23.472 Y69.941 E57.12231
G1 X23.598 Y69.42 E57.1802
G1 X23.8 Y68.923 E57.23814
G1 X24.073 Y68.462 E57.296
G1 X24.412 Y68.046 E57.35396
G1 X24.809 Y67.686 E57.41184
G1 X25.256 Y67.388 E57.46986
G1 X25.741 Y67.16 E57.52774
G1 X26.255 Y67.007 E57.58566
G1 X26.923 Y66.925 E57.65835
G1 X27.345 Y66.915 E57.70393
G1 X64.829 Y66.915 E61.75221
G1 X65.681 Y66.93 E61.84424
G1 X68.118 Y67.063 E62.10782
G1 X70.865 Y67.141 E62.40462
G1 X73.559 Y67.141 E62.69557
G1 X76.323 Y67.063 E62.9942
G1 X78.909 Y66.927 E63.27388
G1 X79.345 Y66.915 E63.32098
G1 X195.33 Y66.915 E75.84736
G1 X196.028 Y66.925 E75.92275
G1 X196.562 Y66.973 E75.98066
G1 X197.083 Y67.099 E76.03855
G1 X197.58 Y67.302 E76.09653
G1 X198.041 Y67.576 E76.15445
G1 X198.456 Y67.915 E76.21232
G1 X198.816 Y68.313 E76.27028
G1 X199.113 Y68.759 E76.32815
G1 X199.341 Y69.245 E76.38613
G1 X199.493 Y69.759 E76.44402
G1 X199.575 Y70.424 E76.51638
G1 X199.585 Y70.845 E76.56186
G1 X199.585 Y102.834 E80.01667
G1 X199.574 Y103.541 E80.09304
G1 X199.514 Y104.141 E80.15816
G1 X199.281 Y105.398 E80.29623
G1 X198.823 Y108.071 E80.58912
G1 X198.436 Y110.79 E80.88573
G1 X198.128 Y113.499 E81.18019
G1 X197.898 Y116.215 E81.47457
G1 X197.745 Y118.912 E81.76631
G1 X197.668 Y121.675 E82.06483
G1 X197.668 Y124.37 E82.35589
G1 X197.747 Y127.137 E82.65485
G1 X197.9 Y129.829 E82.94605
G1 X198.131 Y132.546 E83.24055
G1 X198.44 Y135.261 E83.53566
G1 X198.826 Y137.969 E83.83108
G1 X199.289 Y140.666 E84.12662
G1 X199.51 Y141.819 E84.25341
G1 X199.573 Y142.389 E84.31534
G1 X199.585 Y142.829 E84.36288
G1 X199.585 Y151.794 E85.3311
G1 X199.576 Y152.521 E85.40962
G1 X199.529 Y153.055 E85.46752
G1 X199.404 Y153.576 E85.52538
G1 X199.202 Y154.073 E85.58332
G1 X198.929 Y154.535 E85.64128
G1 X198.591 Y154.951 E85.69917
G1 X198.194 Y155.312 E85.75712
G1 X197.748 Y155.61 E85.81505
G1 X197.263 Y155.838 E85.87293
G1 X196.749 Y155.992 E85.93088
G1 X196.077 Y156.075 E86.00401
G1 X195.655 Y156.085 E86.0496
G1 X98.153 Y156.084 E96.57981
G1 X97.426 Y156.07 E96.65834
G1 X96.636 Y155.967 E96.74439
G1 X95.456 Y155.677 E96.87562
G1 X92.794 Y155.064 E97.17064
G1 X90.075 Y154.519 E97.47013
G1 X87.434 Y154.066 E97.75952
G1 X84.723 Y153.68 E98.05527
G1 X82.014 Y153.373 E98.34971
G1 X79.293 Y153.141 E98.64464
G1 X76.6 Y152.988 E98.93596
G1 X73.835 Y152.91 E99.2347
G1 X71.141 Y152.91 E99.52565
G1 X68.376 Y152.988 E99.82439
G1 X65.68 Y153.141 E100.11602
G1 X62.968 Y153.371 E100.40997
G1 X60.244 Y153.681 E100.70606
G1 X57.546 Y154.065 E101.00038
G1 X54.87 Y154.523 E101.29359
G1 X52.219 Y155.054 E101.58559
G1 X49.511 Y155.678 E101.88572
G1 X48.345 Y155.969 E102.01551
G1 X47.576 Y156.075 E102.09934
G1 X47.155 Y156.085 E102.14482
G1 X27.676 Y156.085 E104.24856
G1 X26.978 Y156.076 E104.32395
G1 X26.443 Y156.029 E104.38195
G1 X25.922 Y155.903 E104.43984
G1 X25.425 Y155.701 E104.49778
G1 X24.964 Y155.428 E104.55564
G1 X24.548 Y155.089 E104.6136
G1 X24.187 Y154.693 E104.67147
G1 X23.889 Y154.247 E104.7294
G1 X23.661 Y153.761 E104.78738
G1 X23.508 Y153.247 E104.8453
G1 X23.425 Y152.573 E104.91864
G1 X23.415 Y152.143 E104.96509
G1 X23.415 Y88.171 E111.87407
G1 X23.453 Y85.466 E112.16624
G1 X23.415 Y81.719 E112.57093
G1 X23.415 Y71.14 E113.71347
G0 F4500 X23.815 Y71.146
G1 F1800 X23.824 Y70.481 E113.78529
G1 X23.871 Y69.977 E113.83996
G1 X24.198 Y69.024 E113.94877
G1 X24.469 Y68.597 E114.00339
G1 X25.195 Y67.898 E114.11224
G1 X26.103 Y67.459 E114.22116
G1 X26.934 Y67.325 E114.31207
G1 X27.345 Y67.315 E114.35647
G1 X64.823 Y67.315 E118.40409
G1 X65.659 Y67.33 E118.4944
G1 X68.084 Y67.463 E118.75669
G1 X70.854 Y67.541 E119.05597
G1 X73.57 Y67.541 E119.3493
G1 X76.315 Y67.463 E119.64588
G1 X78.922 Y67.327 E119.92782
G1 X79.345 Y67.315 E119.97352
G1 X195.324 Y67.315 E132.49925
G1 X196.022 Y67.325 E132.57464
G1 X196.525 Y67.372 E132.6292
G1 X197.015 Y67.498 E132.68384
G1 X197.905 Y67.972 E132.79275
G1 X198.283 Y68.307 E132.84729
G1 X198.858 Y69.135 E132.95617
G1 X199.148 Y70.1 E133.06499
G1 X199.184 Y70.755 E133.13584
G1 X199.185 Y102.828 E136.59972
G1 X199.174 Y103.535 E136.67609
G1 X199.12 Y104.068 E136.73395
G1 X198.895 Y105.282 E136.86729
G1 X198.426 Y108.024 E137.16773
G1 X198.042 Y110.72 E137.46183
G1 X197.731 Y113.456 E137.75922
G1 X197.499 Y116.194 E138.05599
G1 X197.345 Y118.913 E138.35011
G1 X197.268 Y121.663 E138.64723
G1 X197.268 Y124.381 E138.94077
G1 X197.347 Y127.137 E139.23854
G1 X197.503 Y129.882 E139.53548
G1 X197.733 Y132.591 E139.8291
G1 X198.041 Y135.296 E140.12313
G1 X198.429 Y138.017 E140.41997
G1 X198.889 Y140.702 E140.71418
G1 X199.118 Y141.895 E140.84537
G1 X199.184 Y142.732 E140.93605
G1 X199.185 Y151.789 E141.91421
G1 X199.176 Y152.516 E141.99273
G1 X199.13 Y153.019 E142.04728
G1 X199.005 Y153.509 E142.10189
G1 X198.533 Y154.4 E142.21079
G1 X197.808 Y155.1 E142.31963
G1 X197.372 Y155.356 E142.37424
G1 X196.407 Y155.647 E142.48309
G1 X195.745 Y155.684 E142.5547
G1 X98.16 Y155.684 E153.09388
G1 X97.433 Y155.67 E153.17241
G1 X96.731 Y155.578 E153.24887
G1 X95.561 Y155.29 E153.37901
G1 X92.891 Y154.675 E153.67492
G1 X90.156 Y154.128 E153.97615
G1 X87.482 Y153.669 E154.26916
G1 X84.793 Y153.286 E154.5625
G1 X82.025 Y152.972 E154.86337
G1 X79.346 Y152.744 E155.15374
G1 X76.599 Y152.588 E155.4509
G1 X73.846 Y152.51 E155.74834
G1 X71.13 Y152.51 E156.04167
G1 X68.377 Y152.588 E156.33911
G1 X65.659 Y152.742 E156.63313
G1 X62.891 Y152.977 E156.93315
G1 X60.209 Y153.282 E157.22467
G1 X57.499 Y153.667 E157.52029
G1 X54.796 Y154.131 E157.81648
G1 X52.116 Y154.667 E158.11165
G1 X49.439 Y155.284 E158.40835
G1 X48.248 Y155.581 E158.54092
G1 X47.564 Y155.675 E158.61548
G1 X47.155 Y155.685 E158.65967
G1 X27.681 Y155.685 E160.76286
G1 X26.983 Y155.676 E160.83825
G1 X25.989 Y155.504 E160.9472
G1 X25.099 Y155.032 E161.056
G1 X24.72 Y154.697 E161.11063
G1 X24.144 Y153.87 E161.21947
G1 X23.96 Y153.399 E161.27409
G1 X23.825 Y152.562 E161.36565
G1 X23.815 Y152.143 E161.41091
G1 X23.815 Y88.176 E168.31935
G1 X23.854 Y85.467 E168.61195
G1 X23.815 Y81.715 E169.01719
G1 X23.815 Y71.146 E170.15864
G10
;MESH:phone stand_V4.STL
G0 F4500 X26.331 Y82.669
G0 X29.831 Y82.669
G0 X30.5 Y81.785
;TYPE:WALL-OUTER
G11
G1 F1800 X30.657 Y81.858 E170.17734
G1 X30.715 Y82 E170.19391
G1 X30.715 Y87.5 E170.78791
G1 X30.642 Y87.657 E170.80661
G1 X30.5 Y87.715 E170.82317
G1 X27.215 Y87.715 E171.17795
G1 X27.215 Y152.285 E178.15151
G1 X47.285 Y152.285 E180.31907
G1 X47.285 Y149 E180.67385
G1 X47.358 Y148.843 E180.69255
G1 X47.5 Y148.785 E180.70912
G1 X97.5 Y148.785 E186.10912
G1 X97.657 Y148.858 E186.12782
G1 X97.715 Y149 E186.14438
G1 X97.715 Y152.285 E186.49916
G1 X195.785 Y152.285 E197.09072
G1 X195.785 Y145.252 E197.85029
G1 X195.785 Y142.7 E198.1259
G1 X192.5 Y142.699 E198.48068
G1 X192.343 Y142.626 E198.49938
G1 X192.285 Y142.484 E198.51595
G1 X192.285 Y103.5 E202.72622
G1 X192.358 Y103.343 E202.74492
G1 X192.5 Y103.285 E202.76149
G1 X195.785 Y103.285 E203.11627
G1 X195.785 Y70.715 E206.63383
G1 X79.215 Y70.715 E219.22339
G1 X79.215 Y74 E219.57817
G1 X79.142 Y74.157 E219.59687
G1 X79 Y74.215 E219.61343
G1 X65.5 Y74.215 E221.07143
G1 X65.343 Y74.142 E221.09013
G1 X65.285 Y74 E221.1067
G1 X65.285 Y70.715 E221.46148
G1 X27.215 Y70.715 E225.57304
G1 X27.215 Y81.785 E226.7686
G1 X30.5 Y81.785 E227.12338
G0 F4500 X30.657 Y81.858
G0 X30.667 Y81.883
G10
G0 X32.785 Y122.984
G11
G1 F1800 X32.865 Y121.963 E227.23398
G1 X33.108 Y120.944 E227.34712
G1 X33.509 Y119.966 E227.46128
G1 X34.057 Y119.065 E227.57517
G1 X34.741 Y118.264 E227.68893
G1 X35.536 Y117.58 E227.80219
G1 X36.435 Y117.023 E227.91641
G1 X37.407 Y116.619 E228.03009
G1 X38.433 Y116.37 E228.14412
G1 X39.416 Y116.29 E228.25063
G1 X79.516 Y116.285 E232.58143
G1 X80.536 Y116.365 E232.69193
G1 X81.563 Y116.609 E232.80594
G1 X82.534 Y117.009 E232.91935
G1 X83.438 Y117.558 E233.03358
G1 X84.236 Y118.241 E233.14702
G1 X84.921 Y119.038 E233.26052
G1 X85.477 Y119.936 E233.37459
G1 X85.882 Y120.909 E233.48841
G1 X86.13 Y121.933 E233.6022
G1 X86.21 Y122.913 E233.70839
G1 X86.215 Y140.016 E235.55552
G1 X86.133 Y141.054 E235.66797
G1 X85.891 Y142.062 E235.77993
G1 X85.491 Y143.034 E235.89344
G1 X84.943 Y143.935 E236.00734
G1 X84.378 Y144.597 E236.10133
G1 X83.456 Y145.426 E236.23524
G1 X82.564 Y145.977 E236.34847
G1 X81.591 Y146.382 E236.4623
G1 X80.567 Y146.63 E236.57609
G1 X79.584 Y146.71 E236.6826
G1 X39.484 Y146.715 E241.0134
G1 X38.464 Y146.635 E241.1239
G1 X37.444 Y146.392 E241.23714
G1 X36.466 Y145.991 E241.3513
G1 X35.565 Y145.443 E241.46519
G1 X34.762 Y144.757 E241.57926
G1 X34.08 Y143.963 E241.6923
G1 X33.523 Y143.064 E241.80652
G1 X33.119 Y142.092 E241.9202
G1 X32.87 Y141.066 E242.03422
G1 X32.79 Y140.087 E242.14031
G1 X32.785 Y122.984 E243.98743
G0 F4500 X32.8 Y122.785
G10
G0 X88.294 Y114.845
G11
G1 F1800 X32.155 Y114.845 E250.05044
G1 X31.987 Y114.733 E250.07225
G1 X31.959 Y114.63 E250.08378
G1 X31.959 Y75.99 E254.2569
G1 X32.079 Y75.798 E254.28135
G1 X32.174 Y75.775 E254.29191
G1 X190.465 Y75.775 E271.38733
G1 X190.653 Y75.888 E271.41102
G1 X190.681 Y75.99 E271.42245
G1 X190.681 Y146.047 E278.9886
G1 X190.652 Y146.15 E279.00016
G1 X190.465 Y146.262 E279.0237
G1 X88.509 Y146.262 E290.03495
G1 X88.352 Y146.189 E290.05365
G1 X88.294 Y146.047 E290.07021
G1 X88.294 Y114.845 E293.44003
G0 F4500 X88.094 Y114.845
G0 X87.914 Y115.225
;TYPE:SKIN
G1 F1800 X81.109 Y115.226 E294.15292
G1 F1426.5 X80.678 Y115.319 E294.20985
G1 F1197.4 X80.126 Y115.308 E294.293
G1 F1257.4 X79.574 Y115.296 E294.37267
G1 F1286.7 X79.529 Y115.295 E294.37904
G1 X75.877 Y115.295 E294.89553
G1 X72.225 Y115.295 E295.41201
G1 X68.573 Y115.295 E295.9285
G1 X64.921 Y115.295 E296.44499
G1 X61.269 Y115.295 E296.96148
G1 F1284 X57.617 Y115.296 E297.47892
G1 X53.965 Y115.296 E297.99637
G1 X50.313 Y115.296 E298.51381
G1 X46.661 Y115.296 E299.03125
G1 X43.009 Y115.296 E299.5487
G1 X39.357 Y115.297 E300.06614
G1 F1226.7 X38.343 Y115.318 E300.21569
G1 F1195 X38.25 Y115.309 E300.22978
G1 F1325.7 X37.708 Y115.268 E300.30466
G1 F1611.9 X37.166 Y115.226 E300.36759
G1 F1800 X32.152 Y115.225 E300.89286
G1 X31.777 Y115.069 E300.93541
G1 X31.584 Y114.701 E300.97894
G1 X31.581 Y87.975 E303.77875
G1 F1701.2 X31.56 Y87.498 E303.8314
G1 F1607.8 X31.559 Y82.003 E304.46894
G1 F1701.2 X31.58 Y81.046 E304.57448
G1 F1800 X31.579 Y75.996 E305.10352
G1 X31.759 Y75.569 E305.15207
G1 X32.106 Y75.4 E305.1925
G1 X190.459 Y75.395 E321.78156
G1 X190.879 Y75.567 E321.82911
G1 X191.061 Y75.994 E321.87773
G1 X191.061 Y145.252 E329.1332
G1 X191.056 Y146.118 E329.22392
G1 X190.881 Y146.468 E329.26492
G1 X190.463 Y146.642 E329.31235
G1 X88.512 Y146.642 E339.99274
G1 X88.168 Y146.52 E340.03097
G1 X87.94 Y146.196 E340.07248
G1 X87.916 Y145.136 E340.18355
G1 X87.914 Y115.225 E343.31703
G10
G0 F4500 X65.503 Y74.595
G11
G1 F1800 X65.152 Y74.466 E343.3562
G1 X64.921 Y74.075 E343.40378
G1 X64.905 Y73.247 E343.49054
G1 X64.905 Y71.095 E343.71598
G1 X27.595 Y71.095 E347.62458
G1 X27.595 Y81.405 E348.70465
G1 X30.497 Y81.405 E349.00866
G1 X30.849 Y81.534 E349.04794
G1 F1747 X31.089 Y81.919 E349.09677
G1 F1649.1 X31.116 Y82.003 E349.10678
G1 F1607.8 X31.116 Y84.77 E349.42781
G1 F1603.8 X31.116 Y87.537 E349.74957
G1 F1696.8 X30.859 Y87.956 E349.80389
G1 F1800 X30.497 Y88.095 E349.84452
G1 X27.595 Y88.095 E350.14853
G1 X27.595 Y151.905 E356.83326
G1 X46.905 Y151.905 E358.85618
G1 X46.905 Y149.005 E359.15998
G1 X47.032 Y148.653 E359.19919
G1 X47.342 Y148.433 E359.23901
G1 X47.438 Y148.409 E359.24938
G1 X97.497 Y148.405 E364.49356
G1 X97.841 Y148.527 E364.53179
G1 X98.078 Y148.913 E364.57924
G1 X98.096 Y149.274 E364.61711
G1 X98.096 Y151.905 E364.89273
G1 X195.405 Y151.905 E375.08682
G1 X195.405 Y145.252 E375.78379
G1 X195.405 Y143.08 E376.01133
G1 X192.504 Y143.079 E376.31524
G1 X192.15 Y142.951 E376.35467
G1 X191.932 Y142.642 E376.39429
G1 X191.909 Y142.547 E376.40453
G1 X191.905 Y103.505 E380.49457
G1 X192.033 Y103.15 E380.5341
G1 X192.427 Y102.92 E380.5819
G1 X193.233 Y102.905 E380.66635
