;FLAVOR:UltiGCode
;TIME:4533
;MATERIAL:7483
;MATERIAL2:0
;NOZZLE_DIAMETER:0.4
;MINX:23.015
;MINY:66.515
;MINZ:0.27
;MAXX:199.985
;MAXY:156.485
;MAXZ:11.07
;Generated with Cura_SteamEngine 5.0.0
M82 ;absolute extrusion mode
G0 F3000 Y50 ;avoid prime blob
G92 E0
G92 E0
G10
;LAYER_COUNT:73
;LAYER:0
M107
G0 F4500 X25.372 Y66.881 Z0.27
G0 X23.015 Y71.135
;TYPE:SKIRT
G11
G1 F1800 X23.024 Y70.47 E0.07183
G1 X23.072 Y69.907 E0.13285
G1 X23.198 Y69.356 E0.1939
G1 X23.401 Y68.828 E0.25499
G1 X23.677 Y68.334 E0.3161
G1 X24.019 Y67.884 E0.37715
G1 X24.421 Y67.487 E0.43816
G1 X24.875 Y67.15 E0.49923
G1 X25.372 Y66.881 E0.56026
G1 X25.902 Y66.684 E0.62133
G1 X26.455 Y66.565 E0.68242
G1 X27.233 Y66.517 E0.7666
G1 X66.835 Y66.515 E5.04362
G1 X67.702 Y66.531 E5.13727
G1 X70.15 Y66.665 E5.40205
G1 X72.84 Y66.741 E5.69269
G1 X75.584 Y66.741 E5.98904
G1 X78.289 Y66.664 E6.2813
G1 X80.897 Y66.527 E6.56335
G1 X81.345 Y66.515 E6.61175
G1 X195.335 Y66.515 E18.92267
G1 X196.033 Y66.525 E18.99806
G1 X196.597 Y66.573 E19.0592
G1 X197.147 Y66.7 E19.12016
G1 X197.675 Y66.904 E19.18129
G1 X198.169 Y67.179 E19.24235
G1 X198.618 Y67.522 E19.30337
G1 X199.015 Y67.924 E19.36439
G1 X199.352 Y68.379 E19.42554
G1 X199.62 Y68.876 E19.48653
G1 X199.816 Y69.406 E19.54756
G1 X199.936 Y69.959 E19.60867
G1 X199.983 Y70.733 E19.69242
G1 X199.985 Y102.84 E23.15997
G1 X199.974 Y103.547 E23.23634
G1 X199.907 Y104.214 E23.30873
G1 X199.684 Y105.417 E23.44087
G1 X199.214 Y108.164 E23.74186
G1 X198.831 Y110.855 E24.03542
G1 X198.53 Y113.507 E24.32367
G1 X198.298 Y116.237 E24.61957
G1 X198.143 Y118.98 E24.91629
G1 X198.068 Y121.65 E25.20476
G1 X198.068 Y124.393 E25.50101
G1 X198.145 Y127.069 E25.79014
G1 X198.3 Y129.806 E26.08621
G1 X198.532 Y132.534 E26.38189
G1 X198.836 Y135.2 E26.67169
G1 X199.222 Y137.911 E26.96743
G1 X199.68 Y140.582 E27.26011
G1 X199.903 Y141.744 E27.38789
G1 X199.973 Y142.377 E27.45667
G1 X199.985 Y142.829 E27.50551
G1 X199.985 Y151.799 E28.47427
G1 X199.976 Y152.526 E28.55279
G1 X199.929 Y153.089 E28.6138
G1 X199.803 Y153.64 E28.67485
G1 X199.601 Y154.168 E28.7359
G1 X199.326 Y154.662 E28.79696
G1 X198.984 Y155.112 E28.85801
G1 X198.582 Y155.51 E28.9191
G1 X198.129 Y155.847 E28.98008
G1 X197.632 Y156.117 E29.04116
G1 X197.102 Y156.314 E29.10223
G1 X196.55 Y156.435 E29.16326
G1 X195.767 Y156.483 E29.24798
G1 X96.145 Y156.484 E40.00716
G1 X95.418 Y156.47 E40.08569
G1 X94.855 Y156.419 E40.14674
G1 X94.54 Y156.355 E40.18146
G1 X93.401 Y156.075 E40.30813
G1 X90.691 Y155.45 E40.6085
G1 X88.007 Y154.913 E40.90411
G1 X85.376 Y154.462 E41.19241
G1 X82.659 Y154.075 E41.4888
G1 X80.007 Y153.774 E41.77706
G1 X77.27 Y153.541 E42.07372
G1 X74.531 Y153.386 E42.37001
G1 X71.86 Y153.31 E42.65859
G1 X69.116 Y153.31 E42.95495
G1 X66.445 Y153.386 E43.24353
G1 X63.702 Y153.541 E43.54025
G1 X60.977 Y153.772 E43.8356
G1 X58.309 Y154.076 E44.12561
G1 X55.604 Y154.46 E44.42068
G1 X52.938 Y154.917 E44.71281
G1 X50.325 Y155.44 E45.00061
G1 X47.587 Y156.071 E45.30406
G1 X46.442 Y156.357 E45.43152
G1 X45.885 Y156.455 E45.4926
G1 X45.268 Y156.483 E45.55931
G1 X27.67 Y156.485 E47.45989
G1 X26.972 Y156.476 E47.53528
G1 X26.409 Y156.428 E47.59631
G1 X25.858 Y156.302 E47.65735
G1 X25.33 Y156.1 E47.71841
G1 X24.836 Y155.825 E47.77947
G1 X24.386 Y155.483 E47.84051
G1 X23.988 Y155.081 E47.9016
G1 X23.652 Y154.627 E47.9626
G1 X23.382 Y154.13 E48.02369
G1 X23.185 Y153.6 E48.08476
G1 X23.065 Y153.048 E48.14576
G1 X23.016 Y152.251 E48.232
G1 X23.015 Y90.165 E54.93729
G1 X23.053 Y87.464 E55.22903
G1 X23.015 Y83.723 E55.63308
G1 X23.015 Y71.135 E56.99258
G0 F4500 X23.415 Y71.14
G1 F1800 X23.424 Y70.475 E57.06441
G1 X23.472 Y69.941 E57.12231
G1 X23.598 Y69.42 E57.1802
G1 X23.8 Y68.923 E57.23814
G1 X24.073 Y68.462 E57.296
G1 X24.412 Y68.046 E57.35396
G1 X24.809 Y67.686 E57.41184
G1 X25.256 Y67.388 E57.46986
G1 X25.741 Y67.16 E57.52774
G1 X26.255 Y67.007 E57.58566
G1 X26.923 Y66.925 E57.65835
G1 X27.345 Y66.915 E57.70393
G1 X66.829 Y66.915 E61.96821
G1 X67.681 Y66.93 E62.06024
G1 X70.118 Y67.063 E62.32382
G1 X72.865 Y67.141 E62.62062
G1 X75.559 Y67.141 E62.91157
G1 X78.323 Y67.063 E63.2102
G1 X80.909 Y66.927 E63.48988
G1 X81.345 Y66.915 E63.53698
G1 X195.33 Y66.915 E75.84736
G1 X196.028 Y66.925 E75.92275
G1 X196.562 Y66.973 E75.98066
G1 X197.083 Y67.099 E76.03855
G1 X197.58 Y67.302 E76.09653
G1 X198.041 Y67.576 E76.15445
G1 X198.456 Y67.915 E76.21232
G1 X198.816 Y68.313 E76.27028
G1 X199.113 Y68.759 E76.32815
G1 X199.341 Y69.245 E76.38613
G1 X199.493 Y69.759 E76.44402
G1 X199.575 Y70.424 E76.51638
G1 X199.585 Y70.845 E76.56186
G1 X199.585 Y102.834 E80.01667
G1 X199.574 Y103.541 E80.09304
G1 X199.514 Y104.141 E80.15816
G1 X199.281 Y105.398 E80.29623
G1 X198.823 Y108.071 E80.58912
G1 X198.436 Y110.79 E80.88573
G1 X198.128 Y113.499 E81.18019
G1 X197.898 Y116.215 E81.47457
G1 X197.745 Y118.912 E81.76631
G1 X197.668 Y121.675 E82.06483
G1 X197.668 Y124.37 E82.35589
G1 X197.747 Y127.137 E82.65485
G1 X197.9 Y129.829 E82.94605
G1 X198.131 Y132.546 E83.24055
G1 X198.44 Y135.261 E83.53566
G1 X198.826 Y137.969 E83.83108
G1 X199.289 Y140.666 E84.12662
G1 X199.51 Y141.819 E84.25341
G1 X199.573 Y142.389 E84.31534
G1 X199.585 Y142.829 E84.36288
G1 X199.585 Y151.794 E85.3311
G1 X199.576 Y152.521 E85.40962
G1 X199.529 Y153.055 E85.46752
G1 X199.404 Y153.576 E85.52538
G1 X199.202 Y154.073 E85.58332
G1 X198.929 Y154.535 E85.64128
G1 X198.591 Y154.951 E85.69917
G1 X198.194 Y155.312 E85.75712
G1 X197.748 Y155.61 E85.81505
G1 X197.263 Y155.838 E85.87293
G1 X196.749 Y155.992 E85.93088
G1 X196.077 Y156.075 E86.00401
G1 X195.655 Y156.085 E86.0496
G1 X96.153 Y156.084 E96.79581
G1 X95.426 Y156.07 E96.87434
G1 X94.636 Y155.967 E96.96039
G1 X93.456 Y155.677 E97.09162
G1 X90.794 Y155.064 E97.38664
G1 X88.075 Y154.519 E97.68613
G1 X85.434 Y154.066 E97.97552
G1 X82.723 Y153.68 E98.27127
G1 X80.014 Y153.373 E98.56571
G1 X77.293 Y153.141 E98.86064
G1 X74.6 Y152.988 E99.15196
G1 X71.835 Y152.91 E99.4507
G1 X69.141 Y152.91 E99.74165
G1 X66.376 Y152.988 E100.04039
G1 X63.68 Y153.141 E100.33202
G1 X60.968 Y153.371 E100.62597
G1 X58.244 Y153.681 E100.92206
G1 X55.546 Y154.065 E101.21638
G1 X52.87 Y154.523 E101.50959
G1 X50.219 Y155.054 E101.80159
G1 X47.511 Y155.678 E102.10172
G1 X46.345 Y155.969 E102.23151
G1 X45.576 Y156.075 E102.31534
G1 X45.155 Y156.085 E102.36082
G1 X27.676 Y156.085 E104.24856
G1 X26.978 Y156.076 E104.32395
G1 X26.443 Y156.029 E104.38195
G1 X25.922 Y155.903 E104.43984
G1 X25.425 Y155.701 E104.49778
G1 X24.964 Y155.428 E104.55564
G1 X24.548 Y155.089 E104.6136
G1 X24.187 Y154.693 E104.67147
G1 X23.889 Y154.247 E104.7294
G1 X23.661 Y153.761 E104.78738
G1 X23.508 Y153.247 E104.8453
G1 X23.425 Y152.573 E104.91864
G1 X23.415 Y152.143 E104.96509
G1 X23.415 Y90.171 E111.65807
G1 X23.453 Y87.466 E111.95024
G1 X23.415 Y83.719 E112.35493
G1 X23.415 Y71.14 E113.71347
G0 F4500 X23.815 Y71.146
G1 F1800 X23.824 Y70.481 E113.78529
G1 X23.871 Y69.977 E113.83996
G1 X24.198 Y69.024 E113.94877
G1 X24.469 Y68.597 E114.00339
G1 X25.195 Y67.898 E114.11224
G1 X26.103 Y67.459 E114.22116
G1 X26.934 Y67.325 E114.31207
G1 X27.345 Y67.315 E114.35647
G1 X66.823 Y67.315 E118.62009
G1 X67.659 Y67.33 E118.7104
G1 X70.084 Y67.463 E118.97269
G1 X72.854 Y67.541 E119.27197
G1 X75.57 Y67.541 E119.5653
G1 X78.315 Y67.463 E119.86188
G1 X80.922 Y67.327 E120.14382
G1 X81.345 Y67.315 E120.18952
G1 X195.324 Y67.315 E132.49925
G1 X196.022 Y67.325 E132.57464
G1 X196.525 Y67.372 E132.6292
G1 X197.015 Y67.498 E132.68384
G1 X197.905 Y67.972 E132.79275
G1 X198.283 Y68.307 E132.84729
G1 X198.858 Y69.135 E132.95617
G1 X199.148 Y70.1 E133.06499
G1 X199.184 Y70.755 E133.13584
G1 X199.185 Y102.828 E136.59972
G1 X199.174 Y103.535 E136.67609
G1 X199.12 Y104.068 E136.73395
G1 X198.895 Y105.282 E136.86729
G1 X198.426 Y108.024 E137.16773
G1 X198.042 Y110.72 E137.46183
G1 X197.731 Y113.456 E137.75922
G1 X197.499 Y116.194 E138.05599
G1 X197.345 Y118.913 E138.35011
G1 X197.268 Y121.663 E138.64723
G1 X197.268 Y124.381 E138.94077
G1 X197.347 Y127.137 E139.23854
G1 X197.503 Y129.882 E139.53548
G1 X197.733 Y132.591 E139.8291
G1 X198.041 Y135.296 E140.12313
G1 X198.429 Y138.017 E140.41997
G1 X198.889 Y140.702 E140.71418
G1 X199.118 Y141.895 E140.84537
G1 X199.184 Y142.732 E140.93605
G1 X199.185 Y151.789 E141.91421
G1 X199.176 Y152.516 E141.99273
G1 X199.13 Y153.019 E142.04728
G1 X199.005 Y153.509 E142.10189
G1 X198.533 Y154.4 E142.21079
G1 X197.808 Y155.1 E142.31963
G1 X197.372 Y155.356 E142.37424
G1 X196.407 Y155.647 E142.48309
G1 X195.745 Y155.684 E142.5547
G1 X96.16 Y155.684 E153.30988
G1 X95.433 Y155.67 E153.38841
G1 X94.731 Y155.578 E153.46487
G1 X93.561 Y155.29 E153.59501
G1 X90.891 Y154.675 E153.89092
G1 X88.156 Y154.128 E154.19215
G1 X85.482 Y153.669 E154.48516
G1 X82.793 Y153.286 E154.7785
G1 X80.025 Y152.972 E155.07937
G1 X77.346 Y152.744 E155.36974
G1 X74.599 Y152.588 E155.6669
G1 X71.846 Y152.51 E155.96434
G1 X69.13 Y152.51 E156.25767
G1 X66.377 Y152.588 E156.55511
G1 X63.659 Y152.742 E156.84913
G1 X60.891 Y152.977 E157.14915
G1 X58.209 Y153.282 E157.44067
G1 X55.499 Y153.667 E157.73629
G1 X52.796 Y154.131 E158.03248
G1 X50.116 Y154.667 E158.32765
G1 X47.439 Y155.284 E158.62435
G1 X46.248 Y155.581 E158.75692
G1 X45.564 Y155.675 E158.83148
G1 X45.155 Y155.685 E158.87567
G1 X27.681 Y155.685 E160.76286
G1 X26.983 Y155.676 E160.83825
G1 X25.989 Y155.504 E160.9472
G1 X25.099 Y155.032 E161.056
G1 X24.72 Y154.697 E161.11063
G1 X24.144 Y153.87 E161.21947
G1 X23.96 Y153.399 E161.27409
G1 X23.825 Y152.562 E161.36565
G1 X23.815 Y152.143 E161.41091
G1 X23.815 Y90.176 E168.10335
G1 X23.854 Y87.467 E168.39595
G1 X23.815 Y83.715 E168.80119
G1 X23.815 Y71.146 E170.15864
G10
;MESH:phone stand_for_print_V3.STL
G0 F4500 X26.331 Y69.831
G0 X68.169 Y69.831
G0 X68.169 Y73.331
G0 X67.5 Y74.215
;TYPE:WALL-OUTER
G11
G1 F1800 X67.296 Y74.067 E170.18586
G1 X67.285 Y73.365 E170.26169
G1 X67.285 Y70.715 E170.54789
G1 X27.215 Y70.715 E174.87545
G1 X27.216 Y83.785 E176.28701
G1 X30.5 Y83.785 E176.64168
G1 X30.657 Y83.858 E176.66038
G1 X30.716 Y84 E176.67699
G1 X30.716 Y89.5 E177.27099
G1 X30.642 Y89.657 E177.28973
G1 X30.5 Y89.715 E177.3063
G1 X27.216 Y89.715 E177.66097
G1 X27.215 Y152.285 E184.41853
G1 X45.285 Y152.285 E186.37009
G1 X45.285 Y149 E186.72487
G1 X45.358 Y148.843 E186.74357
G1 X45.5 Y148.785 E186.76013
G1 X95.5 Y148.785 E192.16013
G1 X95.657 Y148.858 E192.17883
G1 X95.715 Y149 E192.1954
G1 X95.715 Y152.285 E192.55018
G1 X195.785 Y152.285 E203.35774
G1 X195.785 Y145.733 E204.06536
G1 X195.785 Y142.699 E204.39303
G1 X192.5 Y142.699 E204.74781
G1 X192.343 Y142.626 E204.76651
G1 X192.285 Y142.484 E204.78307
G1 X192.285 Y103.5 E208.99334
G1 X192.358 Y103.343 E209.01204
G1 X192.5 Y103.285 E209.02861
G1 X195.785 Y103.285 E209.38339
G1 X195.785 Y70.715 E212.90095
G1 X81.215 Y70.715 E225.27451
G1 X81.215 Y74 E225.62929
G1 X81.142 Y74.157 E225.64799
G1 X81 Y74.215 E225.66456
G1 X67.5 Y74.215 E227.12256
G0 F4500 X67.339 Y74.098
G10
G0 X88.534 Y113.882
G11
G1 F1800 X32.535 Y113.882 E233.17045
G1 X32.348 Y113.77 E233.19399
G1 X32.32 Y113.667 E233.20552
G1 X32.32 Y76.23 E237.24871
G1 X32.437 Y76.04 E237.27281
G1 X32.535 Y76.015 E237.28373
G1 X189.502 Y76.015 E254.23617
G1 X189.678 Y76.111 E254.25782
G1 X189.717 Y76.23 E254.27135
G1 X189.717 Y147.01 E261.91559
G1 X189.684 Y147.121 E261.92809
G1 X189.502 Y147.225 E261.95073
G1 X88.749 Y147.225 E272.83206
G1 X88.592 Y147.152 E272.85075
G1 X88.534 Y147.01 E272.86732
G1 X88.534 Y113.882 E276.44514
G0 F4500 X88.334 Y113.882
G10
G0 X32.785 Y122.984
G11
G1 F1800 X32.865 Y121.963 E276.55575
G1 X33.108 Y120.944 E276.66889
G1 X33.509 Y119.966 E276.78305
G1 X34.028 Y119.112 E276.89097
G1 X34.615 Y118.41 E276.9898
G1 X35.536 Y117.58 E277.1237
G1 X36.435 Y117.023 E277.23792
G1 X37.407 Y116.619 E277.3516
G1 X38.433 Y116.37 E277.46563
G1 X39.416 Y116.29 E277.57214
G1 X79.516 Y116.285 E281.90294
G1 X80.536 Y116.365 E282.01344
G1 X81.563 Y116.609 E282.12744
G1 X82.534 Y117.009 E282.24086
G1 X83.438 Y117.558 E282.35509
G1 X84.236 Y118.241 E282.46853
G1 X84.92 Y119.038 E282.58196
G1 X85.477 Y119.936 E282.69608
G1 X85.882 Y120.909 E282.80991
G1 X86.13 Y121.933 E282.9237
G1 X86.21 Y122.913 E283.02989
G1 X86.215 Y140.016 E284.87701
G1 X86.133 Y141.054 E284.98947
G1 X85.891 Y142.062 E285.10142
G1 X85.491 Y143.034 E285.21494
G1 X84.943 Y143.935 E285.32883
G1 X84.259 Y144.736 E285.44259
G1 X83.456 Y145.426 E285.55693
G1 X82.564 Y145.977 E285.67017
G1 X82.536 Y145.991 E285.67355
G1 X81.591 Y146.382 E285.784
G1 X80.567 Y146.63 E285.89779
G1 X79.584 Y146.71 E286.0043
G1 X39.484 Y146.715 E290.3351
G1 X38.464 Y146.635 E290.4456
G1 X37.444 Y146.392 E290.55884
G1 X36.466 Y145.991 E290.673
G1 X35.565 Y145.443 E290.7869
G1 X34.762 Y144.757 E290.90096
G1 X34.08 Y143.963 E291.014
G1 X33.523 Y143.064 E291.12822
G1 X33.119 Y142.092 E291.2419
G1 X32.87 Y141.066 E291.35592
G1 X32.79 Y140.087 E291.46201
G1 X32.785 Y122.984 E293.30913
G0 F4500 X32.8 Y122.785
G0 X32.406 Y122.954
;TYPE:SKIN
G1 F1800 X32.5 Y121.848 E293.42541
G1 X32.755 Y120.801 E293.5383
G1 X32.765 Y120.771 E293.54162
G1 X33.185 Y119.765 E293.65582
G1 X33.706 Y118.907 E293.76098
G1 X33.83 Y118.744 E293.78244
G1 X34.449 Y118.019 E293.8823
G1 X34.471 Y117.997 E293.88556
G1 X35.288 Y117.291 E293.99868
G1 X35.313 Y117.273 E294.00191
G1 X36.232 Y116.701 E294.11531
G1 X36.26 Y116.686 E294.11863
G1 X37.26 Y116.267 E294.23222
G1 X37.29 Y116.257 E294.23553
G1 X38.356 Y115.996 E294.3505
G1 X39.386 Y115.911 E294.45877
G1 X79.546 Y115.906 E298.66594
G1 X80.638 Y115.996 E298.78072
G1 X80.669 Y116.001 E298.78401
G1 X81.711 Y116.257 E298.89642
G1 X81.741 Y116.267 E298.89973
G1 X82.736 Y116.685 E299.01279
G1 X82.764 Y116.699 E299.01607
G1 X83.686 Y117.268 E299.12957
G1 X83.711 Y117.287 E299.13286
G1 X84.531 Y117.997 E299.24649
G1 X85.245 Y118.836 E299.3619
G1 X85.8 Y119.734 E299.4725
G1 X85.814 Y119.761 E299.47568
G1 X86.234 Y120.762 E299.5894
G1 X86.244 Y120.792 E299.59272
G1 X86.499 Y121.832 E299.70489
G1 X86.589 Y122.879 E299.81498
G1 X86.595 Y140.015 E301.61015
G1 X86.509 Y141.121 E301.72636
G1 X86.243 Y142.21 E301.8438
G1 X86.233 Y142.24 E301.84711
G1 X85.816 Y143.235 E301.96013
G1 X85.27 Y144.132 E302.07014
G1 X85.252 Y144.157 E302.07337
G1 X84.543 Y144.989 E302.18788
G1 X84.523 Y145.009 E302.19085
G1 X83.704 Y145.715 E302.30412
G1 X83.679 Y145.733 E302.30735
G1 X82.767 Y146.3 E302.41985
G1 X82.739 Y146.315 E302.42318
G1 X81.738 Y146.734 E302.53686
G1 X81.708 Y146.744 E302.54017
G1 X80.599 Y147.014 E302.65975
G1 X79.613 Y147.09 E302.76335
G1 X39.454 Y147.094 E306.9704
G1 X38.354 Y147.001 E307.08605
G1 X37.298 Y146.744 E307.19991
G1 X37.268 Y146.734 E307.20322
G1 X36.264 Y146.315 E307.31719
G1 X35.361 Y145.766 E307.4279
G1 X35.336 Y145.748 E307.43113
G1 X34.509 Y145.043 E307.54497
G1 X33.79 Y144.21 E307.66025
G1 X33.772 Y144.185 E307.66347
G1 X33.2 Y143.266 E307.77687
G1 X33.185 Y143.238 E307.7802
G1 X32.767 Y142.238 E307.89374
G1 X32.757 Y142.208 E307.89706
G1 X32.496 Y141.143 E308.01193
G1 X32.411 Y140.119 E308.11957
G1 X32.406 Y122.954 E309.91778
G10
G0 F4500 X31.095 Y89.533
G11
G1 F1800 X30.965 Y89.85 E309.95367
G1 X30.575 Y90.079 E310.00105
G1 X29.769 Y90.095 E310.0855
G1 X27.596 Y90.095 E310.31315
G1 X27.595 Y151.905 E316.78836
G1 X44.905 Y151.905 E318.60176
G1 X44.905 Y149.005 E318.90556
G1 X45.032 Y148.653 E318.94476
G1 X45.342 Y148.433 E318.98459
G1 X45.438 Y148.409 E318.99495
G1 X95.497 Y148.405 E324.23913
G1 X95.849 Y148.534 E324.27841
G1 X96.079 Y148.925 E324.32593
G1 X96.095 Y149.755 E324.4129
G1 X96.095 Y151.905 E324.63813
G1 X195.405 Y151.905 E335.04185
