;FLAVOR:UltiGCode
;TIME:4083
;MATERIAL:7468
;MATERIAL2:0
;NOZZLE_DIAMETER:0.4
;MINX:22.515
;MINY:66.015
;MINZ:0.27
;MAXX:200.485
;MAXY:156.985
;MAXZ:2.07
;Generated with Cura_SteamEngine 5.0.0
M82 ;absolute extrusion mode
G0 F3000 Y50 ;avoid prime blob
G92 E0
G92 E0
G10
;LAYER_COUNT:13
;LAYER:0
M107
G0 F4500 X30.401 Y68.925 Z0.27
G0 X24.698 Y76.159
;TYPE:SKIRT
G11
G1 F1800 X24.926 Y75.256 E0.10058
G1 X25.229 Y74.341 E0.20468
G1 X25.522 Y73.692 E0.28159
G1 X25.999 Y72.799 E0.39093
G1 X26.418 Y72.182 E0.47148
G1 X27.04 Y71.391 E0.58015
G1 X27.541 Y70.876 E0.65775
G1 X28.292 Y70.204 E0.76659
G1 X28.909 Y69.758 E0.84881
G1 X29.735 Y69.247 E0.95371
G1 X30.401 Y68.925 E1.0336
G1 X31.343 Y68.547 E1.14322
G1 X32.056 Y68.346 E1.22323
G1 X33.012 Y68.146 E1.32871
G1 X33.792 Y68.066 E1.41339
G1 X34.405 Y68.027 E1.47973
G1 X35.2 Y68.015 E1.5656
G1 X48.61 Y68.015 E3.01388
G1 X51.41 Y67.975 E3.31631
G1 X54.08 Y67.862 E3.60493
G1 X56.82 Y67.668 E3.90159
G1 X59.476 Y67.404 E4.18985
G1 X62.228 Y67.052 E4.48949
G1 X64.87 Y66.637 E4.77832
G1 X67.792 Y66.092 E5.09934
G1 X68.413 Y66.026 E5.16679
G1 X68.845 Y66.015 E5.21346
G1 X77.335 Y66.015 E6.13038
G1 X78.036 Y66.025 E6.2061
G1 X78.723 Y66.095 E6.28068
G1 X80.302 Y66.394 E6.45424
G1 X83.061 Y66.866 E6.75654
G1 X85.692 Y67.239 E7.04353
G1 X88.423 Y67.548 E7.34036
G1 X91.125 Y67.777 E7.63322
G1 X93.835 Y67.93 E7.92637
G1 X97.905 Y68.015 E8.36602
G1 X187.846 Y68.015 E18.07965
G1 X188.517 Y68.024 E18.15212
G1 X189.383 Y68.081 E18.24586
G1 X190.48 Y68.232 E18.36545
G1 X191.242 Y68.426 E18.45037
G1 X192.164 Y68.731 E18.55525
G1 X192.808 Y69.022 E18.63158
G1 X193.701 Y69.499 E18.74092
G1 X194.318 Y69.918 E18.82146
G1 X195.109 Y70.54 E18.93014
G1 X195.624 Y71.041 E19.00774
G1 X196.297 Y71.792 E19.11665
G1 X196.737 Y72.403 E19.19797
G1 X197.253 Y73.235 E19.3037
G1 X197.575 Y73.901 E19.38359
G1 X197.953 Y74.843 E19.49321
G1 X198.154 Y75.556 E19.57322
G1 X198.353 Y76.507 E19.67815
G1 X198.433 Y77.288 E19.76294
G1 X198.473 Y77.913 E19.83058
G1 X198.485 Y78.691 E19.91461
G1 X198.485 Y85.61 E20.66187
G1 X198.525 Y88.41 E20.9643
G1 X198.638 Y91.081 E21.25302
G1 X198.832 Y93.82 E21.54958
G1 X199.096 Y96.476 E21.83784
G1 X199.448 Y99.228 E22.13748
G1 X199.862 Y101.863 E22.42555
G1 X200.407 Y104.783 E22.74635
G1 X200.473 Y105.395 E22.81283
G1 X200.485 Y105.845 E22.86145
G1 X200.485 Y116.838 E24.04869
G1 X200.47 Y117.901 E24.16351
G1 X200.47 Y120.673 E24.46288
G1 X200.485 Y121.569 E24.55967
G1 X200.479 Y125.216 E24.95354
G1 X200.485 Y125.772 E25.01359
G1 X200.485 Y139.824 E26.53121
G1 X200.474 Y140.531 E26.60757
G1 X200.425 Y141.094 E26.66861
G1 X200.208 Y141.902 E26.75897
G1 X199.307 Y144.249 E27.03048
G1 X198.41 Y146.787 E27.3212
G1 X197.923 Y148.268 E27.48957
G1 X197.525 Y149.208 E27.59982
G1 X197.289 Y149.7 E27.65875
G1 X197.001 Y150.201 E27.72116
G1 X196.582 Y150.818 E27.80171
G1 X195.96 Y151.609 E27.91038
G1 X195.459 Y152.124 E27.98798
G1 X194.708 Y152.797 E28.09689
G1 X194.097 Y153.237 E28.17821
G1 X193.268 Y153.752 E28.28361
G1 X192.596 Y154.077 E28.36423
G1 X191.657 Y154.453 E28.47347
G1 X190.944 Y154.654 E28.55347
G1 X189.988 Y154.854 E28.65896
G1 X189.211 Y154.934 E28.74332
G1 X188.598 Y154.973 E28.80966
G1 X187.8 Y154.985 E28.89585
G1 X115.39 Y154.985 E36.71613
G1 X112.59 Y155.025 E37.01856
G1 X109.92 Y155.138 E37.30718
G1 X107.18 Y155.332 E37.60384
G1 X104.524 Y155.596 E37.8921
G1 X101.772 Y155.948 E38.19174
G1 X99.13 Y156.363 E38.48057
G1 X96.207 Y156.908 E38.8017
G1 X95.587 Y156.974 E38.86904
G1 X95.155 Y156.985 E38.91571
G1 X77.165 Y156.985 E40.85863
G1 X75.65 Y156.963 E41.02226
G1 X74.263 Y156.925 E41.17212
G1 X71.565 Y156.927 E41.4635
G1 X69.155 Y156.985 E41.72386
G1 X50.165 Y156.985 E43.77478
G1 X49.464 Y156.975 E43.85049
G1 X48.745 Y156.899 E43.92858
G1 X46.441 Y156.443 E44.18223
G1 X43.791 Y155.989 E44.4726
G1 X41.072 Y155.602 E44.76922
G1 X38.413 Y155.3 E45.05823
G1 X35.596 Y155.063 E45.36354
G1 X33.515 Y154.91 E45.5889
G1 X32.52 Y154.768 E45.69745
G1 X31.769 Y154.577 E45.78114
G1 X30.835 Y154.269 E45.88735
G1 X30.192 Y153.978 E45.96358
G1 X29.299 Y153.501 E46.07292
G1 X28.685 Y153.084 E46.15308
G1 X27.886 Y152.456 E46.26283
G1 X27.376 Y151.959 E46.33974
G1 X26.702 Y151.206 E46.44889
G1 X26.253 Y150.583 E46.53182
G1 X25.748 Y149.766 E46.63555
G1 X25.414 Y149.077 E46.71825
G1 X25.047 Y148.157 E46.82522
G1 X24.846 Y147.444 E46.90523
G1 X24.647 Y146.493 E47.01016
G1 X24.567 Y145.712 E47.09495
G1 X24.527 Y145.087 E47.16259
G1 X24.515 Y144.309 E47.24662
G1 X24.515 Y106.39 E51.34187
G1 X24.475 Y103.59 E51.6443
G1 X24.362 Y100.919 E51.93303
G1 X24.17 Y98.212 E52.22612
G1 X23.9 Y95.491 E52.52143
G1 X23.557 Y92.806 E52.81377
G1 X23.132 Y90.102 E53.10939
G1 X22.592 Y87.209 E53.42723
G1 X22.526 Y86.587 E53.49478
G1 X22.515 Y86.116 E53.54566
G1 X22.526 Y84.976 E53.66879
G1 X22.572 Y84.413 E53.72979
G1 X22.684 Y83.902 E53.78629
G1 X23.412 Y81.389 E54.06886
G1 X24.096 Y78.761 E54.36214
G1 X24.698 Y76.159 E54.65057
G10
G0 F4500 X23.8 Y81.487
G11
G1 F1800 X24.487 Y78.847 E54.94519
G1 X25.086 Y76.256 E55.2324
G1 X25.311 Y75.365 E55.33165
G1 X25.595 Y74.504 E55.42956
G1 X25.882 Y73.866 E55.50512
G1 X26.33 Y73.023 E55.60822
G1 X26.742 Y72.416 E55.68745
G1 X27.327 Y71.669 E55.78992
G1 X27.82 Y71.163 E55.86622
G1 X28.527 Y70.527 E55.96892
G1 X29.133 Y70.089 E56.04968
G1 X29.91 Y69.607 E56.14843
G1 X30.565 Y69.29 E56.22702
G1 X31.453 Y68.932 E56.33042
G1 X32.155 Y68.733 E56.40923
G1 X33.054 Y68.544 E56.50844
G1 X33.821 Y68.465 E56.59171
G1 X34.411 Y68.427 E56.65557
G1 X35.206 Y68.415 E56.74144
G1 X48.616 Y68.415 E58.18972
G1 X51.397 Y68.376 E58.49009
G1 X54.125 Y68.26 E58.78498
G1 X56.855 Y68.066 E59.08057
G1 X59.53 Y67.801 E59.37088
G1 X62.27 Y67.451 E59.66921
G1 X64.933 Y67.032 E59.96035
G1 X67.865 Y66.485 E60.28247
G1 X68.424 Y66.425 E60.34319
G1 X68.845 Y66.415 E60.38867
G1 X77.329 Y66.415 E61.30494
G1 X78.03 Y66.425 E61.38065
G1 X78.649 Y66.488 E61.44785
G1 X80.285 Y66.798 E61.62768
G1 X82.969 Y67.257 E61.92176
G1 X85.662 Y67.639 E62.21552
G1 X88.38 Y67.946 E62.51093
G1 X91.104 Y68.177 E62.80618
G1 X93.804 Y68.329 E63.09824
G1 X97.896 Y68.415 E63.54027
G1 X187.84 Y68.415 E73.25423
G1 X188.511 Y68.424 E73.3267
G1 X189.353 Y68.48 E73.41784
G1 X190.382 Y68.62 E73.52999
G1 X191.133 Y68.811 E73.61368
G1 X192 Y69.096 E73.71225
G1 X192.634 Y69.382 E73.78736
G1 X193.477 Y69.83 E73.89047
G1 X194.084 Y70.242 E73.9697
G1 X194.831 Y70.827 E74.07217
G1 X195.337 Y71.32 E74.14847
G1 X195.973 Y72.027 E74.25117
G1 X196.406 Y72.627 E74.33108
G1 X196.893 Y73.41 E74.43067
G1 X197.21 Y74.065 E74.50926
G1 X197.568 Y74.953 E74.61266
G1 X197.767 Y75.655 E74.69147
G1 X197.955 Y76.549 E74.79013
G1 X198.034 Y77.317 E74.87351
G1 X198.073 Y77.919 E74.93866
G1 X198.085 Y78.697 E75.0227
G1 X198.085 Y85.616 E75.76995
G1 X198.124 Y88.397 E76.07033
G1 X198.24 Y91.126 E76.36533
G1 X198.434 Y93.855 E76.6608
G1 X198.699 Y96.53 E76.95112
G1 X199.049 Y99.27 E77.24944
G1 X199.467 Y101.927 E77.53992
G1 X200.014 Y104.856 E77.86173
G1 X200.073 Y105.407 E77.92157
G1 X200.085 Y105.845 E77.9689
G1 X200.085 Y116.833 E79.1556
G1 X200.07 Y117.896 E79.27042
G1 X200.07 Y120.673 E79.57033
G1 X200.085 Y121.568 E79.667
G1 X200.079 Y125.215 E80.06088
G1 X200.085 Y125.776 E80.12147
G1 X200.085 Y139.818 E81.63801
G1 X200.074 Y140.525 E81.71437
G1 X200.025 Y141.059 E81.77229
G1 X199.835 Y141.759 E81.85062
G1 X198.924 Y144.133 E82.12525
G1 X198.03 Y146.662 E82.41494
G1 X197.543 Y148.143 E82.58331
G1 X197.16 Y149.044 E82.68905
G1 X196.929 Y149.526 E82.74677
G1 X196.325 Y150.488 E82.86945
G1 X196.002 Y150.938 E82.92927
G1 X195.26 Y151.758 E83.04871
G1 X194.867 Y152.141 E83.10798
G1 X193.963 Y152.843 E83.23159
G1 X193.092 Y153.392 E83.34278
G1 X192.433 Y153.712 E83.4219
G1 X191.547 Y154.068 E83.52503
G1 X190.845 Y154.267 E83.60383
G1 X189.946 Y154.456 E83.70304
G1 X189.181 Y154.535 E83.7861
G1 X188.592 Y154.573 E83.84985
G1 X187.794 Y154.585 E83.93604
G1 X115.384 Y154.585 E91.75632
G1 X112.603 Y154.624 E92.0567
G1 X109.875 Y154.74 E92.35159
G1 X107.145 Y154.934 E92.64717
G1 X104.47 Y155.199 E92.93749
G1 X101.73 Y155.549 E93.23581
G1 X99.067 Y155.968 E93.52695
G1 X96.134 Y156.515 E93.84918
G1 X95.576 Y156.575 E93.90979
G1 X95.155 Y156.585 E93.95527
G1 X77.17 Y156.585 E95.89765
G1 X75.661 Y156.563 E96.06064
G1 X74.274 Y156.525 E96.21049
G1 X71.555 Y156.527 E96.50414
G1 X69.155 Y156.585 E96.76342
G1 X50.171 Y156.585 E98.81369
G1 X49.47 Y156.575 E98.88941
G1 X48.823 Y156.507 E98.95967
G1 X46.508 Y156.049 E99.21454
G1 X43.849 Y155.593 E99.5059
G1 X41.136 Y155.207 E99.80185
G1 X38.421 Y154.899 E100.09695
G1 X35.628 Y154.664 E100.39966
G1 X33.554 Y154.512 E100.62426
G1 X32.618 Y154.38 E100.72635
G1 X31.877 Y154.192 E100.80891
G1 X30.999 Y153.904 E100.9087
G1 X30.366 Y153.618 E100.98372
G1 X29.523 Y153.17 E101.08682
G1 X28.919 Y152.76 E101.16567
G1 X28.164 Y152.169 E101.26922
G1 X27.663 Y151.68 E101.34483
G1 X27.026 Y150.971 E101.44776
G1 X26.584 Y150.359 E101.5293
G1 X26.107 Y149.591 E101.62694
G1 X25.779 Y148.913 E101.70828
G1 X25.432 Y148.047 E101.80903
G1 X25.233 Y147.345 E101.88784
G1 X25.045 Y146.451 E101.9865
G1 X24.966 Y145.683 E102.06988
G1 X24.927 Y145.081 E102.13504
G1 X24.915 Y144.303 E102.21907
G1 X24.915 Y106.384 E106.31432
G1 X24.876 Y103.603 E106.6147
G1 X24.76 Y100.874 E106.9097
G1 X24.566 Y98.145 E107.20517
G1 X24.301 Y95.468 E107.4957
G1 X23.951 Y92.73 E107.79381
G1 X23.532 Y90.066 E108.08506
G1 X22.985 Y87.135 E108.40707
G1 X22.925 Y86.576 E108.46779
G1 X22.915 Y86.12 E108.51705
G1 X22.926 Y84.98 E108.64018
G1 X22.971 Y84.446 E108.69806
G1 X23.068 Y84.013 E108.74598
G1 X23.8 Y81.487 E109.03001
G10
G0 F4500 X23.316 Y86.245
G11
G1 F1800 X23.326 Y84.984 E109.1662
G1 X23.452 Y84.124 E109.26007
G1 X24.185 Y81.593 E109.54465
G1 X24.871 Y78.958 E109.83872
G1 X25.474 Y76.353 E110.1275
G1 X25.696 Y75.474 E110.22541
G1 X25.96 Y74.668 E110.31701
G1 X26.243 Y74.039 E110.3915
G1 X26.662 Y73.246 E110.48837
G1 X27.066 Y72.651 E110.56604
G1 X27.615 Y71.947 E110.66246
G1 X28.099 Y71.449 E110.73746
G1 X28.762 Y70.851 E110.83389
G1 X29.358 Y70.42 E110.91332
G1 X30.085 Y69.967 E111.00583
G1 X30.729 Y69.655 E111.08312
G1 X31.563 Y69.316 E111.18034
G1 X32.254 Y69.121 E111.25789
G1 X33.095 Y68.941 E111.35077
G1 X33.851 Y68.864 E111.43284
G1 X34.417 Y68.827 E111.4941
G1 X35.212 Y68.815 E111.57997
G1 X48.622 Y68.815 E113.02825
G1 X51.419 Y68.775 E113.33036
G1 X54.136 Y68.66 E113.62406
G1 X56.883 Y68.465 E113.92148
G1 X59.587 Y68.197 E114.21494
G1 X62.311 Y67.849 E114.51153
G1 X64.997 Y67.427 E114.80517
G1 X67.938 Y66.878 E115.12829
G1 X68.755 Y66.816 E115.21678
G1 X77.324 Y66.815 E116.14223
G1 X78.025 Y66.825 E116.21794
G1 X78.574 Y66.881 E116.27754
G1 X80.19 Y67.187 E116.45517
G1 X82.917 Y67.654 E116.75398
G1 X85.598 Y68.033 E117.0464
G1 X88.338 Y68.344 E117.34422
G1 X91.081 Y68.576 E117.64152
G1 X93.802 Y68.729 E117.93586
G1 X97.888 Y68.815 E118.37724
G1 X187.835 Y68.815 E128.09152
G1 X188.697 Y68.833 E128.18463
G1 X189.406 Y68.886 E128.26142
G1 X190.285 Y69.008 E128.35726
G1 X191.024 Y69.196 E128.43962
G1 X191.837 Y69.461 E128.53197
G1 X192.461 Y69.743 E128.60592
G1 X193.254 Y70.162 E128.70279
G1 X193.849 Y70.566 E128.78046
G1 X194.553 Y71.115 E128.87688
G1 X195.051 Y71.599 E128.95188
G1 X195.649 Y72.262 E129.0483
G1 X196.076 Y72.852 E129.12696
G1 X196.533 Y73.585 E129.22025
G1 X196.845 Y74.229 E129.29754
G1 X197.184 Y75.063 E129.39476
G1 X197.379 Y75.753 E129.4722
G1 X197.558 Y76.591 E129.56475
G1 X197.635 Y77.347 E129.64682
G1 X197.673 Y77.926 E129.70949
G1 X197.685 Y78.704 E129.79352
G1 X197.685 Y85.622 E130.54066
G1 X197.725 Y88.42 E130.84288
G1 X197.84 Y91.137 E131.13658
G1 X198.035 Y93.883 E131.43389
G1 X198.303 Y96.587 E131.72735
G1 X198.651 Y99.311 E132.02394
G1 X199.073 Y101.997 E132.31758
G1 X199.621 Y104.93 E132.63983
G1 X199.684 Y105.747 E132.72833
G1 X199.685 Y116.827 E133.92497
G1 X199.67 Y117.89 E134.03978
G1 X199.67 Y120.619 E134.33452
G1 X199.685 Y121.567 E134.43691
G1 X199.679 Y125.214 E134.83079
G1 X199.685 Y125.78 E134.89192
G1 X199.685 Y139.812 E136.40738
G1 X199.674 Y140.519 E136.48374
G1 X199.626 Y141.022 E136.53831
G1 X199.461 Y141.616 E136.60489
G1 X198.556 Y143.973 E136.87757
G1 X197.65 Y146.537 E137.17126
G1 X197.163 Y148.018 E137.33963
G1 X196.795 Y148.88 E137.44086
G1 X196.338 Y149.754 E137.54737
G1 X195.934 Y150.349 E137.62505
G1 X195.385 Y151.053 E137.72147
G1 X194.901 Y151.551 E137.79647
G1 X194.238 Y152.149 E137.89289
G1 X193.648 Y152.576 E137.97155
G1 X192.917 Y153.033 E138.06466
G1 X192.269 Y153.347 E138.14242
G1 X191.438 Y153.683 E138.23923
G1 X190.746 Y153.879 E138.31691
G1 X189.905 Y154.059 E138.40979
G1 X189.151 Y154.136 E138.49165
G1 X188.586 Y154.173 E138.5528
G1 X187.788 Y154.185 E138.63899
G1 X115.378 Y154.185 E146.45927
G1 X112.581 Y154.225 E146.76138
G1 X109.864 Y154.34 E147.05508
G1 X107.117 Y154.535 E147.3525
G1 X104.413 Y154.803 E147.64596
G1 X101.689 Y155.151 E147.94255
G1 X99.003 Y155.573 E148.23619
G1 X96.061 Y156.122 E148.55941
G1 X95.245 Y156.184 E148.6478
G1 X77.176 Y156.185 E150.59925
G1 X75.671 Y156.163 E150.7618
G1 X74.284 Y156.125 E150.91166
G1 X71.545 Y156.127 E151.20747
G1 X69.155 Y156.185 E151.46567
G1 X50.176 Y156.185 E153.5154
G1 X49.475 Y156.175 E153.59111
G1 X48.9 Y156.114 E153.65356
G1 X46.612 Y155.662 E153.90544
G1 X43.896 Y155.196 E154.20306
G1 X41.206 Y154.813 E154.49651
G1 X38.467 Y154.502 E154.79422
G1 X35.64 Y154.264 E155.10061
G1 X33.594 Y154.114 E155.32218
G1 X32.715 Y153.992 E155.41802
G1 X31.985 Y153.807 E155.49935
G1 X31.163 Y153.539 E155.59272
G1 X30.539 Y153.257 E155.66668
G1 X29.746 Y152.838 E155.76354
G1 X29.153 Y152.436 E155.84092
G1 X28.443 Y151.882 E155.93818
G1 X27.949 Y151.401 E156.01264
G1 X27.35 Y150.737 E156.10922
G1 X26.915 Y150.134 E156.18952
G1 X26.467 Y149.416 E156.28092
G1 X26.144 Y148.75 E156.36086
G1 X25.816 Y147.937 E156.45554
G1 X25.621 Y147.247 E156.53298
G1 X25.442 Y146.409 E156.62553
G1 X25.365 Y145.653 E156.7076
G1 X25.327 Y145.074 E156.77027
G1 X25.315 Y144.296 E156.8543
G1 X25.315 Y106.378 E160.94944
G1 X25.275 Y103.58 E161.25166
G1 X25.16 Y100.863 E161.54536
G1 X24.965 Y98.117 E161.84267
G1 X24.697 Y95.411 E162.13635
G1 X24.349 Y92.689 E162.43272
G1 X23.927 Y90.002 E162.72647
G1 X23.378 Y87.062 E163.04948
G1 X23.316 Y86.245 E163.13797
G10
;MESH:phone silhouette.STL
G0 F4500 X25.831 Y87.169
G0 X27.831 Y87.169
G0 X28.5 Y86.285
;TYPE:WALL-OUTER
G11
G1 F1800 X28.695 Y86.411 E163.16304
G1 X28.716 Y87.447 E163.27496
G1 X28.715 Y133.107 E168.20624
G1 X28.716 Y134.92 E168.40204
G1 X28.715 Y144.993 E169.48992
G1 X28.804 Y146.009 E169.60007
G1 X29.063 Y146.974 E169.70798
G1 X29.491 Y147.89 E169.81717
G1 X30.063 Y148.708 E169.92497
G1 X30.79 Y149.439 E170.03632
G1 X31.61 Y150.009 E170.14417
G1 X32.524 Y150.437 E170.25317
G1 X33.491 Y150.696 E170.36129
G1 X34.512 Y150.785 E170.47198
G1 X49.5 Y150.785 E172.09068
G1 X49.676 Y150.88 E172.11228
G1 X49.715 Y151 E172.12591
G1 X49.715 Y152.785 E172.31869
G1 X69.285 Y152.785 E174.43225
G1 X69.285 Y151 E174.62503
G1 X69.386 Y150.82 E174.64732
G1 X69.5 Y150.785 E174.6602
G1 X76.5 Y150.785 E175.4162
G1 X76.676 Y150.88 E175.4378
G1 X76.715 Y151 E175.45142
G1 X76.715 Y152.785 E175.6442
G1 X95.285 Y152.785 E177.64976
G1 X95.285 Y151 E177.84254
G1 X95.386 Y150.82 E177.86484
G1 X95.5 Y150.785 E177.87772
G1 X188.488 Y150.785 E187.92042
G1 X189.509 Y150.696 E188.03111
G1 X190.476 Y150.437 E188.13922
G1 X191.39 Y150.009 E188.24822
G1 X192.208 Y149.437 E188.35602
G1 X192.939 Y148.71 E188.46737
G1 X193.508 Y147.89 E188.57516
G1 X193.937 Y146.974 E188.6844
G1 X194.196 Y146.009 E188.79231
